<?xml version="1.0" encoding="UTF-8"?>
<map version="1.10" tiledversion="1.11.2" orientation="orthogonal" renderorder="right-down" width="40" height="25" tilewidth="8" tileheight="8" infinite="0" nextlayerid="2" nextobjectid="1">
 <tileset firstgid="1" source="tiles.tsx"/>
 <layer id="1" name="Tile Layer 1" width="40" height="25">
  <data encoding="csv">
2,2,2,2,2,2,2,2,2,2,2,2,2,2,2,2,2,2,2,2,2,2,2,2,2,2,2,2,2,2,2,2,2,2,2,2,2,2,2,2,
2,2,2,2,2,2,2,2,2,2,2,2,2,2,2,2,2,2,2,2,2,2,2,2,2,2,2,2,2,2,2,2,2,2,2,2,2,2,2,2,
2,2,2,2,2,2,2,2,2,2,2,2,2,2,2,2,2,2,2,2,2,2,2,2,2,2,2,2,2,2,2,2,2,2,2,2,2,2,2,2,
2,2,2,2,2,3,4,5,6,2,2,2,2,2,2,2,2,2,2,2,2,2,2,2,3,4,5,6,2,2,2,2,2,2,2,2,2,2,2,2,
2,2,2,2,2,35,36,37,38,2,2,2,2,2,2,2,2,2,2,2,2,2,2,2,35,36,37,38,2,2,2,2,2,2,2,2,2,2,2,2,
2,2,2,2,2,2,2,2,2,2,2,2,2,2,2,2,2,2,2,2,2,2,2,2,2,2,2,2,2,2,2,2,2,2,2,2,2,2,2,2,
2,2,2,2,2,2,2,2,2,2,2,2,2,2,2,2,2,2,2,2,2,2,2,2,2,2,2,2,2,2,2,2,2,2,2,2,2,2,2,2,
3,4,5,6,2,129,130,131,132,133,134,135,136,137,138,139,140,141,142,143,144,145,2,2,2,2,2,2,2,2,2,2,2,2,2,2,2,2,2,2,
35,36,37,38,2,161,162,163,164,165,166,167,168,169,170,171,172,173,174,175,176,177,2,2,2,2,2,2,2,2,2,2,3,4,5,6,2,2,2,2,
2,2,2,2,2,193,194,195,196,197,198,199,200,201,202,203,204,205,206,207,208,209,2,2,2,2,2,2,2,2,2,2,35,36,37,38,2,2,2,2,
2,2,2,2,2,225,226,227,228,229,230,231,232,233,234,235,236,237,238,239,240,241,2,2,2,2,2,2,2,2,2,2,2,2,2,2,2,2,2,2,
2,2,2,2,2,257,258,259,260,261,262,263,264,265,266,267,268,269,270,271,272,273,2,2,2,2,2,2,2,2,2,2,2,2,2,2,2,2,2,2,
2,2,2,2,2,289,290,291,292,293,294,295,296,297,298,299,300,301,302,303,304,305,2,2,2,2,2,2,2,2,2,2,3,4,5,6,2,2,2,2,
907,908,909,907,908,909,910,907,908,909,910,907,908,909,910,907,908,909,910,907,908,909,910,907,908,909,907,908,909,910,907,908,909,910,907,908,909,910,907,908,
939,940,941,939,940,941,942,939,940,941,942,939,940,941,942,939,940,941,942,939,940,941,942,939,940,941,939,940,941,942,939,940,941,942,939,940,941,942,939,940,
971,972,973,971,972,973,974,971,972,973,974,971,972,973,974,971,972,973,974,971,972,973,974,971,972,973,971,972,973,974,971,972,973,974,971,972,973,974,971,972,
1003,1004,1005,1003,1004,1005,1006,1003,1004,1005,1006,1003,1004,1005,1006,1003,1004,1005,1006,1003,1004,1005,1006,1003,1004,1005,1003,1004,1005,1006,1003,1004,1005,1006,1003,1004,1005,1006,1003,1004,
977,978,979,913,914,915,916,913,914,915,916,917,918,913,914,915,916,917,918,919,920,983,984,977,978,979,913,914,915,916,913,914,915,916,917,918,913,914,915,916,
1009,1010,1011,945,946,947,948,945,946,947,948,949,950,945,946,947,948,949,950,951,952,1015,1016,1009,1010,1011,945,946,947,948,945,946,947,948,949,950,945,946,947,948,
994,995,996,977,978,979,980,977,978,979,980,981,982,977,978,979,980,981,982,983,984,995,996,994,995,996,977,978,979,980,977,978,979,980,981,982,977,978,979,980,
2,2,2,1009,1010,1011,913,914,915,916,913,914,915,916,917,918,919,920,1014,1015,1016,2,2,2,2,2,1009,1010,1011,913,914,915,916,913,914,915,916,917,918,919,
2,2,2,2,2,999,945,946,947,948,945,946,947,948,949,950,951,952,1002,2,2,2,2,2,2,2,2,2,999,945,946,947,948,945,946,947,948,949,950,951,
2,2,2,2,2,2,977,978,979,980,977,978,979,980,981,982,983,984,966,2,2,2,2,2,2,2,2,2,2,977,978,979,980,977,978,979,980,981,982,983,
2,2,2,2,2,2,1009,1010,1011,1012,1009,1010,1011,1012,1013,1014,1015,1016,998,2,2,2,2,2,2,2,2,2,2,1009,1010,1011,1012,1009,1010,1011,1012,1013,1014,1015,
2,2,2,2,2,2,2,967,968,969,898,899,900,899,904,906,970,901,901,902,2,2,2,2,2,2,2,2,2,2,967,968,969,898,899,900,899,904,906,970
</data>
 </layer>
</map>
