<?xml version="1.0" encoding="UTF-8"?>
<map version="1.10" tiledversion="1.11.2" orientation="orthogonal" renderorder="right-down" width="344" height="25" tilewidth="8" tileheight="8" infinite="0" nextlayerid="2" nextobjectid="1">
 <tileset firstgid="1" source="tiles.tsx"/>
 <layer id="1" name="Tile Layer 1" width="344" height="25">
  <data encoding="csv">
2,2,2,2,20,21,22,23,24,25,2,2,52,53,54,55,56,57,2,148,149,150,151,152,153,148,149,150,151,152,153,2,2,2,52,53,54,55,56,57,2,2,2,2,2,2,2,25,2,2,2,2,2,2,2,20,21,22,23,24,25,2,2,20,21,22,23,24,25,2,2,2,2,2,2,52,53,54,55,56,57,2,2,2,20,21,22,23,24,25,2,2,2,2,2,2,2,2,2,2,2,2,2,20,21,22,23,24,25,2,2,2,2,52,53,54,55,56,57,2,2,2,2,148,149,150,151,152,153,2,2,2,2,148,149,150,151,152,153,2,2,2,148,149,150,151,152,153,2,2,2,2,2,20,21,22,23,24,25,2,2,2,2,2,52,53,54,55,56,57,2,2,2,2,52,53,54,55,56,57,2,2,2,2,2,2,20,21,22,23,24,25,2,2,2,2,20,21,22,23,24,25,2,2,2,2,2,2,20,21,22,23,24,25,2,2,2,2,20,21,22,23,24,25,2,2,2,2,2,2,20,21,22,23,24,25,2,2,2,2,52,53,54,55,56,57,2,2,2,2,2,2,20,21,22,23,24,25,2,2,2,2,52,53,54,55,56,57,2,2,2,2,2,2,52,53,54,55,56,57,2,2,2,2,2,2,2,2,2,2,2,2,2,2,2,2,20,20,20,2,2,2,2,2,52,53,54,55,56,57,2,2,2,2,2,2,2,2,2,2,2,2,2,2,2,2,20,21,22,23,24,25,2,2,2,2,20,21,22,23,24,25,20,21,
2,2,2,2,52,53,54,55,56,57,2,2,84,85,86,87,88,89,2,180,181,182,183,184,185,180,181,182,183,184,185,2,2,2,84,85,86,87,88,89,2,2,2,2,2,2,2,2,2,2,2,2,2,2,2,52,53,54,55,56,57,2,2,52,53,54,55,56,57,2,2,2,2,2,2,84,85,86,87,88,89,2,2,2,52,53,54,55,56,57,2,2,2,2,2,2,2,2,25,2,2,2,2,52,53,54,55,56,57,2,2,2,2,84,85,86,87,88,89,2,2,2,2,180,181,182,183,184,185,2,2,2,2,180,181,182,183,184,185,2,2,2,180,181,182,183,184,185,2,2,2,2,2,52,53,54,55,56,57,2,2,2,2,2,84,85,86,87,88,89,2,2,2,2,84,85,86,87,88,89,2,2,2,2,2,2,52,53,54,55,56,57,2,2,2,2,52,53,54,55,56,57,2,2,2,2,2,2,52,53,54,55,56,57,2,2,2,2,52,53,54,55,56,57,2,2,2,2,2,2,52,53,54,55,56,57,2,2,2,2,84,85,86,87,88,89,2,2,2,2,2,2,52,53,54,55,56,57,2,2,2,2,84,85,86,87,88,89,2,2,2,2,2,2,84,85,86,87,88,89,2,2,2,2,20,21,22,23,24,25,2,2,2,2,2,2,20,20,20,2,2,2,2,2,84,85,86,87,88,89,2,2,2,2,20,21,22,23,24,25,2,2,2,2,2,2,52,53,54,55,56,57,2,2,2,2,52,53,54,55,56,57,52,53,
2,2,2,2,84,85,86,87,88,89,2,2,116,117,118,119,120,121,2,212,213,214,215,216,217,212,213,214,215,216,217,2,2,2,116,117,118,119,120,121,2,2,2,2,2,2,2,2,2,2,2,2,2,2,2,84,85,86,87,88,89,2,2,84,85,86,87,88,89,2,2,2,2,2,2,116,117,118,119,120,121,2,2,2,84,85,86,87,88,89,2,2,2,2,2,2,2,2,2,2,2,2,2,84,85,86,87,88,89,2,2,2,2,116,117,118,119,120,121,2,2,2,2,212,213,214,215,216,217,2,2,2,2,212,213,214,215,216,217,2,2,2,212,213,214,215,216,217,2,2,2,2,2,84,85,86,87,88,89,2,2,2,2,2,116,117,118,119,120,121,2,2,2,2,116,117,118,119,120,121,2,2,2,2,2,2,84,85,86,87,88,89,2,2,2,2,84,85,86,87,88,89,2,2,2,2,2,2,84,85,86,87,88,89,2,2,2,2,84,85,86,87,88,89,2,2,2,2,2,2,84,85,86,87,88,89,2,2,2,2,116,117,118,119,120,121,2,2,2,2,2,2,84,85,86,87,88,89,2,2,2,2,116,117,118,119,120,121,2,2,2,2,2,2,116,117,118,119,120,121,2,2,2,2,52,53,54,55,56,57,2,2,2,2,2,20,20,20,20,2,2,2,2,2,116,117,118,119,120,121,2,2,2,2,52,53,54,55,56,57,2,2,2,2,2,2,84,85,86,87,88,89,2,2,2,2,84,85,86,87,88,89,84,85,
2,2,2,2,116,117,118,119,120,121,2,2,2,2,2,2,2,2,2,244,245,246,247,248,249,244,245,246,247,248,249,2,2,2,2,2,2,2,2,901,901,2,2,2,2,2,2,2,901,901,2,2,2,2,2,116,117,118,119,120,121,2,2,116,117,118,119,120,121,2,2,2,2,2,2,2,2,2,2,2,2,2,2,2,116,117,118,119,120,121,2,2,2,2,2,2,2,2,2,2,2,2,2,116,117,118,119,120,121,2,2,2,2,2,2,2,2,2,2,2,2,2,2,244,245,246,247,248,2,2,2,2,2,244,245,246,247,248,249,2,2,2,244,245,246,247,248,249,2,2,2,2,2,116,117,118,119,120,121,2,2,2,2,2,2,2,2,2,2,2,2,2,2,2,2,2,2,2,2,2,2,2,2,2,2,2,116,117,118,119,120,121,2,2,2,2,116,117,118,119,120,121,2,2,2,2,2,2,116,117,118,119,120,121,2,2,2,2,116,117,118,119,120,121,2,2,2,2,2,2,116,117,118,119,120,121,2,2,2,2,2,2,2,2,2,2,2,2,2,2,2,2,116,117,118,119,120,121,2,2,2,2,2,2,2,2,2,2,2,20,21,22,23,24,25,2,2,2,2,2,2,2,2,2,84,85,86,87,88,89,2,2,2,20,20,20,20,20,20,20,21,22,23,24,25,2,2,2,2,2,2,2,2,2,84,85,86,87,88,89,2,2,2,2,2,2,116,117,118,119,120,121,2,2,2,2,116,117,118,119,120,121,116,117,
2,2,2,2,2,2,2,2,2,2,2,2,2,2,2,2,2,2,2,2,2,2,2,2,2,2,2,2,2,2,2,2,2,2,2,2,2,2,2,2,2,2,2,2,2,2,2,2,901,2,2,2,2,2,2,2,2,2,2,2,2,2,2,2,2,2,2,2,2,2,2,2,2,2,2,2,2,2,2,2,2,2,2,2,2,2,2,2,2,2,2,2,2,2,2,2,2,2,2,2,2,2,2,2,2,2,2,2,2,2,2,2,2,2,2,2,2,2,2,2,2,2,2,2,2,2,2,2,2,2,2,2,2,2,2,2,2,2,2,2,148,149,150,151,152,153,2,2,2,2,2,2,2,2,2,2,2,2,2,2,2,2,2,2,2,2,2,2,2,2,2,2,2,2,2,2,2,2,2,2,2,2,2,2,2,2,2,2,2,2,2,2,2,2,2,2,2,2,2,2,2,2,2,2,2,2,2,2,2,2,2,2,2,2,2,2,2,2,2,2,2,2,2,2,2,2,2,2,2,2,2,2,2,2,2,2,2,2,2,2,2,2,2,2,2,2,2,2,2,2,2,2,2,2,2,2,2,2,2,2,2,2,2,2,2,2,2,2,2,52,53,54,55,56,57,2,2,2,2,2,2,2,2,2,116,117,118,119,120,121,2,2,20,20,2,2,2,2,2,52,53,54,55,56,57,2,2,2,2,2,2,2,2,2,116,117,118,119,120,121,2,2,2,2,2,2,2,2,2,2,2,2,2,2,2,2,2,2,2,2,2,2,2,2,
2,2,2,2,2,2,2,670,671,2,2,2,2,2,2,2,2,2,2,2,2,670,671,2,2,2,2,2,2,2,2,2,2,2,2,670,671,2,2,2,2,2,2,2,2,2,2,670,671,2,2,2,2,2,2,2,2,2,670,671,2,2,2,2,2,2,2,2,2,2,2,670,671,2,2,2,2,2,2,2,2,2,2,2,2,2,2,670,671,2,2,2,2,2,2,2,2,2,2,2,2,670,671,2,2,2,2,2,2,2,2,2,670,671,2,2,2,2,2,2,2,2,2,2,670,671,2,2,2,2,2,2,2,2,2,2,2,2,670,671,180,181,182,183,184,185,2,2,2,2,2,2,670,671,2,2,2,2,2,2,2,2,2,2,2,2,2,670,671,2,2,2,2,2,2,2,2,2,2,2,2,670,671,2,2,2,2,2,2,2,2,2,2,2,670,671,2,2,2,2,2,2,2,2,2,2,2,2,2,2,2,2,670,671,2,2,2,2,2,2,2,2,2,2,2,2,2,2,2,2,2,670,671,2,2,2,2,2,2,2,2,2,2,2,2,2,670,671,2,2,2,2,2,2,2,2,2,2,2,2,2,2,2,670,671,2,2,2,2,84,85,86,87,88,89,2,2,2,670,671,2,2,2,2,2,2,2,2,2,2,20,20,20,2,2,2,2,2,2,84,85,86,87,88,89,2,2,2,670,671,2,2,2,2,2,2,2,2,2,2,670,671,2,2,2,2,2,2,2,2,2,2,2,2,2,2,2,2,2,2,2,2,2,2,
2,2,2,2,2,2,2,702,703,2,2,2,2,2,2,2,2,2,2,2,2,702,703,2,2,2,2,2,2,2,2,2,2,2,2,702,703,2,2,2,2,2,2,2,2,2,2,702,703,2,2,2,2,2,2,2,2,2,702,703,2,2,2,2,2,2,2,2,2,2,2,702,703,2,2,2,2,2,2,2,2,2,2,2,2,2,2,702,703,2,2,2,2,2,2,2,2,2,2,2,2,702,703,2,2,2,2,2,2,2,2,2,702,703,2,2,2,2,2,2,2,2,2,2,702,703,2,2,2,2,2,2,2,2,2,2,2,2,702,703,212,213,214,215,216,217,2,2,2,2,2,2,702,703,2,2,2,2,2,2,2,2,2,2,2,2,2,702,703,2,2,2,2,2,2,2,2,2,2,2,2,702,703,2,2,2,2,2,2,2,2,2,2,2,702,703,2,2,2,2,2,2,2,2,2,2,2,2,2,2,2,2,702,703,2,2,2,2,2,2,2,2,2,2,2,2,2,2,2,2,2,702,703,2,2,2,2,2,2,2,2,2,2,2,2,2,702,703,2,2,2,2,2,2,2,2,2,2,2,2,2,2,2,702,703,2,2,2,2,116,117,118,119,120,121,2,2,2,702,703,2,2,2,2,2,2,2,2,2,2,20,20,2,2,2,2,2,2,2,116,117,118,119,120,121,2,2,2,702,703,2,2,2,2,2,2,2,2,2,2,702,703,2,2,2,2,2,2,2,2,2,2,2,2,2,2,2,2,2,2,2,2,2,2,
2,2,2,2,2,2,2,734,735,2,2,2,2,2,2,2,2,2,2,2,2,734,735,2,2,2,2,2,2,2,2,2,2,2,2,734,735,2,2,2,2,2,2,2,2,2,2,734,735,2,2,901,2,2,2,2,2,2,734,735,2,2,2,2,2,2,2,2,2,2,2,734,735,2,2,2,2,2,2,2,901,2,2,2,2,2,2,734,735,2,2,2,2,2,2,2,2,2,2,2,2,734,735,2,2,2,2,2,2,901,2,2,734,735,2,2,2,2,2,2,2,2,2,2,734,735,2,2,2,901,2,2,2,2,2,2,2,2,734,735,244,245,246,247,248,249,2,2,2,901,2,2,734,735,2,2,2,2,2,2,2,2,2,2,2,2,2,734,735,2,901,2,2,2,2,2,2,2,2,2,2,734,735,2,2,2,2,2,2,2,2,2,901,2,734,735,2,2,2,2,2,2,2,2,2,2,2,2,2,2,2,2,734,735,901,2,2,2,2,2,2,2,2,2,2,2,2,2,2,2,2,734,735,2,2,2,901,2,2,2,2,2,2,2,2,2,734,735,2,2,2,2,2,2,2,2,2,2,901,2,2,2,2,734,735,2,2,2,2,2,2,2,2,2,2,2,2,2,734,735,901,2,2,2,2,2,2,2,2,2,20,20,2,2,2,2,2,2,2,2,2,2,2,2,2,2,2,2,734,735,901,2,2,2,2,2,2,2,2,2,734,735,2,2,2,2,2,2,2,2,2,2,901,2,2,2,2,2,2,2,2,2,2,2,
2,2,2,2,2,2,2,766,767,2,2,2,2,2,2,2,2,2,2,2,2,766,767,2,2,2,2,2,2,2,2,2,2,2,2,766,767,2,2,2,2,2,2,2,2,2,2,766,767,2,2,2,2,2,2,2,2,2,766,767,2,2,2,2,2,2,2,2,2,2,2,766,767,2,2,2,2,2,2,2,2,2,2,2,2,2,2,766,767,2,2,2,2,2,2,2,2,2,2,2,2,766,767,2,2,2,2,2,2,2,2,2,766,767,2,2,2,2,2,2,2,2,2,2,766,767,2,2,2,2,2,2,2,2,2,2,2,2,766,767,2,2,2,2,2,2,2,2,2,2,2,2,766,767,2,2,2,2,2,2,2,2,2,2,2,2,2,766,767,2,2,2,2,2,2,2,2,2,2,2,2,766,767,2,2,2,2,2,2,2,2,2,2,2,766,767,2,2,2,2,2,2,2,2,2,2,2,2,2,2,2,2,766,767,2,2,2,2,2,2,2,2,2,2,2,2,2,2,2,2,2,766,767,2,2,2,2,2,2,2,2,2,2,2,2,2,766,767,2,2,2,2,2,2,2,2,2,2,2,2,2,2,2,766,767,2,2,2,2,2,2,2,2,2,2,2,2,2,766,767,2,2,2,2,2,2,2,2,2,2,20,20,2,2,2,2,2,2,2,2,2,2,2,2,2,2,2,2,766,767,2,2,2,2,2,2,2,2,2,2,766,767,2,2,2,2,2,2,2,2,2,2,2,2,2,2,2,2,2,2,2,2,2,2,
2,2,2,2,2,2,2,798,799,2,2,2,2,2,2,2,2,2,2,2,2,798,799,2,2,2,2,2,2,2,2,2,2,2,2,798,799,2,2,2,2,2,2,2,2,2,2,798,799,2,2,2,2,2,2,2,2,2,798,799,2,2,2,2,2,2,2,2,2,2,2,798,799,2,2,2,2,2,2,2,2,2,2,2,2,2,2,798,799,2,2,2,2,2,2,2,2,2,2,2,2,798,799,2,2,2,2,2,2,2,2,2,798,799,2,2,2,2,2,2,2,2,2,2,798,799,2,2,2,2,2,2,2,2,2,2,2,2,798,799,2,2,2,2,2,2,2,2,2,2,2,2,798,799,2,2,2,2,2,2,2,2,2,2,2,2,2,798,799,2,2,2,2,2,2,2,2,2,2,2,2,798,799,2,2,2,2,2,2,2,2,2,2,2,798,799,2,2,2,2,2,2,2,2,2,2,2,2,2,2,2,2,798,799,2,2,2,2,2,2,2,2,2,2,2,2,2,2,2,2,2,798,799,2,2,2,2,2,2,2,2,2,2,2,2,2,798,799,2,2,2,2,2,2,2,2,2,2,2,2,2,2,2,798,799,2,2,2,2,2,2,2,2,2,2,2,2,2,798,799,2,2,2,2,2,2,2,2,2,2,20,20,2,2,2,2,2,2,2,2,2,2,2,2,2,2,2,2,798,799,2,2,2,2,2,2,2,2,2,2,798,799,2,2,2,2,2,2,2,2,2,2,2,2,2,2,2,2,2,2,2,2,2,2,
2,2,2,2,2,2,2,830,831,2,2,2,2,2,2,2,2,2,2,2,2,830,831,2,2,2,2,2,2,2,2,2,2,2,2,830,831,2,2,2,2,2,2,2,2,2,2,830,831,2,2,2,2,860,2,2,2,2,830,831,2,2,2,2,2,2,2,2,2,2,2,830,831,2,2,2,2,2,2,2,2,2,2,2,2,2,2,830,831,2,2,2,2,2,2,2,2,2,2,2,2,830,831,2,2,2,2,2,2,2,2,2,830,831,2,2,2,2,2,2,2,2,2,2,830,831,2,2,2,2,860,2,2,2,2,2,2,2,830,831,2,2,2,2,2,2,2,2,2,2,2,2,830,831,2,2,2,2,2,2,2,2,2,2,2,2,2,830,831,2,2,2,2,2,2,2,2,860,2,2,2,830,831,2,2,2,2,2,2,2,2,2,2,2,830,831,2,2,2,2,2,2,2,2,2,2,2,2,2,2,2,2,830,831,2,2,2,2,2,2,2,2,2,2,2,2,2,2,2,2,2,830,831,2,2,2,2,2,2,2,2,2,2,2,2,2,830,831,2,2,2,2,2,2,2,2,2,2,2,2,2,2,2,830,831,2,2,2,2,2,2,2,2,2,2,2,2,2,830,831,2,2,2,2,2,2,2,2,2,2,20,20,2,2,2,2,2,2,2,2,2,2,2,2,2,2,2,2,830,831,2,2,2,2,2,2,2,2,2,2,830,831,2,2,2,2,2,2,2,2,2,2,2,2,2,2,2,2,2,2,2,2,2,2,
2,2,2,2,2,2,2,862,863,2,2,2,2,2,2,2,2,2,2,2,2,862,863,2,2,2,2,2,2,2,2,2,2,2,2,862,863,2,2,2,2,2,2,2,2,2,2,862,863,2,2,2,2,892,2,2,2,2,862,863,2,2,2,2,2,2,2,2,2,2,2,862,863,2,2,2,2,2,2,2,2,2,2,2,2,2,2,862,863,2,2,2,2,2,2,2,821,2,2,2,2,862,863,2,2,2,2,2,2,2,2,2,862,863,2,2,2,2,2,2,2,2,2,2,862,863,2,2,2,2,892,2,2,2,2,2,2,2,862,863,2,2,2,2,2,2,2,2,2,2,2,2,862,863,2,2,2,2,2,2,2,2,2,2,2,2,2,862,863,2,2,2,2,2,2,2,2,892,2,2,2,862,863,2,2,2,2,2,2,2,2,2,2,2,862,863,2,2,2,2,2,2,2,2,2,2,2,2,2,2,2,2,862,863,2,2,2,2,2,2,2,2,2,2,2,2,2,2,2,2,2,862,863,2,2,2,2,2,2,2,2,2,2,2,2,2,862,863,2,2,2,2,2,2,2,2,2,2,2,2,2,2,2,862,863,2,2,2,2,2,2,2,2,2,2,2,2,2,862,863,2,2,2,2,2,2,2,2,2,2,20,20,2,2,2,2,2,2,2,2,2,2,2,2,2,2,2,2,862,863,2,2,2,2,2,2,2,2,2,2,862,863,2,2,2,2,2,2,2,2,2,2,2,2,2,2,2,2,2,2,2,2,2,2,
869,835,867,869,869,869,835,867,865,868,868,868,868,835,867,865,868,868,868,868,835,867,869,869,869,869,835,867,869,869,869,869,868,869,869,865,869,869,868,869,869,869,869,835,867,869,869,869,866,867,869,869,835,924,869,869,869,835,867,869,869,869,869,868,869,865,868,843,868,868,869,868,869,835,867,868,868,868,835,867,868,835,867,868,868,868,835,867,868,869,868,868,868,837,869,869,853,869,868,865,865,869,835,867,837,868,865,868,865,865,868,865,835,867,868,868,865,865,868,868,865,868,835,867,865,865,865,868,865,865,924,868,868,868,868,865,868,865,868,868,868,835,867,869,869,868,868,868,868,868,868,868,865,865,865,868,865,865,865,868,865,865,865,866,867,868,868,868,865,865,865,865,865,868,868,868,868,924,865,865,868,865,865,868,865,866,867,868,868,868,865,868,868,865,868,868,865,868,1066,20,20,20,20,20,20,20,20,20,20,1067,865,865,865,868,868,869,869,869,865,865,869,865,869,865,869,869,865,869,865,835,867,868,868,868,865,868,868,868,868,865,868,868,869,869,869,869,869,869,868,868,868,835,867,869,869,865,869,869,869,865,865,869,869,869,837,869,868,869,869,869,869,869,868,869,869,869,869,869,869,837,869,865,868,837,868,868,1066,20,20,20,20,20,20,20,20,20,20,1067,865,869,869,869,868,869,869,869,869,869,869,837,869,865,868,837,868,869,869,877,877,877,877,877,877,877,877,877,877,877,877,877,877,877,877,877,877,877,877,877,877,877,20,20,20,20,
1050,1051,1052,1053,1050,1051,1052,1053,1050,1051,1052,1053,1050,1051,1052,1053,1050,1051,1052,1053,1050,1051,1052,1053,1050,1051,1052,1053,1050,1051,1052,1053,1053,1050,1051,1052,1053,1050,1051,1052,1050,1051,1050,1051,1052,1053,1050,1051,1052,1053,1050,1051,1052,1053,1050,1051,1052,1053,1050,1051,1052,1053,1050,1051,1052,1053,1050,1051,1052,1053,1050,1051,1052,1053,1053,1050,1051,1052,1053,1050,1051,1052,1050,1051,1050,1051,1052,1053,1050,1051,1052,1053,1050,1051,1052,1053,1050,1051,1052,1053,1050,1051,1052,1053,1050,1051,1052,1053,1050,1051,1052,1053,1050,1051,1052,1053,1053,1050,1051,1052,1053,1050,1051,1052,1050,1051,1050,1051,1052,1053,1050,1051,1052,1053,1050,1051,1052,1053,1050,1051,1052,1053,1050,1051,1052,1053,1050,1051,1052,1053,1050,1051,1052,1053,1050,1051,1052,1053,1053,1050,1051,1052,1053,1050,1051,1052,1050,1051,1050,1051,1052,1053,1050,1051,1052,1053,1050,1051,1052,1053,1050,1051,1052,1053,1050,1051,1052,1053,1050,1051,1052,1053,1050,1051,1052,1053,1050,1051,907,20,20,20,20,20,20,20,20,20,20,1050,1051,1051,1052,1053,1050,1051,1052,1053,1050,1051,1052,1053,1050,1051,1052,1053,1050,1051,1052,1053,1050,1051,1052,1053,1050,1051,1052,1053,1050,1051,1052,1053,1053,1050,1051,1052,1053,1050,1051,1052,1050,1051,1050,1051,1052,1053,1050,1051,1052,1053,1050,1051,1052,1053,1050,1051,1052,1053,1050,1051,1052,1053,1050,1051,1052,1053,1050,1051,1052,1053,1050,1051,1052,1053,1050,1051,907,20,20,20,20,20,20,20,20,20,20,1050,1051,1051,1052,1053,1050,1051,1052,1053,1050,1051,1052,1053,1050,1051,1052,1053,1050,1051,1052,1053,1050,1051,1052,1053,1050,1051,1052,1053,1050,1051,1052,1053,1053,1050,1051,1052,1053,1050,1051,1052,1050,1051,20,20,20,20,
939,940,941,939,940,941,942,939,940,941,942,939,940,941,942,939,940,941,942,939,940,941,942,939,940,941,939,940,941,942,939,940,941,942,939,940,941,942,939,940,939,940,941,942,939,940,941,942,939,940,941,942,939,940,941,939,940,941,942,939,940,941,942,939,940,941,942,939,940,939,940,941,942,939,940,941,942,939,940,941,942,939,940,941,939,940,941,942,939,940,941,942,939,940,941,942,939,940,939,940,941,942,939,940,941,942,939,940,941,942,939,940,941,939,940,941,942,939,940,941,941,942,939,940,941,942,939,940,941,942,939,940,941,939,940,941,942,939,940,941,941,942,939,940,941,942,939,940,941,942,939,940,941,939,940,941,942,939,940,941,940,941,942,939,940,941,942,939,940,941,942,939,940,941,939,940,941,942,939,940,941,941,940,941,942,939,940,941,942,939,940,941,942,939,940,941,939,940,907,20,20,20,20,20,20,20,20,20,20,941,942,939,940,941,942,939,940,941,939,940,941,942,939,940,941,941,940,941,942,939,940,941,942,939,940,941,942,939,940,941,939,940,941,942,939,940,941,941,940,941,942,939,940,941,942,939,940,941,942,939,940,941,939,940,941,942,939,940,941,941,940,941,942,939,940,941,942,939,940,941,942,939,940,941,939,940,907,20,20,20,20,20,20,20,20,20,20,941,942,941,940,941,942,939,940,941,942,939,940,941,942,939,940,941,939,940,941,942,939,940,941,941,940,941,942,939,940,941,942,939,940,941,942,939,940,941,939,940,941,942,20,20,20,20,
971,972,973,971,972,973,974,971,972,973,974,971,972,973,974,971,972,973,974,971,972,973,974,971,972,973,971,972,973,974,971,972,973,974,971,972,973,974,971,972,971,972,973,974,971,972,973,974,971,972,973,974,971,972,973,971,972,973,974,971,972,973,974,971,972,973,974,971,972,971,972,973,974,971,972,973,974,971,972,973,974,971,972,973,971,972,973,974,971,972,973,974,971,972,973,974,971,972,971,972,973,974,971,972,973,974,971,972,973,974,971,972,973,971,972,973,974,971,972,973,973,974,971,972,973,974,971,972,973,974,971,972,973,971,972,973,974,971,972,973,973,974,971,972,973,974,971,972,973,974,971,972,973,971,972,973,974,971,972,973,972,973,974,971,972,973,974,971,972,973,974,971,972,973,971,972,973,974,971,972,973,973,972,973,974,971,972,973,974,971,972,973,974,971,972,973,971,972,907,20,20,20,20,20,20,20,20,20,20,973,974,971,972,973,974,971,972,973,971,972,973,974,971,972,973,973,972,973,974,971,972,973,974,971,972,973,974,971,972,973,971,972,973,974,971,972,973,973,972,973,974,971,972,973,974,971,972,973,974,971,972,973,971,972,973,974,971,972,973,973,972,973,974,971,972,973,974,971,972,973,974,971,972,973,971,972,907,20,20,20,20,20,20,20,20,20,20,973,974,973,972,973,974,971,972,973,974,971,972,973,974,971,972,973,971,972,973,974,971,972,973,973,972,973,974,971,972,973,974,971,972,973,974,971,972,973,971,972,973,974,20,20,20,20,
1003,1004,1005,1003,1004,1005,1006,1003,1004,1005,1006,1003,1004,1005,1006,1003,1004,1005,1006,1003,1004,1005,1006,1003,1004,1005,1003,1004,1005,1006,1003,1004,1005,1006,1003,1004,1005,1006,1003,1004,1003,1004,1005,1006,1003,1004,1005,1006,1003,1004,1005,1006,1003,1004,1005,1003,1004,1005,1006,1003,1004,1005,1006,1003,1004,1005,1006,1003,1004,1003,1004,1005,1006,1003,1004,1005,1006,1003,1004,1005,1006,1003,1004,1005,1003,1004,1005,1006,1003,1004,1005,1006,1003,1004,1005,1006,1003,1004,1003,1004,1005,1006,1003,1004,1005,1006,1003,1004,1005,1006,1003,1004,1005,1003,1004,1005,1006,1003,1004,1005,1005,1006,1003,1004,1005,1006,1003,1004,1005,1006,1003,1004,1005,1003,1004,1005,1006,1003,1004,1005,1005,1006,1003,1004,1005,1006,1003,1004,1005,1006,1003,1004,1005,1003,1004,1005,1006,1003,1004,1005,1004,1005,1006,1003,1004,1005,1006,1003,1004,1005,1006,1003,1004,1005,1003,1004,1005,1006,1003,1004,1005,1005,1004,1005,1006,1003,1004,1005,1006,1003,1004,1005,1006,1003,1004,1005,1003,1004,907,20,20,20,20,20,20,20,20,20,20,1005,1006,1003,1004,1005,1006,1003,1004,1005,1003,1004,1005,1006,1003,1004,1005,1005,1004,1005,1006,1003,1004,1005,1006,1003,1004,1005,1006,1003,1004,1005,1003,1004,1005,1006,1003,1004,1005,1005,1004,1005,1006,1003,1004,1005,1006,1003,1004,1005,1006,1003,1004,1005,1003,1004,1005,1006,1003,1004,1005,1005,1004,1005,1006,1003,1004,1005,1006,1003,1004,1005,1006,1003,1004,1005,1003,1004,907,20,20,20,20,20,20,20,20,20,20,1005,1006,1005,1004,1005,1006,1003,1004,1005,1006,1003,1004,1005,1006,1003,1004,1005,1003,1004,1005,1006,1003,1004,1005,1005,1004,1005,1006,1003,1004,1005,1006,1003,1004,1005,1006,1003,1004,1005,1003,1004,1005,1006,20,20,20,20,
977,978,979,913,914,915,916,913,914,915,916,917,918,913,914,915,916,917,918,919,920,983,984,977,978,979,913,914,915,916,913,914,915,916,917,918,913,914,915,916,917,918,913,914,915,916,917,918,919,920,983,984,977,978,979,913,914,915,916,913,914,915,916,917,918,913,914,915,916,917,918,913,914,915,916,917,918,919,920,983,984,977,978,979,913,914,915,916,913,914,915,916,917,918,913,914,915,916,917,918,913,914,915,916,917,918,919,920,983,984,977,978,979,913,914,915,916,913,914,915,913,914,915,916,917,918,919,920,983,984,977,978,979,913,914,915,916,913,914,915,913,914,915,916,917,918,919,920,983,984,977,978,979,913,914,915,916,913,914,915,918,913,914,915,916,917,918,919,920,983,984,977,978,979,913,914,915,916,913,914,915,913,918,913,914,915,916,917,918,919,920,983,984,977,978,979,913,914,907,20,20,20,20,20,20,20,20,20,20,913,914,919,920,983,984,977,978,979,913,914,915,916,913,914,915,913,918,913,914,915,916,917,918,919,920,983,984,977,978,979,913,914,915,916,913,914,915,913,918,913,914,915,916,917,918,919,920,983,984,977,978,979,913,914,915,916,913,914,915,913,918,913,914,915,916,917,918,919,920,983,984,977,978,979,913,914,907,20,20,20,20,20,20,20,20,20,20,913,914,913,918,913,914,915,916,917,918,919,920,983,984,977,978,979,913,914,915,916,913,914,915,913,918,913,914,915,916,917,918,919,920,983,984,977,978,979,913,914,915,916,20,20,20,20,
1009,1010,1011,945,946,947,948,945,946,947,948,949,950,945,946,947,948,949,950,951,952,1015,1016,1009,1010,1011,945,946,947,948,945,946,947,948,949,950,945,946,947,948,949,950,945,946,947,948,949,950,951,952,1015,1016,1009,1010,1011,945,946,947,948,945,946,947,948,949,950,945,946,947,948,949,950,945,946,947,948,949,950,951,952,1015,1016,1009,1010,1011,945,946,947,948,945,946,947,948,949,950,945,946,947,948,949,950,945,946,947,948,949,950,951,952,1015,1016,1009,1010,1011,945,946,947,948,945,946,947,945,946,947,948,949,950,951,952,1015,1016,1009,1010,1011,945,946,947,948,945,946,947,945,946,947,948,949,950,951,952,1015,1016,1009,1010,1011,945,946,947,948,945,946,947,950,945,946,947,948,949,950,951,952,1015,1016,1009,1010,1011,945,946,947,948,945,946,947,945,950,945,946,947,948,949,950,951,952,1015,1016,1009,1010,1011,945,946,907,20,20,20,20,20,20,20,20,20,20,945,946,951,952,1015,1016,1009,1010,1011,945,946,947,948,945,946,947,945,950,945,946,947,948,949,950,951,952,1015,1016,1009,1010,1011,945,946,947,948,945,946,947,945,950,945,946,947,948,949,950,951,952,1015,1016,1009,1010,1011,945,946,947,948,945,946,947,945,950,945,946,947,948,949,950,951,952,1015,1016,1009,1010,1011,945,946,907,20,20,20,20,20,20,20,20,20,20,945,946,945,950,945,946,947,948,949,950,951,952,1015,1016,1009,1010,1011,945,946,947,948,945,946,947,945,950,945,946,947,948,949,950,951,952,1015,1016,1009,1010,1011,945,946,947,948,20,20,20,20,
994,995,996,977,978,979,980,977,978,979,980,981,982,977,978,979,980,981,982,983,984,995,996,994,995,996,977,978,979,980,977,978,979,980,981,982,977,978,979,980,981,982,977,978,979,980,981,982,983,984,995,996,994,995,996,977,978,979,980,977,978,979,980,981,982,977,978,979,980,981,982,977,978,979,980,981,982,983,984,995,996,994,995,996,977,978,979,980,977,978,979,980,981,982,977,978,979,980,981,982,977,978,979,980,981,982,983,984,995,996,994,995,996,977,978,979,980,977,978,979,977,978,979,980,981,982,983,984,995,996,994,995,996,977,978,979,980,977,978,979,977,978,979,980,981,982,983,984,995,996,994,995,996,977,978,979,980,977,978,979,982,977,978,979,980,981,982,983,984,995,996,994,995,996,977,978,979,980,977,978,979,977,982,977,978,979,980,981,982,983,984,995,996,994,995,996,977,978,907,20,20,20,20,20,20,20,20,20,20,977,978,983,984,995,996,994,995,996,977,978,979,980,977,978,979,977,982,977,978,979,980,981,982,983,984,995,996,994,995,996,977,978,979,980,977,978,979,977,982,977,978,979,980,981,982,983,984,995,996,994,995,996,977,978,979,980,977,978,979,977,982,977,978,979,980,981,982,983,984,995,996,994,995,996,977,978,907,20,20,20,20,20,20,20,20,20,20,977,978,977,982,977,978,979,980,981,982,983,984,995,996,994,995,996,977,978,979,980,977,978,979,977,982,977,978,979,980,981,982,983,984,995,996,994,995,996,977,978,979,980,20,20,20,20,
2,2,2,1009,1010,1011,913,914,915,916,913,914,915,916,917,918,919,920,1014,1015,1016,2,2,2,2,2,1009,1010,1011,913,914,915,916,913,914,915,916,917,918,919,914,915,916,917,918,919,920,1014,1015,1016,2,2,2,2,2,1009,1010,1011,913,914,915,916,913,914,915,916,917,918,919,914,915,916,917,918,919,920,1014,1015,1016,2,2,2,2,2,1009,1010,1011,913,914,915,916,913,914,915,916,917,918,919,914,915,916,917,918,919,920,1014,1015,1016,2,2,2,2,2,1009,1010,1011,913,914,915,916,916,917,918,919,920,1014,1015,1016,2,2,2,2,2,1009,1010,1011,913,914,915,916,916,917,918,919,920,1014,1015,1016,2,2,2,2,2,1009,1010,1011,913,914,915,916,915,916,917,918,919,920,1014,1015,1016,2,2,2,2,2,1009,1010,1011,913,914,915,916,916,915,916,917,918,919,920,1014,1015,1016,2,2,2,2,2,1009,1010,842,20,20,20,20,20,20,20,20,20,20,916,917,1015,1016,2,2,2,2,2,1009,1010,1011,913,914,915,916,916,915,916,917,918,919,920,1014,1015,1016,2,2,2,2,2,1009,1010,1011,913,914,915,916,916,915,916,917,918,919,920,1014,1015,1016,2,2,2,2,2,1009,1010,1011,913,914,915,916,916,915,916,917,918,919,920,1014,1015,1016,2,2,2,2,2,1009,1010,842,20,20,20,20,20,20,20,20,20,20,916,917,916,915,916,917,918,919,920,1014,1015,1016,2,2,2,2,2,1009,1010,1011,913,914,915,916,916,915,916,917,918,919,920,1014,1015,1016,2,2,2,2,2,1009,1010,1011,913,20,20,20,20,
2,2,2,2,2,999,945,946,947,948,945,946,947,948,949,950,951,952,1002,2,2,2,2,2,2,2,2,2,999,945,946,947,948,945,946,947,948,949,950,951,946,947,948,949,950,951,952,1002,2,2,2,2,2,2,2,2,2,999,945,946,947,948,945,946,947,948,949,950,951,946,947,948,949,950,951,952,1002,2,2,2,2,2,2,2,2,2,999,945,946,947,948,945,946,947,948,949,950,951,946,947,948,949,950,951,952,1002,2,2,2,2,2,2,2,2,2,999,945,946,947,948,948,949,950,951,952,1002,2,2,2,2,2,2,2,2,2,999,945,946,947,948,948,949,950,951,952,1002,2,2,2,2,2,2,2,2,2,999,945,946,947,948,947,948,949,950,951,952,1002,2,2,2,2,2,2,2,2,2,999,945,946,947,948,948,947,948,949,950,951,952,1002,2,2,2,2,2,2,2,2,2,20,20,20,20,20,20,20,20,20,20,20,948,949,2,2,2,2,2,2,2,2,2,999,945,946,947,948,948,947,948,949,950,951,952,1002,2,2,2,2,2,2,2,2,2,999,945,946,947,948,948,947,948,949,950,951,952,1002,2,2,2,2,2,2,2,2,2,999,945,946,947,948,948,947,948,949,950,951,952,1002,2,2,2,2,2,2,2,2,2,20,20,20,20,20,20,20,20,20,20,20,948,949,948,947,948,949,950,951,952,1002,2,2,2,2,2,2,2,2,2,999,945,946,947,948,948,947,948,949,950,951,952,1002,2,2,2,2,2,2,2,2,2,999,900,20,20,20,20,
2,2,2,2,2,2,977,978,979,980,977,978,979,980,981,982,983,984,966,2,2,2,2,2,2,2,2,2,2,977,978,979,980,977,978,979,980,981,982,983,978,979,980,981,982,983,984,966,2,2,2,2,2,2,2,2,2,2,977,978,979,980,977,978,979,980,981,982,983,978,979,980,981,982,983,984,966,2,2,2,2,2,2,2,2,2,2,977,978,979,980,977,978,979,980,981,982,983,978,979,980,981,982,983,984,966,2,2,2,2,2,2,2,2,2,2,977,978,979,980,980,981,982,983,984,966,2,2,2,2,2,2,2,2,2,2,977,978,979,980,980,981,982,983,984,966,2,2,2,2,2,2,2,2,2,2,977,978,979,980,979,980,981,982,983,984,966,2,2,2,2,2,2,2,2,2,2,977,978,979,980,980,979,980,981,982,983,984,966,2,2,2,2,2,2,2,2,2,20,20,20,20,20,20,20,20,20,20,20,980,981,2,2,2,2,2,2,2,2,2,2,977,978,979,980,980,979,980,981,982,983,984,966,2,2,2,2,2,2,2,2,2,2,977,978,979,980,980,979,980,981,982,983,984,966,2,2,2,2,2,2,2,2,2,2,977,978,979,980,980,979,980,981,982,983,984,966,2,2,2,2,2,2,2,2,2,20,20,20,20,20,20,20,20,20,20,20,980,981,980,979,980,981,982,983,984,966,2,2,2,2,2,2,2,2,2,2,977,978,979,980,980,979,980,981,982,983,984,966,2,2,2,2,2,2,2,2,2,2,932,20,20,20,20,
2,2,2,2,2,2,1009,1010,1011,1012,1009,1010,1011,1012,1013,1014,1015,1016,998,2,2,2,2,2,2,2,2,2,2,1009,1010,1011,1012,1009,1010,1011,1012,1013,1014,1015,1010,1011,1012,1013,1014,1015,1016,998,2,2,2,2,2,2,2,2,2,2,1009,1010,1011,1012,1009,1010,1011,1012,1013,1014,1015,1010,1011,1012,1013,1014,1015,1016,998,2,2,2,2,2,2,2,2,2,2,1009,1010,1011,1012,1009,1010,1011,1012,1013,1014,1015,1010,1011,1012,1013,1014,1015,1016,998,2,2,2,2,2,2,2,2,2,2,1009,1010,1011,1012,1012,1013,1014,1015,1016,998,2,2,2,2,2,2,2,2,2,2,1009,1010,1011,1012,1012,1013,1014,1015,1016,998,2,2,2,2,2,2,2,2,2,2,1009,1010,1011,1012,1011,1012,1013,1014,1015,1016,998,2,2,2,2,2,2,2,2,2,2,1009,1010,1011,1012,1012,1011,1012,1013,1014,1015,1016,998,2,2,2,2,2,2,2,2,2,2,20,20,20,20,20,20,20,20,20,20,1012,1013,2,2,2,2,2,2,2,2,2,2,1009,1010,1011,1012,1012,1011,1012,1013,1014,1015,1016,998,2,2,2,2,2,2,2,2,2,2,1009,1010,1011,1012,1012,1011,1012,1013,1014,1015,1016,998,2,2,2,2,2,2,2,2,2,2,1009,1010,1011,1012,1012,1011,1012,1013,1014,1015,1016,998,2,2,2,2,2,2,2,2,2,2,20,20,20,20,20,20,20,20,20,20,1012,1013,1012,1011,1012,1013,1014,1015,1016,998,2,2,2,2,2,2,2,2,2,2,1009,1010,1011,1012,1012,1011,1012,1013,1014,1015,1016,998,2,2,2,2,2,2,2,2,2,2,964,20,20,20,20,
2,2,2,2,2,2,2,967,968,969,898,899,900,899,904,906,970,901,901,902,2,2,2,2,2,2,2,2,2,2,967,968,969,898,899,900,899,904,906,970,899,900,899,904,906,970,901,901,902,2,2,2,2,2,2,2,2,2,2,967,968,969,898,899,900,899,904,906,970,899,900,899,904,906,970,901,901,902,2,2,2,2,2,2,2,2,2,2,967,968,969,898,899,900,899,904,906,970,899,900,899,904,906,970,901,901,902,2,2,2,2,2,2,2,2,2,2,967,968,969,899,904,906,970,901,901,902,2,2,2,2,2,2,2,2,2,2,967,968,969,899,904,906,970,901,901,902,2,2,2,2,2,2,2,2,2,2,967,968,969,900,899,904,906,970,901,901,902,2,2,2,2,2,2,2,2,2,2,967,968,969,899,900,899,904,906,970,901,901,902,2,2,2,2,2,2,2,2,2,2,20,20,20,20,20,20,20,20,20,899,904,902,2,2,2,2,2,2,2,2,2,2,967,968,969,899,900,899,904,906,970,901,901,902,2,2,2,2,2,2,2,2,2,2,967,968,969,899,900,899,904,906,970,901,901,902,2,2,2,2,2,2,2,2,2,2,967,968,969,899,900,899,904,906,970,901,901,902,2,2,2,2,2,2,2,2,2,2,20,20,20,20,20,20,20,20,20,899,904,899,900,899,904,906,970,901,901,902,2,2,2,2,2,2,2,2,2,2,967,968,969,899,900,899,904,906,970,901,901,902,2,2,2,2,2,2,2,2,2,996,20,20,20,20
</data>
 </layer>
</map>
