<?xml version="1.0" encoding="UTF-8"?>
<map version="1.10" tiledversion="1.11.2" orientation="orthogonal" renderorder="right-down" width="320" height="25" tilewidth="8" tileheight="8" infinite="0" nextlayerid="2" nextobjectid="1">
 <tileset firstgid="1" source="tiles.tsx"/>
 <layer id="1" name="Tile Layer 1" width="320" height="25">
  <data encoding="csv">
596,596,596,596,596,596,596,596,596,596,596,596,596,596,596,596,596,596,596,596,596,596,596,596,596,596,596,596,596,596,596,596,596,596,596,596,596,596,596,596,596,596,596,596,596,596,596,596,596,596,596,596,596,596,596,596,596,596,596,596,596,596,596,596,596,596,596,596,596,596,596,596,596,596,596,596,596,596,596,596,596,596,596,596,596,596,596,596,596,596,596,596,596,596,596,596,596,596,596,596,596,596,596,596,596,596,596,596,596,596,596,596,596,596,596,596,596,596,596,596,111,143,143,143,143,143,143,143,143,143,143,143,143,144,596,596,596,596,596,596,596,596,596,596,596,596,596,596,596,596,596,596,596,596,596,596,596,596,596,596,596,596,596,596,596,596,596,596,596,596,596,596,596,596,596,596,596,596,596,596,596,596,596,596,596,596,596,596,596,596,596,596,596,596,596,596,596,596,596,596,596,596,596,596,596,596,596,596,596,596,596,596,596,596,596,596,596,596,596,596,596,596,596,596,596,596,596,596,596,596,596,596,596,596,596,596,596,596,596,596,596,596,596,596,596,596,596,596,596,596,596,596,596,596,596,596,596,596,596,596,596,596,596,596,596,596,596,596,596,596,596,596,596,596,596,596,596,596,596,596,596,596,596,596,596,596,596,596,596,596,596,596,596,596,596,596,596,596,596,596,596,596,596,596,596,596,596,596,596,596,596,596,596,596,596,596,596,596,596,596,
596,596,596,596,596,596,596,596,596,596,596,596,596,596,596,596,596,596,596,596,596,596,596,596,596,596,596,596,596,596,596,596,596,596,596,596,596,596,596,596,596,596,596,596,596,596,596,596,596,596,596,596,596,596,596,596,596,596,596,596,596,596,596,596,596,596,596,596,596,596,596,596,596,596,596,596,596,596,596,596,596,596,596,596,596,596,596,596,596,596,596,596,596,596,596,596,596,596,596,596,596,596,596,596,596,596,596,596,596,596,596,596,596,596,596,596,596,596,596,111,143,143,143,143,143,143,143,143,143,143,143,143,143,143,144,596,596,596,596,596,596,596,596,596,596,596,596,596,596,596,596,596,596,596,596,596,596,596,596,596,596,596,596,596,596,596,596,596,596,596,596,596,596,596,596,596,596,596,596,596,596,596,596,596,596,596,596,596,596,596,596,596,596,596,596,596,596,596,596,596,596,596,596,596,596,596,596,596,596,596,596,596,596,596,596,596,596,596,596,596,596,596,596,596,596,596,596,596,596,596,596,596,596,596,596,596,596,596,596,596,596,596,596,596,596,596,596,596,596,596,596,596,596,596,596,596,596,596,596,596,596,596,596,596,596,596,596,596,596,596,596,596,596,596,596,596,596,596,596,596,596,596,596,596,596,596,596,596,596,596,596,596,596,596,596,596,596,596,596,596,596,596,596,596,596,596,596,596,596,596,596,596,596,596,596,596,596,596,596,596,
596,596,596,596,596,596,596,596,596,596,596,596,596,596,596,596,596,596,596,596,596,596,596,596,596,596,596,596,596,596,596,596,596,596,596,596,596,596,596,596,596,596,596,596,596,596,596,596,596,596,596,596,596,596,596,596,596,596,596,596,596,596,596,596,596,596,596,596,596,596,596,596,596,596,596,596,596,596,596,596,596,596,596,596,596,596,596,596,596,596,596,596,596,596,596,596,596,596,596,596,596,596,596,596,596,596,596,596,596,596,596,596,596,596,596,596,596,596,111,143,143,143,143,143,143,143,143,143,143,143,143,143,143,143,143,144,596,596,596,596,596,596,596,596,596,596,596,596,596,596,596,596,596,596,596,596,596,596,596,596,596,596,596,596,596,596,596,596,596,596,596,596,596,596,596,596,596,596,596,596,596,596,596,596,596,596,596,596,596,596,596,596,596,596,596,596,596,596,596,596,596,596,596,596,596,596,596,596,596,596,596,596,596,596,596,596,596,596,596,596,596,596,596,596,596,596,596,596,596,596,596,596,596,596,596,596,596,596,596,596,596,596,596,596,596,596,596,596,596,596,596,596,596,596,596,596,596,596,596,596,596,596,596,596,596,596,596,596,596,596,596,596,596,596,596,596,596,596,596,596,596,596,596,596,596,596,596,596,596,596,596,596,596,596,596,596,596,596,596,596,596,596,596,596,596,596,596,596,596,596,596,596,596,596,596,596,596,596,596,596,
596,596,596,596,596,596,596,596,596,596,596,596,596,596,596,596,596,596,596,596,596,596,596,596,596,596,596,596,596,596,596,596,596,596,596,596,596,596,596,596,596,596,596,596,596,596,596,596,596,596,695,696,596,596,26,27,596,596,596,596,596,596,596,596,596,596,596,596,596,596,596,596,596,596,596,596,596,596,596,596,596,596,596,596,596,596,596,596,596,596,596,596,596,596,596,596,596,596,596,596,596,596,596,596,596,596,596,596,596,596,596,596,596,596,596,596,596,596,10,43,43,43,43,43,43,43,81,82,43,43,43,43,43,43,43,74,596,596,596,596,596,596,596,596,596,596,596,596,596,596,596,596,596,596,596,596,596,596,596,596,596,596,596,596,596,596,596,596,596,596,596,596,596,596,596,596,596,596,596,596,596,596,596,596,596,596,596,596,596,596,596,596,596,596,596,596,596,596,596,596,596,596,596,596,596,596,596,596,596,596,596,596,596,596,596,596,596,596,596,596,596,596,596,596,596,596,596,596,596,596,596,596,596,596,596,596,596,596,596,596,596,596,596,596,596,596,596,596,596,596,596,596,596,596,596,596,596,596,596,596,596,596,596,596,596,596,596,596,596,596,596,596,596,596,596,596,596,596,596,596,596,596,596,596,596,596,596,596,596,596,596,596,596,596,596,596,596,596,596,596,596,596,596,596,596,596,596,596,596,596,596,596,596,596,596,596,596,596,596,596,
596,596,596,596,596,596,596,596,596,596,596,596,596,596,596,596,596,596,596,596,596,596,596,596,596,596,596,596,596,596,596,596,596,596,596,596,596,596,596,596,596,596,596,596,596,596,596,596,596,596,695,696,596,596,58,59,596,596,596,596,596,596,596,596,596,596,596,596,596,596,596,596,596,596,596,596,596,596,596,596,596,596,596,596,596,596,596,596,596,596,596,596,596,596,596,596,596,596,596,596,596,596,596,596,596,596,596,596,596,596,596,596,596,596,596,596,596,596,10,43,43,43,43,43,43,43,113,114,43,43,43,43,43,43,43,74,596,596,596,596,596,596,596,596,596,596,596,596,596,596,596,596,596,596,596,596,596,596,596,596,596,596,596,596,596,596,596,596,596,596,596,596,596,596,596,596,596,596,596,596,596,596,596,596,596,596,596,596,596,596,596,596,596,596,596,596,596,596,596,596,596,596,596,596,596,596,596,596,596,596,596,596,596,596,596,596,596,596,596,596,596,596,596,596,596,596,596,596,596,596,596,596,596,596,596,596,596,596,596,596,596,596,596,596,596,596,596,596,596,596,596,596,596,596,596,596,596,596,596,596,596,596,596,596,596,596,596,596,596,596,596,596,596,596,596,596,596,596,596,596,596,596,596,596,596,596,596,596,596,596,596,596,596,596,596,596,596,596,596,596,596,596,596,596,596,596,596,596,596,596,596,596,596,596,596,596,596,596,596,596,
596,596,596,596,596,596,596,596,596,596,596,596,596,596,596,596,596,596,596,596,596,596,596,596,596,596,596,596,596,596,596,596,596,596,596,596,596,596,596,596,596,596,596,596,596,596,596,596,596,596,349,350,351,352,596,596,416,413,414,415,596,596,596,596,596,596,596,596,596,596,596,596,596,596,596,596,596,596,596,596,596,596,596,596,596,596,596,596,596,596,596,596,596,596,596,596,596,596,596,596,596,596,596,596,596,596,596,596,596,596,596,596,596,596,596,596,596,596,10,43,43,43,43,43,43,43,81,82,43,43,43,43,43,43,43,74,596,596,596,596,596,596,596,596,596,596,596,596,596,596,596,596,596,596,596,596,596,596,596,596,596,596,596,596,596,596,596,596,596,596,596,596,596,596,596,596,596,596,596,596,596,596,596,596,596,596,596,596,596,596,596,596,596,596,596,596,596,596,596,596,596,596,596,596,596,596,596,596,596,596,596,596,596,596,596,596,596,596,596,596,596,596,596,596,596,596,596,596,596,596,596,596,596,596,596,596,596,596,596,596,596,596,596,596,596,596,596,596,596,596,596,596,596,596,596,596,596,596,596,596,596,596,596,596,596,596,596,596,596,596,596,596,596,596,596,596,596,596,596,596,596,596,596,596,596,596,596,596,596,596,596,596,596,596,596,596,596,596,596,596,596,596,596,596,596,596,596,596,596,596,596,596,596,596,596,596,596,596,596,596,
596,596,596,596,596,596,596,596,596,596,596,596,596,596,596,596,596,596,596,596,596,596,596,596,596,596,596,596,596,596,596,596,596,596,596,596,596,596,596,596,596,596,596,596,596,596,596,596,596,511,574,575,575,512,596,596,382,383,382,384,596,596,596,596,596,596,596,596,596,596,596,596,596,596,596,596,596,596,596,596,596,596,596,596,596,596,596,596,596,596,596,596,596,596,596,596,596,596,596,596,596,596,596,596,596,596,596,596,596,596,596,596,596,596,596,596,596,596,10,43,43,43,43,43,43,43,113,114,43,43,43,43,43,43,43,74,596,596,596,596,596,596,596,596,596,596,596,596,596,596,596,596,596,596,596,596,596,596,596,596,596,596,596,596,596,596,596,596,596,596,596,596,596,596,596,596,596,596,596,596,596,596,596,596,596,596,596,596,596,596,596,596,596,596,596,596,596,596,596,596,596,596,596,596,596,596,596,596,596,596,596,596,596,596,596,596,596,596,596,596,596,596,596,596,596,596,596,596,596,596,596,596,596,596,596,596,596,596,596,596,596,596,596,596,596,596,596,596,596,596,596,596,596,596,596,596,596,596,596,596,596,596,596,596,596,596,596,596,596,596,596,596,596,596,596,596,596,596,596,596,596,596,596,596,596,596,596,596,596,596,596,596,596,596,596,596,596,596,596,596,596,596,596,596,596,596,596,596,596,596,596,596,596,596,596,596,596,596,596,596,
596,596,596,596,596,596,596,596,596,596,596,596,596,596,596,596,596,596,596,596,596,596,596,596,596,596,596,596,596,596,596,596,596,596,596,596,596,596,596,596,596,596,596,596,596,596,596,596,596,542,542,575,575,575,596,596,382,383,382,384,596,596,596,596,596,596,596,596,596,596,596,596,596,596,596,596,596,596,596,596,596,596,596,596,596,596,596,596,596,596,596,596,596,596,596,596,596,596,596,596,596,596,596,596,596,596,596,596,596,596,596,596,596,596,596,596,596,596,10,43,43,75,75,75,43,43,81,82,43,43,75,75,75,43,43,74,596,596,596,596,596,596,596,596,596,596,596,596,596,596,596,596,596,596,596,596,596,596,596,596,596,596,596,596,596,596,596,596,596,596,596,596,596,596,596,596,596,596,596,596,596,596,596,596,596,596,596,596,596,596,596,596,596,596,596,596,596,596,596,596,596,596,596,596,596,596,596,596,596,596,596,596,596,596,596,596,596,596,596,596,596,596,596,596,596,596,596,596,596,596,596,596,596,596,596,596,596,596,596,596,596,596,596,596,596,596,596,596,596,596,596,596,596,596,596,596,596,596,596,596,596,596,596,596,596,596,596,596,596,596,596,596,596,596,596,596,596,596,596,596,596,596,596,596,596,596,596,596,596,596,596,596,596,596,596,596,596,596,596,596,596,596,596,596,596,596,596,596,596,596,596,596,596,596,596,596,596,596,596,596,
596,596,596,596,596,596,596,596,596,596,596,596,596,596,596,596,596,596,596,596,596,596,596,596,596,596,596,596,596,596,596,596,596,596,596,596,596,596,596,596,596,596,596,596,596,596,596,596,596,574,574,575,575,575,596,596,382,383,382,384,596,596,596,596,596,596,596,596,596,596,596,596,596,596,596,596,596,596,596,596,596,596,596,596,596,596,596,596,596,596,596,596,596,596,596,596,596,596,596,596,596,596,596,596,596,596,596,596,596,596,596,596,596,596,596,596,596,596,10,43,71,72,73,72,71,43,113,114,43,71,72,73,72,71,43,74,596,596,596,596,596,596,596,596,596,596,596,596,596,596,596,596,596,596,596,596,596,596,596,596,596,596,596,596,596,596,596,596,596,596,596,596,596,596,596,596,596,596,596,596,596,596,596,596,596,596,596,596,596,596,596,596,596,596,596,596,596,596,596,596,596,596,596,596,596,596,596,596,596,596,596,596,596,596,596,596,596,596,596,596,596,596,596,596,596,596,596,596,596,596,596,596,596,596,596,596,596,596,596,596,596,596,596,596,596,596,596,596,596,596,596,596,596,596,596,596,596,596,596,596,596,596,596,596,596,596,596,596,596,596,596,596,596,596,596,596,596,596,596,596,596,596,596,596,596,596,596,596,596,596,596,596,596,596,596,596,596,596,596,596,596,596,596,596,596,596,596,596,596,596,596,596,596,596,596,596,596,596,596,596,
596,596,596,596,596,596,596,596,596,596,596,596,596,596,596,596,596,596,596,596,596,596,596,596,596,596,596,596,596,596,596,596,596,596,596,596,596,596,596,596,596,596,596,596,596,596,596,596,596,574,542,544,544,544,596,596,382,383,382,384,596,596,596,596,596,596,596,596,596,596,596,596,596,596,596,596,596,596,596,596,596,596,596,596,596,596,596,596,596,596,596,596,596,596,596,596,596,596,596,596,596,596,596,596,596,596,596,596,596,596,596,596,596,596,596,596,596,596,10,43,103,104,105,104,103,43,81,82,43,103,104,105,104,103,43,74,596,596,596,596,596,596,596,596,596,596,596,596,596,596,596,596,596,596,596,596,596,596,596,596,596,596,596,596,596,596,596,596,596,596,596,596,596,596,596,596,596,596,596,596,596,596,596,596,596,596,596,596,596,596,596,596,596,596,596,596,596,596,596,596,596,596,596,596,596,596,596,596,596,596,596,596,596,596,596,596,596,596,596,596,596,596,596,596,596,596,596,596,596,596,596,596,596,596,596,596,596,596,596,596,596,596,596,596,596,596,596,596,596,596,596,596,596,596,596,596,596,596,596,596,596,596,596,596,596,596,596,596,596,596,596,596,596,596,596,596,596,596,596,596,596,596,596,596,596,596,596,596,596,596,596,596,596,596,596,596,596,596,596,596,596,596,596,596,596,596,596,596,596,596,596,596,596,596,596,596,596,596,596,596,
596,596,596,596,596,596,596,596,596,596,596,596,596,596,596,596,596,596,596,596,596,596,596,596,596,596,596,596,596,596,596,596,596,596,596,596,596,596,596,596,596,596,596,596,596,596,596,596,596,574,574,544,544,575,596,596,382,383,382,384,596,596,596,596,596,596,596,596,596,596,596,596,596,596,596,596,596,596,596,596,596,596,596,596,596,596,596,596,596,596,596,596,596,596,596,596,596,596,596,596,596,596,596,596,596,596,596,596,596,596,596,596,596,596,596,596,596,596,10,43,103,65,66,72,103,43,81,82,43,103,65,66,72,103,43,74,596,596,596,596,596,596,596,596,596,596,596,596,596,596,596,596,596,596,596,596,596,596,596,596,596,596,596,596,596,596,596,596,596,596,596,596,596,596,596,596,596,596,596,596,596,596,596,596,596,596,596,596,596,596,596,596,596,596,596,596,596,596,596,596,596,596,596,596,596,596,596,596,596,596,596,596,596,596,596,596,596,596,596,596,596,596,596,596,596,596,596,596,596,596,596,596,596,596,596,596,596,596,596,596,596,596,596,596,596,596,596,596,596,596,596,596,596,596,596,596,596,596,596,596,596,596,596,596,596,596,596,596,596,596,596,596,596,596,596,596,596,596,596,596,596,596,596,596,596,596,596,596,596,596,596,596,596,596,596,596,596,596,596,596,596,596,596,596,596,596,596,596,596,596,596,596,596,596,596,596,596,596,596,596,
596,628,629,596,596,596,596,596,596,596,596,596,596,596,596,596,596,596,596,596,596,596,596,596,596,596,596,596,596,596,596,596,596,596,596,596,596,596,596,596,596,596,596,596,596,596,596,596,596,574,542,544,544,575,596,596,382,383,382,384,596,596,596,596,596,596,596,596,596,596,596,596,596,596,596,596,596,596,596,596,596,596,596,596,596,596,596,596,596,596,596,596,596,596,596,596,596,596,596,596,596,596,596,596,596,596,596,596,596,596,596,596,596,596,596,596,596,596,10,43,103,97,98,72,103,43,113,114,43,103,97,98,72,103,43,74,596,596,596,596,596,596,596,596,596,596,596,596,596,596,596,596,596,596,596,596,596,596,596,596,596,596,596,596,596,596,596,596,596,596,596,596,596,596,596,596,596,596,596,596,596,596,596,596,596,596,596,596,596,596,596,596,596,596,596,596,596,596,596,596,596,596,596,596,596,596,596,596,596,596,596,596,596,596,596,596,596,596,596,596,596,596,596,596,596,596,596,596,596,596,596,596,596,596,596,596,596,596,596,596,596,596,596,596,596,596,596,596,596,596,596,596,596,596,596,596,596,596,596,596,596,596,596,596,596,596,596,596,596,596,596,596,596,596,596,596,596,596,596,596,596,596,596,596,596,596,596,596,596,596,596,596,596,596,596,596,596,596,596,596,596,596,596,596,596,596,596,596,596,596,596,596,596,596,596,596,596,596,596,596,
596,642,643,596,596,596,596,596,596,596,596,596,596,596,596,596,596,596,596,596,596,596,596,596,596,596,596,596,596,596,596,596,596,596,596,596,596,596,596,596,596,596,596,596,596,596,596,596,596,574,574,576,544,575,596,596,382,383,382,384,596,596,596,596,596,596,596,596,596,596,596,596,596,596,596,596,596,596,596,596,596,596,596,596,596,596,596,596,596,596,596,596,596,596,596,596,596,596,596,596,596,596,596,596,596,596,596,596,596,596,596,596,596,596,596,596,596,596,10,43,103,129,130,72,103,43,81,82,43,103,129,130,72,103,43,74,596,596,596,596,596,596,596,596,596,596,596,596,596,596,596,596,596,596,596,596,596,596,596,596,596,596,596,596,596,596,596,596,596,596,596,596,596,596,596,596,596,596,596,596,596,596,596,596,596,596,596,596,596,596,596,596,596,596,596,596,596,596,596,596,596,596,596,596,596,596,596,596,596,596,596,596,596,596,596,596,596,596,596,596,596,596,596,596,596,596,596,596,596,596,596,596,596,596,596,596,596,596,596,596,596,596,596,596,596,596,596,596,596,596,596,596,596,596,596,596,596,596,596,596,596,596,596,596,596,596,596,596,596,596,596,596,596,596,596,596,596,596,596,596,596,596,596,596,596,596,596,596,596,596,596,596,596,596,596,596,596,596,596,596,596,596,596,596,596,596,596,596,596,596,596,596,596,596,596,596,596,596,596,596,
596,642,643,596,596,596,596,596,596,596,596,596,596,596,596,596,596,596,596,596,596,596,596,596,596,596,596,596,596,596,596,596,596,596,596,596,596,596,596,596,596,596,596,596,596,596,596,596,596,542,542,576,544,575,596,596,382,383,382,384,596,596,596,596,596,596,596,596,596,596,596,596,596,596,596,596,596,628,629,596,596,596,596,596,596,596,596,596,596,596,596,610,611,596,596,596,596,596,596,596,596,596,596,596,596,596,596,596,628,629,596,596,596,596,596,596,596,596,10,136,136,136,136,136,136,136,81,82,136,136,136,136,136,136,136,74,596,596,596,596,596,596,596,596,596,610,611,596,596,596,596,596,596,596,596,596,596,596,596,596,596,596,628,629,596,596,596,596,596,596,596,596,596,596,596,596,596,610,611,596,596,596,596,596,596,596,596,596,596,596,596,596,596,596,628,629,596,596,596,596,596,596,596,596,596,596,596,596,596,610,611,596,596,596,596,596,596,596,596,596,596,596,596,596,596,596,628,629,596,596,596,596,596,596,596,596,596,596,596,596,596,610,611,596,596,596,596,596,596,596,596,596,596,596,596,596,596,596,628,629,596,596,596,596,596,596,596,596,596,596,596,596,596,610,611,596,596,596,596,596,596,596,596,596,596,596,596,596,596,596,596,596,596,596,596,596,610,611,596,596,596,596,596,596,596,596,596,596,596,596,596,596,596,628,629,596,596,596,596,596,
641,642,643,644,645,646,647,648,649,650,651,652,653,654,655,631,632,658,659,641,642,643,644,645,646,631,632,649,650,651,652,653,654,655,656,657,658,659,641,642,643,644,645,651,647,648,649,650,651,574,574,576,544,575,596,658,382,383,382,384,631,632,646,647,648,649,650,651,652,653,631,632,656,657,658,659,641,642,643,644,645,646,647,631,632,650,651,652,653,654,641,642,643,644,645,646,647,648,649,650,651,652,653,654,655,656,657,641,642,643,644,645,646,647,648,659,659,651,10,43,43,43,43,43,43,43,113,114,43,43,43,43,43,43,43,74,596,631,632,650,651,652,653,654,641,642,643,644,645,646,647,648,649,650,651,652,653,654,655,656,657,641,642,643,644,645,646,647,648,631,632,650,651,652,653,654,641,642,643,644,645,646,647,648,649,650,651,652,653,654,655,656,657,641,642,643,644,645,646,647,648,631,632,650,651,652,653,654,641,642,643,644,645,646,647,648,649,650,651,652,653,654,655,656,657,641,642,643,644,645,646,647,648,631,632,650,651,652,653,654,641,642,643,644,645,646,647,648,649,650,651,652,653,654,655,656,657,641,642,643,644,645,646,647,648,631,632,650,651,652,653,654,641,642,643,644,645,646,647,648,649,650,651,652,653,654,655,656,631,632,650,651,652,653,654,641,642,643,644,645,646,647,648,649,650,651,652,653,654,655,656,657,641,642,643,644,645,646,647,648,
673,674,675,676,677,678,679,680,681,682,683,684,685,686,634,663,664,690,691,673,674,675,676,677,678,663,664,681,682,683,684,685,686,634,634,689,690,691,673,674,675,596,596,596,679,677,681,682,683,574,542,576,544,575,596,690,382,383,382,384,663,664,678,679,680,681,682,683,684,685,663,664,688,689,690,691,673,674,675,676,677,678,679,663,664,682,683,684,685,686,673,674,675,634,635,678,679,680,681,682,683,684,685,686,687,688,689,673,674,675,676,677,678,679,680,596,596,683,138,139,140,141,11,142,138,139,140,141,11,142,138,139,140,141,11,142,596,663,664,682,683,684,685,686,673,674,675,634,635,678,679,680,681,682,683,684,685,686,687,688,689,673,674,675,676,677,678,679,680,663,664,682,683,684,685,686,673,674,675,634,635,678,679,680,681,682,683,684,685,686,687,688,689,673,674,675,676,677,678,679,680,663,664,682,683,684,685,686,673,674,675,634,635,678,679,680,681,682,683,684,685,686,687,688,689,673,674,675,676,677,678,679,680,663,664,682,683,684,685,686,673,674,675,634,635,678,679,680,681,682,683,684,685,686,687,688,689,673,674,675,676,677,678,679,680,663,664,682,683,684,685,686,673,674,675,634,635,678,679,680,681,682,683,684,685,686,687,688,663,664,682,683,684,685,686,673,674,675,634,635,678,679,680,681,682,683,684,685,686,687,688,689,673,674,675,676,677,678,679,680,
634,634,634,635,634,635,634,634,634,635,634,635,634,635,666,695,696,634,634,635,642,643,665,634,635,695,696,634,634,634,634,634,634,666,666,634,635,660,661,660,661,688,688,688,679,678,676,681,682,634,635,634,635,634,635,889,890,889,698,699,695,696,698,698,698,698,730,698,698,699,695,696,698,698,730,889,890,889,730,698,730,698,698,695,696,634,635,634,635,634,634,635,635,698,698,730,698,634,635,698,634,635,634,635,634,635,698,634,634,635,634,635,634,635,634,889,890,891,170,171,172,173,174,11,170,171,172,173,174,11,170,171,172,173,174,74,596,695,696,634,635,634,635,634,634,635,635,698,698,730,698,634,635,698,634,635,634,635,634,635,698,634,634,635,634,635,634,635,634,695,696,634,635,634,635,634,634,635,635,698,698,730,698,634,635,698,634,635,634,635,634,635,698,634,634,635,634,635,634,635,634,695,696,634,635,634,635,634,634,635,635,698,698,730,698,634,635,698,634,635,634,635,634,635,698,634,634,635,634,635,634,635,634,695,696,634,635,634,635,634,634,635,635,698,698,730,698,634,635,698,634,635,634,635,634,635,698,634,634,635,634,635,634,635,634,695,696,634,635,634,635,634,634,635,635,698,698,730,698,634,635,698,634,635,634,635,634,635,695,696,634,635,634,635,634,634,635,635,698,698,730,698,634,635,698,634,635,634,635,634,635,698,634,634,635,634,635,634,635,634,
666,666,666,667,666,667,666,666,666,667,666,667,666,667,698,695,696,698,698,698,698,699,665,666,667,695,696,666,666,666,666,666,666,698,698,666,667,634,635,634,635,634,635,634,635,634,635,634,635,666,667,666,667,666,667,921,922,923,730,731,695,696,698,730,730,698,698,730,698,699,695,696,698,698,730,921,922,923,698,730,698,730,698,695,696,698,698,698,698,698,698,730,698,698,698,730,698,698,730,698,698,730,698,698,730,698,698,730,698,698,730,698,698,730,698,921,922,923,234,203,204,205,206,11,202,203,204,205,206,11,202,203,204,205,206,74,596,695,696,698,698,698,698,698,698,730,698,698,698,730,698,698,730,698,698,730,698,698,730,698,698,730,698,698,730,698,698,730,698,695,696,698,698,698,698,698,698,730,698,698,698,730,698,698,730,698,698,730,698,698,730,698,698,730,698,698,730,698,698,730,698,695,696,698,698,698,698,698,698,730,698,698,698,730,698,698,730,698,698,730,698,698,730,698,698,730,698,698,730,698,698,730,698,695,696,698,698,698,698,698,698,730,698,698,698,730,698,698,730,698,698,730,698,698,730,698,698,730,698,698,730,698,698,730,698,695,696,698,698,698,698,698,698,730,698,698,698,730,698,698,730,698,698,730,698,698,730,698,695,696,698,698,698,698,698,698,730,698,698,698,730,698,698,730,698,698,730,698,698,730,698,698,730,698,698,730,698,698,730,698,
698,698,698,699,698,699,698,698,698,699,698,699,698,699,730,695,696,698,698,730,698,699,665,698,699,695,696,730,698,698,699,698,699,730,730,698,699,666,667,666,667,666,667,666,667,666,667,666,667,698,699,698,699,698,699,953,954,955,698,699,695,696,698,730,731,698,730,698,699,699,695,696,698,698,730,953,954,955,730,698,730,698,699,695,696,730,730,730,730,730,730,698,699,698,698,730,698,698,730,698,698,730,698,698,730,698,698,730,698,698,730,698,698,730,698,953,954,955,234,235,236,237,238,11,202,235,236,237,238,11,202,235,236,237,238,74,596,695,696,730,730,730,730,730,730,698,699,698,698,730,698,698,730,698,698,730,698,698,730,698,698,730,698,698,730,698,698,730,698,695,696,730,730,730,730,730,730,698,699,698,698,730,698,698,730,698,698,730,698,698,730,698,698,730,698,698,730,698,698,730,698,695,696,730,730,730,730,730,730,698,699,698,698,730,698,698,730,698,698,730,698,698,730,698,698,730,698,698,730,698,698,730,698,695,696,730,730,730,730,730,730,698,699,698,698,730,698,698,730,698,698,730,698,698,730,698,698,730,698,698,730,698,698,730,698,695,696,730,730,730,730,730,730,698,699,698,698,730,698,698,730,698,698,730,698,698,730,698,695,696,730,730,730,730,730,730,698,699,698,698,730,698,698,730,698,698,730,698,698,730,698,698,730,698,698,730,698,698,730,698,
730,730,730,731,730,731,730,730,730,731,730,731,730,731,762,727,728,730,730,731,730,731,665,730,731,727,728,730,730,730,730,730,730,762,762,730,731,698,699,698,699,698,699,698,699,698,699,698,699,730,731,730,731,730,731,985,986,987,730,731,727,728,730,730,731,730,730,730,731,731,727,728,698,699,698,985,986,987,730,730,730,730,731,727,728,730,730,730,730,730,730,730,731,698,699,698,698,699,698,698,699,698,698,699,698,698,699,698,698,699,698,698,699,698,698,985,986,987,234,235,235,235,238,11,202,235,235,235,238,11,202,235,235,235,238,74,596,727,728,730,730,730,730,730,730,730,731,698,699,698,698,699,698,698,699,698,698,699,698,698,699,698,698,699,698,698,699,698,698,727,728,730,730,730,730,730,730,730,731,698,699,698,698,699,698,698,699,698,698,699,698,698,699,698,698,699,698,698,699,698,698,727,728,730,730,730,730,730,730,730,731,698,699,698,698,699,698,698,699,698,698,699,698,698,699,698,698,699,698,698,699,698,698,727,728,730,730,730,730,730,730,730,731,698,699,698,698,699,698,698,699,698,698,699,698,698,699,698,698,699,698,698,699,698,698,727,728,730,730,730,730,730,730,730,731,698,699,698,698,699,698,698,699,698,698,699,698,698,727,728,730,730,730,730,730,730,730,731,698,699,698,698,699,698,698,699,698,698,699,698,698,699,698,698,699,698,698,699,698,698,
907,908,909,910,907,908,909,910,907,907,907,907,907,907,907,907,907,907,907,907,907,907,907,907,907,907,907,908,909,910,907,908,909,910,907,908,909,910,907,908,909,910,907,907,254,255,256,907,908,909,910,907,908,909,907,1017,1018,1019,907,907,907,907,907,907,907,907,907,907,907,908,909,910,907,907,907,1017,1018,1019,907,907,908,909,910,907,907,907,907,907,907,907,907,907,907,908,909,910,907,908,909,910,907,908,909,910,907,908,909,254,255,256,907,907,907,907,907,907,907,907,907,907,907,907,907,907,907,907,907,908,909,910,907,908,909,910,907,908,909,910,907,908,909,910,907,907,907,907,907,907,908,909,910,907,908,909,907,908,909,910,907,907,907,907,907,907,907,907,907,907,907,908,909,910,907,907,907,907,907,907,907,907,908,909,910,907,907,907,907,907,907,907,907,907,907,907,908,909,910,907,908,909,910,907,907,907,907,907,907,907,907,907,907,907,907,907,907,907,907,907,907,907,908,909,910,907,908,909,910,907,908,909,910,907,908,909,910,907,907,907,907,907,907,908,909,910,907,908,909,907,908,909,910,907,907,907,907,907,907,907,907,907,907,907,908,909,910,907,907,908,909,910,907,908,909,910,907,907,907,907,907,907,907,907,907,907,907,907,907,907,907,907,907,907,907,908,909,910,907,908,909,910,907,908,909,910,907,908,909,910,907,907,907,907,907,907,908,909,910,907,908,909,
939,940,941,942,939,940,941,942,939,940,941,942,939,940,941,942,939,940,941,942,939,940,941,942,939,940,941,942,939,940,941,942,939,940,941,942,939,940,941,942,939,940,941,942,286,287,288,942,939,940,941,942,939,940,941,942,939,940,941,942,939,940,941,942,939,940,941,942,939,940,941,942,939,940,941,942,939,940,941,942,939,940,941,942,939,940,941,942,939,940,941,942,939,940,941,942,939,940,941,942,939,940,941,942,939,940,941,286,287,288,941,942,939,940,941,942,939,940,941,942,939,940,941,942,939,940,941,942,939,940,941,942,939,940,941,942,939,940,941,942,939,940,941,942,939,940,941,942,939,940,941,942,939,940,941,942,939,940,941,942,939,940,941,942,939,940,941,942,939,940,941,942,939,940,941,942,939,940,941,942,939,940,941,942,939,940,941,942,939,940,941,942,939,940,941,942,939,940,941,942,939,940,941,942,939,940,941,942,939,940,941,942,939,940,941,942,939,940,941,942,939,940,941,942,939,940,941,942,939,940,941,942,939,940,941,942,939,940,941,942,939,940,941,942,939,940,941,942,939,940,941,942,939,940,941,942,939,940,941,942,939,940,941,942,939,940,941,942,939,940,941,942,939,940,941,942,939,940,941,942,939,940,941,942,939,940,941,942,939,940,941,942,939,940,941,942,939,940,941,942,939,940,941,942,939,940,941,942,939,940,941,942,939,940,941,942,939,940,941,942,
971,972,973,974,971,972,973,974,971,972,973,974,971,972,973,974,971,972,973,974,971,972,973,974,971,972,973,974,971,972,973,974,971,972,973,974,971,972,973,974,971,972,973,974,318,319,320,974,971,972,973,974,971,972,973,974,971,972,973,974,971,972,973,974,971,972,973,974,971,972,973,974,971,972,973,974,971,972,973,974,971,972,973,974,971,972,973,974,971,972,973,974,971,972,973,974,971,972,973,974,971,972,973,974,971,972,973,318,319,320,973,974,971,972,973,974,971,972,973,974,971,972,973,974,971,972,973,974,971,972,973,974,971,972,973,974,971,972,973,974,971,972,973,974,971,972,973,974,971,972,973,974,971,972,973,974,971,972,973,974,971,972,973,974,971,972,973,974,971,972,973,974,971,972,973,974,971,972,973,974,971,972,973,974,971,972,973,974,971,972,973,974,971,972,973,974,971,972,973,974,971,972,973,974,971,972,973,974,971,972,973,974,971,972,973,974,971,972,973,974,971,972,973,974,971,972,973,974,971,972,973,974,971,972,973,974,971,972,973,974,971,972,973,974,971,972,973,974,971,972,973,974,971,972,973,974,971,972,973,974,971,972,973,974,971,972,973,974,971,972,973,974,971,972,973,974,971,972,973,974,971,972,973,974,971,972,973,974,971,972,973,974,971,972,973,974,971,972,973,974,971,972,973,974,971,972,973,974,971,972,973,974,971,972,973,974,971,972,973,974,
476,476,476,476,476,476,476,476,476,476,476,476,476,476,476,476,476,476,476,476,476,476,476,476,476,476,476,476,476,476,476,476,476,476,476,476,476,476,476,476,476,476,476,476,476,476,476,476,476,476,476,476,476,476,476,476,476,476,476,476,476,476,476,476,476,476,476,476,476,476,476,476,476,476,476,476,476,476,476,476,476,476,476,476,476,476,476,476,476,476,476,476,476,476,476,476,476,476,476,476,476,476,476,476,476,476,476,476,476,476,476,476,476,476,476,476,476,476,476,476,476,476,476,476,476,476,476,476,476,476,476,476,476,476,476,476,476,476,476,476,476,476,476,476,476,476,476,476,476,476,476,476,476,476,476,476,476,476,476,476,476,476,476,476,476,476,476,476,476,476,476,476,476,476,476,476,476,476,476,476,476,476,476,476,476,476,476,476,476,476,476,476,476,476,476,476,476,476,476,476,476,476,476,476,476,476,476,476,476,476,476,476,476,476,476,476,476,476,476,476,476,476,476,476,476,476,476,476,476,476,476,476,476,476,476,476,476,476,476,476,476,476,476,476,476,476,476,476,476,476,476,476,476,476,476,476,476,476,476,476,476,476,476,476,476,476,476,476,476,476,476,476,476,476,476,476,476,476,476,476,476,476,476,476,476,476,476,476,476,476,476,476,476,476,476,476,476,476,476,476,476,476,476,476,476,476,476,476,476,476,476,476,476,476,476,476,476,476,476,476,
476,476,476,476,476,476,476,476,476,476,476,476,476,476,476,476,476,476,476,476,476,476,476,476,476,476,476,476,476,476,476,476,476,476,476,476,476,476,476,476,476,476,476,476,476,476,476,476,476,476,476,476,476,476,476,476,476,476,476,476,476,476,476,476,476,476,476,476,476,476,476,476,476,476,476,476,476,476,476,476,476,476,476,476,476,476,476,476,476,476,476,476,476,476,476,476,476,476,476,476,476,476,476,476,476,476,476,476,476,476,476,476,476,476,476,476,476,476,476,476,476,476,476,476,476,476,476,476,476,476,476,476,476,476,476,476,476,476,476,476,476,476,476,476,476,476,476,476,476,476,476,476,476,476,476,476,476,476,476,476,476,476,476,476,476,476,476,476,476,476,476,476,476,476,476,476,476,476,476,476,476,476,476,476,476,476,476,476,476,476,476,476,476,476,476,476,476,476,476,476,476,476,476,476,476,476,476,476,476,476,476,476,476,476,476,476,476,476,476,476,476,476,476,476,476,476,476,476,476,476,476,476,476,476,476,476,476,476,476,476,476,476,476,476,476,476,476,476,476,476,476,476,476,476,476,476,476,476,476,476,476,476,476,476,476,476,476,476,476,476,476,476,476,476,476,476,476,476,476,476,476,476,476,476,476,476,476,476,476,476,476,476,476,476,476,476,476,476,476,476,476,476,476,476,476,476,476,476,476,476,476,476,476,476,476,476,476,476,476,476
</data>
 </layer>
</map>
