<?xml version="1.0" encoding="UTF-8"?>
<map version="1.10" tiledversion="1.11.2" orientation="orthogonal" renderorder="right-down" width="40" height="25" tilewidth="8" tileheight="8" infinite="0" nextlayerid="2" nextobjectid="1">
 <tileset firstgid="1" source="tiles.tsx"/>
 <layer id="1" name="Tile Layer 1" width="40" height="25">
  <data encoding="csv">
145,145,145,145,145,145,1034,1035,1036,1037,1038,1034,1035,1036,1037,1038,1034,1035,1036,1037,1038,1034,1035,1036,1037,1038,1034,1035,1036,1037,1038,1034,1035,1036,1037,1038,145,145,145,145,
145,145,145,145,145,145,37,140,140,140,140,140,140,140,140,140,140,140,140,140,140,140,140,140,140,140,140,140,140,140,140,140,140,140,140,38,145,145,145,145,
145,145,145,145,145,145,202,709,710,709,710,709,710,709,710,709,710,709,710,709,710,709,710,709,710,709,710,709,710,709,710,709,710,711,712,36,145,145,145,145,
145,145,145,145,145,145,202,741,743,744,743,744,743,744,743,744,743,744,743,744,743,744,743,744,743,744,743,744,743,744,743,744,710,711,712,36,145,145,145,145,
145,145,145,145,145,145,202,709,460,461,460,461,460,461,460,461,392,393,392,393,392,393,430,431,432,393,460,461,460,461,460,461,742,743,744,36,145,145,145,145,
145,145,145,145,145,145,202,741,492,493,492,493,492,493,492,493,424,425,427,428,424,428,462,463,464,425,492,493,492,493,492,493,710,711,712,36,145,145,145,145,
145,145,145,145,145,145,202,709,710,711,709,710,709,710,709,710,709,710,709,710,709,710,709,710,709,710,709,710,709,710,709,710,709,710,712,36,145,145,145,145,
145,145,145,145,145,145,202,741,743,744,331,332,332,332,332,332,332,332,332,332,332,332,332,332,332,332,332,332,333,741,742,743,742,743,744,36,145,145,145,145,
145,145,145,145,145,145,202,709,710,711,363,208,177,178,178,178,175,361,175,208,209,175,361,361,176,177,361,361,334,709,710,709,710,711,712,36,145,145,145,145,
145,145,145,145,145,145,202,741,743,744,363,361,456,457,458,459,361,361,436,437,438,439,361,361,361,361,361,361,334,741,743,744,742,743,744,36,145,145,145,145,
145,145,145,145,145,145,202,709,710,711,363,361,488,489,490,491,361,361,468,469,470,471,361,361,472,473,474,361,334,709,710,709,710,711,712,36,145,145,145,145,
145,145,145,145,145,145,202,741,743,744,363,361,520,521,522,523,361,361,500,501,502,503,361,361,504,505,506,361,334,712,331,332,332,333,744,36,145,145,145,145,
145,145,145,145,145,145,202,709,710,711,363,361,552,553,554,555,361,361,532,533,534,535,361,361,536,537,538,361,334,712,363,772,772,334,712,36,145,145,145,145,
145,145,145,145,145,145,202,741,743,744,395,396,396,396,396,396,396,396,396,396,396,396,396,396,396,396,396,396,397,744,363,772,772,334,744,36,145,145,145,145,
145,145,145,145,145,145,202,709,710,711,709,710,709,710,709,710,709,710,709,710,709,710,709,710,711,709,710,709,710,711,363,772,772,334,712,36,145,145,145,145,
145,145,145,145,145,145,202,743,744,743,744,743,744,743,744,743,744,743,744,743,744,743,744,743,744,741,743,744,742,743,363,772,772,365,744,36,145,145,145,145,
145,145,145,145,145,145,202,709,710,711,771,865,865,865,865,865,865,865,865,865,865,865,865,865,865,865,865,865,770,711,363,772,772,334,712,36,145,145,145,145,
145,145,145,145,145,145,202,743,744,776,738,865,865,865,865,865,865,865,865,865,865,865,865,865,865,865,865,865,737,743,363,772,772,334,744,36,145,145,145,145,
145,145,145,145,145,145,202,707,708,711,709,710,709,710,709,710,709,710,709,710,709,710,709,710,711,709,710,709,710,711,363,772,772,334,712,36,145,145,145,145,
145,145,145,145,145,145,202,739,740,743,744,743,744,743,744,743,744,743,744,743,744,743,744,743,744,741,743,744,742,743,395,396,396,397,744,36,145,145,145,145,
145,145,145,145,145,145,993,993,994,993,994,995,996,993,994,993,994,993,994,995,996,993,993,994,995,996,996,994,995,996,993,993,993,994,995,996,145,145,145,145,
145,145,145,145,145,145,993,994,995,996,994,995,993,994,995,996,993,994,993,994,993,994,995,996,993,993,994,995,996,996,994,995,994,995,996,930,145,145,145,145,
145,145,145,145,145,145,994,995,996,993,994,993,994,995,996,996,993,349,350,351,352,413,414,415,993,994,995,996,993,994,995,996,993,994,995,996,145,145,145,145,
145,145,145,145,145,145,993,993,994,993,994,995,996,993,994,993,994,993,994,995,994,995,996,993,994,993,994,994,995,996,993,994,993,994,995,996,145,145,145,145,
145,145,145,145,145,145,994,994,995,994,995,994,995,994,995,994,995,996,993,994,993,994,995,994,995,996,993,994,993,994,995,996,994,995,996,996,145,145,145,145
</data>
 </layer>
</map>
