<?xml version="1.0" encoding="UTF-8"?>
<map version="1.10" tiledversion="1.11.2" orientation="orthogonal" renderorder="right-down" width="80" height="25" tilewidth="8" tileheight="8" infinite="0" nextlayerid="3" nextobjectid="6">
 <tileset firstgid="1" source="tiles.tsx"/>
 <layer id="1" name="Tile Layer 1" width="80" height="25">
  <data encoding="csv">
901,901,20,21,22,23,24,25,901,901,20,21,22,23,24,25,901,901,901,1136,1106,1106,1139,20,25,901,20,21,22,23,24,25,901,901,20,902,902,902,902,25,901,148,149,150,151,152,153,901,901,901,901,901,901,901,901,901,901,901,901,901,20,21,22,23,24,25,901,901,20,21,22,23,24,25,901,901,901,901,901,901,
901,901,52,53,54,55,56,57,901,901,52,53,54,55,56,57,901,901,901,1136,1106,1106,1139,20,20,901,52,53,54,55,56,57,901,901,20,21,22,23,24,25,901,180,181,182,183,184,185,901,901,901,901,901,901,901,901,901,901,901,901,901,52,53,54,55,56,57,901,901,52,53,54,55,56,57,901,901,901,901,901,901,
901,901,84,85,86,87,88,89,901,901,84,85,86,87,88,89,901,901,901,1136,1137,1138,1139,20,20,901,84,85,86,87,88,89,901,901,52,53,54,55,56,57,901,212,213,214,215,216,217,901,901,901,901,901,901,901,901,901,901,901,901,901,84,85,86,87,88,89,901,901,84,85,86,87,88,89,901,901,901,901,901,901,
901,901,116,117,118,119,120,121,901,901,116,117,118,119,120,121,901,901,901,1136,1137,1138,1106,901,901,901,901,117,118,119,120,121,901,901,84,85,86,87,88,89,901,244,245,246,247,248,249,901,901,901,901,901,20,21,22,23,24,25,901,901,116,117,118,119,120,121,901,901,116,117,118,119,120,121,901,901,901,901,901,901,
901,901,901,901,901,901,901,901,901,901,901,901,901,901,901,901,901,901,901,1136,1106,1106,1139,2,2,2,2,901,901,901,901,901,901,901,116,117,118,119,120,121,901,901,901,901,901,901,901,901,901,901,901,901,52,53,54,55,56,57,901,901,901,901,901,901,901,901,901,901,901,901,901,901,901,20,21,22,23,24,25,901,
20,20,20,20,20,20,901,901,901,901,901,901,901,901,901,901,901,1059,1059,1060,1106,1106,1139,901,901,901,901,901,901,901,901,901,901,901,901,901,901,901,901,901,20,20,20,20,20,20,20,20,20,20,20,20,84,85,86,87,88,89,901,901,901,901,901,901,901,901,901,901,901,901,901,901,901,52,53,54,55,56,57,901,
901,901,901,901,901,901,901,901,901,901,901,901,901,901,901,901,901,2,2,1136,1137,1138,1139,1059,1059,1059,1059,901,901,901,901,901,901,901,901,901,901,901,901,901,20,20,20,20,20,20,20,20,20,20,20,901,116,117,118,119,120,121,901,901,901,901,901,901,901,901,901,901,901,901,901,901,901,84,85,86,87,88,89,901,
901,901,901,901,901,901,20,20,20,20,20,20,20,20,20,20,20,20,20,1136,1137,1138,1106,901,901,901,901,901,901,901,901,901,901,901,901,901,901,901,901,20,20,20,20,20,20,20,20,20,20,20,20,901,901,901,901,901,901,901,901,901,901,901,1059,1059,1059,901,901,901,901,901,901,901,901,116,117,118,119,120,121,901,
901,901,901,901,901,901,901,901,901,901,901,901,901,901,901,901,901,901,901,1136,1106,1106,1139,2,2,2,2,901,901,901,901,901,901,901,901,901,901,901,901,20,20,20,20,20,20,20,20,20,20,20,20,901,901,901,901,901,901,901,901,901,901,901,901,901,901,901,901,901,901,901,901,901,901,901,901,901,901,901,901,901,
901,901,901,901,901,901,901,901,901,901,901,901,901,901,901,901,901,1059,1059,1060,1106,1106,1139,901,901,901,901,901,901,901,901,901,901,901,901,901,901,901,901,901,20,20,20,20,20,20,20,20,20,20,20,20,901,901,901,901,901,901,901,901,901,901,901,901,901,901,901,901,901,901,901,901,901,901,901,901,901,901,901,901,
901,901,901,901,901,901,901,901,901,901,901,901,901,901,901,901,901,2,2,1136,1137,1138,1139,1059,1059,1059,1059,901,901,901,901,901,901,901,901,901,901,901,901,901,20,20,20,20,20,20,20,20,20,20,20,901,901,901,901,1063,1064,1065,1063,1064,1063,1064,1065,354,1063,1063,1064,1065,901,901,901,901,901,901,901,901,901,901,901,901,
901,901,901,901,901,901,901,901,901,901,901,901,901,901,901,901,901,20,20,1136,1137,1138,1106,901,901,901,901,901,901,901,901,901,901,901,901,901,901,901,901,901,20,20,20,20,20,20,20,20,1059,1059,1059,1059,1059,1059,1059,1095,1096,1095,1095,1095,1095,1095,1095,1095,1095,1095,1096,417,901,1059,1059,1059,1059,1059,1059,1059,20,901,901,901,
901,901,20,901,901,901,901,901,901,901,901,901,901,901,901,901,901,901,901,1136,1106,1106,1139,2,2,2,2,2,2,2,2,2,2,2,2,2,2,2,2,20,1059,1059,1059,1059,1059,1059,20,20,20,20,20,20,901,901,901,1127,1128,1127,1127,1127,1127,1127,1127,1127,1127,1127,1128,901,901,901,901,901,901,901,901,901,901,901,901,901,
901,20,20,901,901,901,901,901,901,901,901,901,901,901,901,901,901,1059,1059,1060,1106,1106,1139,901,901,901,901,2,2,2,2,2,2,2,2,2,2,2,901,20,20,20,20,20,20,20,20,20,20,20,20,901,901,901,901,1097,1098,1097,1098,1097,1098,1097,1098,1097,1098,1097,1098,901,901,901,901,901,901,901,901,901,901,901,901,901,
901,20,20,901,901,901,901,901,901,901,901,901,901,901,901,901,901,2,2,1136,1137,1138,1139,1059,1059,1059,1059,1059,1059,1059,2,2,1059,1059,1059,1059,1059,1059,1059,20,20,20,20,20,20,20,20,20,20,20,20,20,901,901,901,1129,1130,1129,1130,1129,1130,1129,1130,1129,1130,1129,1130,901,901,901,901,901,901,901,901,901,901,901,901,901,
901,20,20,901,901,901,901,901,901,901,901,901,901,901,901,901,901,1059,1059,1060,1137,1138,1139,901,901,901,901,2,2,2,2,2,901,901,901,901,901,901,2,901,901,901,2,901,901,901,2,2,901,901,901,901,901,901,2,1097,1098,1097,1098,1097,1098,1097,1098,1097,1098,1097,1098,901,901,901,2,901,901,901,2,901,901,901,901,2,
1103,1103,1103,1103,1103,1103,1103,1103,1103,1103,1103,1103,1103,1103,1103,1103,1103,1103,1103,1104,1137,1138,1139,1103,1103,1103,1103,1103,1103,2,2,2,1103,1103,1103,1103,1103,1103,1103,1103,1103,1103,1103,1103,1103,1103,1103,1103,1103,1103,1103,1103,1103,1103,1103,1129,1130,1129,1130,1129,1130,1129,1130,1129,1130,1129,1130,1103,1103,1103,1103,1103,1103,1103,1103,1103,1103,1103,1103,1103,
1135,1134,1135,1135,1135,1134,1135,1135,1135,1135,1135,1135,1134,1135,1135,1061,1062,1134,1134,1134,1137,1138,1106,1135,1135,1135,1135,1135,1134,1095,1096,1095,1135,1135,1134,1135,1135,1061,1062,1135,1134,1135,1135,1135,1134,1135,1135,1135,1134,1135,1135,1135,1135,1135,1135,1097,1098,1097,1098,1097,1098,1097,1098,1097,1098,1097,1098,1135,1135,1135,1134,1135,1135,1135,1134,1135,1135,1135,1135,1135,
1102,1102,1133,1134,1134,1134,1133,1134,1134,1134,1134,1134,1133,1134,1134,1190,1191,1134,1133,1134,1105,1106,1107,1133,1133,1134,1133,1134,1133,1127,1128,1127,1133,1133,1134,1133,1133,1190,1191,1134,1134,1134,1133,1134,1133,1134,1133,1134,1134,1133,1134,1134,1133,1134,1134,1129,1130,1129,1130,1129,1130,1129,1130,1129,1130,1129,1130,1134,1133,1134,1133,1134,1133,1134,1134,1133,1134,1134,1133,1134,
1101,1101,1101,1101,1101,1101,1101,1101,1101,1101,1101,1101,1101,1101,1101,1222,1223,1101,1101,1134,1134,1134,1134,1101,1101,1101,1101,1101,1101,1097,1098,1097,1101,1101,1101,1101,1101,1222,1223,1101,1101,1101,1101,1101,1101,1101,1101,1101,1101,1101,1101,1101,1101,1101,1101,1097,1098,1097,1098,1097,1098,1097,1098,1097,1098,1097,1098,1101,1101,1101,1101,1101,1101,1101,1101,1101,1101,1101,1101,1101,
1065,1063,1063,1063,1063,1063,1063,1063,1063,1063,1063,1063,1063,1063,1063,1065,1065,1063,1063,1065,1065,1065,1065,1063,1063,1063,1063,1063,1063,1129,1130,1129,1063,1063,1063,1063,1063,1065,1065,1063,1063,1063,1063,1063,1063,1063,1063,1063,1063,1063,1063,1063,1063,1063,1065,1129,1130,1129,1130,1129,1130,1129,1130,1129,1130,1129,1130,1065,1063,1063,1063,1063,1063,1063,1063,1063,1063,1063,1063,1063,
385,385,385,385,385,385,385,385,385,385,385,385,385,385,385,385,385,385,385,385,385,385,385,385,385,385,385,385,385,1097,1098,1097,385,385,385,385,385,385,385,386,386,386,386,386,386,386,386,386,386,386,386,386,386,386,386,1097,1098,1097,1098,1097,1098,1097,1098,1097,1098,1097,1098,417,387,386,386,386,386,386,386,386,386,386,386,386,
417,417,417,417,417,417,417,417,417,417,417,417,417,417,417,417,417,417,417,417,417,417,417,417,417,417,417,417,417,1129,1130,1129,417,417,417,417,417,417,417,418,418,418,418,418,418,418,418,418,418,418,418,418,418,418,418,1129,1130,1129,1130,1129,1130,1129,1130,1129,1130,1129,1130,417,419,418,418,418,418,418,418,418,418,418,418,418,
417,417,417,417,417,417,417,417,417,417,417,417,417,417,417,417,417,417,417,417,417,417,417,417,417,417,417,417,417,1097,1098,1097,417,417,417,417,417,417,417,417,417,417,417,417,417,417,417,417,417,417,417,417,417,417,417,1097,1098,1097,1098,1097,1098,1097,1098,1097,1098,1097,1098,417,417,417,417,417,417,417,417,417,417,417,417,417,
417,417,417,417,417,417,417,417,417,417,417,417,417,417,417,417,417,417,417,417,417,417,417,417,417,417,417,417,417,1129,1130,1129,417,417,417,417,417,417,417,418,418,418,418,418,418,418,418,417,417,417,417,417,417,418,418,1129,1130,1129,1130,1129,1130,1129,1130,1129,1130,1129,1130,417,419,418,418,418,418,418,418,418,418,418,418,417
</data>
 </layer>
 <objectgroup id="2" name="Object Layer 1">
  <object id="1" name="COIN" type="O" x="144" y="104">
   <point/>
  </object>
  <object id="2" name="COIN" type="O" x="145" y="40">
   <point/>
  </object>
  <object id="3" name="COIN" type="O" x="200" y="48">
   <point/>
  </object>
  <object id="4" name="COIN" type="O" x="349" y="96">
   <point/>
  </object>
  <object id="5" name="COIN" type="O" x="507" y="56">
   <point/>
  </object>
 </objectgroup>
</map>
