<?xml version="1.0" encoding="UTF-8"?>
<map version="1.10" tiledversion="1.11.2" orientation="orthogonal" renderorder="right-down" width="40" height="25" tilewidth="8" tileheight="8" infinite="0" nextlayerid="2" nextobjectid="1">
 <tileset firstgid="1" source="tiles.tsx"/>
 <layer id="1" name="Tile Layer 1" width="40" height="25">
  <data encoding="csv">
145,145,145,145,145,145,1146,1146,1146,1146,1146,1146,1146,1146,1146,1146,1146,1146,1146,1146,1146,1146,1146,1146,1146,1146,1146,1146,1146,1146,1146,1146,1146,1146,1146,1146,145,145,145,145,
145,145,145,145,145,145,37,140,140,140,140,140,140,140,140,140,140,140,140,140,140,140,140,140,140,140,140,140,140,140,140,140,140,140,140,38,145,145,145,145,
145,145,145,145,145,145,202,1073,1073,1073,1073,1073,1073,1073,1073,1073,1073,1073,1073,1073,1073,1073,1073,1073,1073,1073,1073,1073,1073,1073,1073,1073,1073,1073,1073,36,145,145,145,145,
145,145,145,145,145,145,202,122,122,122,122,122,122,122,122,122,122,122,122,122,122,122,122,122,122,122,122,122,122,122,122,122,122,1073,1073,36,145,145,145,145,
145,145,145,145,145,145,202,122,65,66,65,66,65,66,65,66,392,393,392,393,392,393,181,182,183,184,392,393,392,393,392,393,122,1073,1073,36,145,145,145,145,
145,145,145,145,145,145,202,122,97,98,97,98,97,98,97,98,424,425,427,428,424,428,213,214,215,216,424,425,427,428,424,428,122,1073,1073,36,145,145,145,145,
145,145,145,145,145,145,202,122,122,122,122,122,122,122,122,122,122,122,122,122,122,122,122,122,122,122,122,122,122,122,122,122,122,1073,1073,36,145,145,145,145,
145,145,145,145,145,145,202,1073,1073,1073,331,332,332,332,332,332,332,332,332,332,332,332,332,332,332,332,332,332,333,1073,1073,1073,1073,1073,1073,36,145,145,145,145,
145,145,145,145,145,145,202,1073,1073,1073,363,175,175,208,210,175,175,361,175,208,209,175,361,361,208,207,361,361,334,1073,1073,1073,1073,1073,1073,36,145,145,145,145,
145,145,145,145,145,145,202,1073,1073,1073,363,361,1501,1502,1503,1504,361,361,175,175,175,175,361,758,759,760,361,361,334,1073,1073,1073,1073,1073,1073,36,145,145,145,145,
145,145,145,145,145,145,202,1073,1073,1073,363,361,1533,1534,1535,1536,361,361,175,756,757,175,361,790,791,792,175,361,334,1073,1073,1073,1073,1073,1073,36,145,145,145,145,
145,145,145,145,145,145,202,1073,1073,1073,363,361,1565,1566,1567,1568,361,361,175,788,789,175,361,822,823,824,175,361,334,1073,331,332,332,333,1073,36,145,145,145,145,
145,145,145,145,145,145,202,1073,1073,1073,363,361,1597,1598,1599,1600,361,361,175,175,175,175,361,854,855,856,175,361,334,1073,363,772,772,334,1073,36,145,145,145,145,
145,145,145,145,145,145,202,1073,1073,1073,395,396,396,396,396,396,396,396,396,396,396,396,396,396,396,396,396,396,397,1073,363,772,772,334,1073,36,145,145,145,145,
145,145,145,145,145,145,202,1073,1073,1073,1073,1073,1073,1073,1073,1073,1073,1073,1073,1073,1073,1073,1073,1073,1073,1073,1073,1073,1073,1073,363,772,772,334,1073,36,145,145,145,145,
145,145,145,145,145,145,202,1073,1073,1073,1073,1073,1073,1073,1073,1073,1073,1073,1073,1073,1073,1073,1073,1073,1073,1073,1073,1073,1073,1073,363,772,772,365,1073,36,145,145,145,145,
145,145,145,145,145,145,202,709,710,711,771,865,865,865,865,865,865,865,865,865,865,865,865,865,865,865,865,865,770,1073,363,772,772,334,1073,36,145,145,145,145,
145,145,145,145,145,145,202,743,744,776,738,865,865,865,865,865,865,865,865,865,865,865,865,865,865,865,865,865,737,1073,363,772,772,334,1073,36,145,145,145,145,
145,145,145,145,145,145,202,707,708,711,709,710,709,710,709,710,709,710,709,710,709,710,709,710,711,709,710,709,710,1073,363,772,772,334,1073,36,145,145,145,145,
145,145,145,145,145,145,202,739,740,743,744,743,744,743,744,743,744,743,744,743,744,743,744,743,744,741,743,744,742,1073,395,396,396,397,1073,36,145,145,145,145,
145,145,145,145,145,145,993,993,994,993,994,995,996,993,994,993,994,993,994,995,996,993,993,994,995,996,996,994,995,996,993,993,993,994,995,996,145,145,145,145,
145,145,145,145,145,145,993,994,995,996,994,995,993,994,995,996,993,994,993,994,993,994,995,996,993,993,994,995,996,996,994,995,994,995,996,930,145,145,145,145,
145,145,145,145,145,145,994,995,996,993,994,993,994,995,996,996,994,995,996,1300,1301,1302,994,995,996,994,995,996,993,994,995,996,993,994,995,996,145,145,145,145,
145,145,145,145,145,145,993,993,994,993,994,995,996,993,994,993,994,993,994,995,994,995,996,993,994,993,994,994,995,996,993,994,993,994,995,996,145,145,145,145,
145,145,145,145,145,145,994,994,995,994,995,994,995,994,995,994,995,996,993,994,993,994,995,994,995,996,993,994,993,994,995,996,994,995,996,996,145,145,145,145
</data>
 </layer>
</map>
