<?xml version="1.0" encoding="UTF-8"?>
<map version="1.10" tiledversion="1.11.2" orientation="orthogonal" renderorder="right-down" width="46" height="25" tilewidth="8" tileheight="8" infinite="0" nextlayerid="2" nextobjectid="1">
 <tileset firstgid="1" source="tiles.tsx"/>
 <layer id="1" name="Tile Layer 1" width="46" height="25">
  <data encoding="csv">
20,656,723,20,624,625,20,20,20,786,787,20,624,624,625,691,690,901,901,624,625,153,40,1168,1174,1170,1200,1201,1203,1204,1204,1204,1204,1204,1204,1115,1116,1116,1118,1204,1205,1205,1204,1204,1204,1115,
20,723,723,20,624,720,20,20,20,818,819,20,624,624,720,721,722,901,901,624,625,153,40,1168,1169,1171,1232,1233,1203,1205,1204,1205,1205,1204,1205,1147,1149,1149,1150,1113,1114,1203,1205,1204,1205,1147,
20,723,723,20,658,624,20,20,20,850,851,20,624,624,752,753,754,901,624,624,624,625,40,1168,1174,1172,1206,1207,1203,1204,1204,1204,1204,1204,1204,1179,1180,1181,1182,1145,1146,1203,1204,1204,1204,1179,
755,723,723,658,624,626,723,689,723,723,723,755,624,624,40,40,40,658,624,624,624,626,40,1168,1173,1169,1238,1239,1203,1204,1236,1204,1204,1236,1204,1211,1212,1213,1214,1175,1176,1205,1204,1236,1204,1211,
40,40,40,40,40,40,40,40,40,40,40,40,40,40,40,40,40,40,40,40,40,40,40,1168,1169,1170,1200,1201,1203,1205,1204,1205,1205,1204,1205,1243,1244,1245,1246,1205,1205,1205,1205,1204,1205,1243,
1160,1161,1162,1163,1164,1165,40,40,40,40,40,40,40,40,40,40,40,40,40,40,40,40,40,1168,1174,1171,1232,1233,1203,1205,1204,1205,1205,1204,1205,1275,1276,1277,1278,1205,1205,1205,1205,1204,1205,1275,
1192,1193,1194,1195,1196,1197,1198,1165,40,40,40,40,40,40,40,40,40,40,40,40,40,40,40,1168,1174,1172,1206,1207,1203,1204,1204,1204,1204,1204,1204,1204,1204,1204,1205,1204,1204,1204,1204,1204,1204,1204,
1224,1225,1226,1196,1228,1196,1230,1231,40,40,40,40,40,40,40,40,40,40,40,40,40,40,40,1168,1173,1169,1238,1239,1203,1204,1205,1204,1204,1204,1204,1204,1204,1204,1204,1204,1205,1204,1204,1204,1204,1204,
1192,1192,1193,1194,1195,1196,1197,1166,40,40,40,40,40,40,40,40,40,40,40,40,40,40,40,1168,1169,1170,1200,1201,1203,1205,1204,1205,1204,1204,1205,1204,1205,1204,1205,1205,1204,1205,1204,1204,1205,1204,
1224,1225,1226,1227,1228,1196,1230,1167,40,40,40,40,40,40,40,40,40,40,40,40,40,40,40,1168,1174,1171,1232,1233,1203,1205,1204,1205,1204,1204,1204,1204,1205,1205,1205,1205,1204,1205,1204,1204,1204,1204,
1224,1225,1226,1227,1228,1196,1230,1167,40,40,40,40,40,40,40,40,40,40,40,40,40,40,40,1168,1174,1170,1200,1201,1203,1205,1204,1204,40,40,1271,1272,1273,1274,40,40,1204,1204,1205,1205,1205,1205,
1192,1193,1194,1195,1196,1197,1167,40,1160,1161,1162,1163,1164,1165,40,40,40,40,40,40,40,40,1160,1161,1195,1196,1168,1201,1203,1204,1204,1236,1148,1117,1117,1117,1117,1117,1117,1148,1204,1236,1204,1204,1204,1204,
1193,1194,1195,1196,1196,1167,40,1160,1192,1193,1194,1195,1196,1197,1198,1165,40,40,40,40,40,40,1192,1193,1195,1196,1168,1233,1203,1205,1205,1204,1148,1117,1117,1117,1117,1117,1117,1148,1205,1204,1204,1204,1204,1204,
1225,1225,1226,1167,40,40,1160,1192,1224,1225,1226,1196,1228,1196,1230,1231,40,40,1167,40,40,40,1224,1193,1195,1196,1168,1207,1203,1205,1205,1205,1148,1117,1117,1117,1117,1117,1117,1148,1208,1204,1204,1204,1204,1204,
1177,1178,1167,40,40,40,1224,1224,1192,1192,1193,1194,1195,1196,1197,1166,40,40,1167,40,40,40,1224,1193,1227,1228,1168,1239,1203,1204,1204,1205,1148,1117,1117,1117,1117,1117,1117,1148,1240,1205,1204,1204,1204,1204,
1209,1210,40,40,40,40,1224,1256,1224,1225,1226,1227,1228,1196,1230,1167,40,40,1199,1199,1199,1199,1199,1199,1199,1199,1199,1204,1205,1205,1205,1204,1148,1117,1117,1117,1117,1117,1117,1148,1205,1204,1204,1204,1204,1204,
1241,1242,40,40,40,40,1256,1224,1224,1225,1226,1227,1228,1196,1230,1167,40,40,1203,1204,1204,1205,1204,1205,1205,1205,1204,1205,1205,1204,1205,1204,1148,1117,1117,1117,1117,1117,1117,1148,1205,1204,1204,1204,1204,1204,
1177,1178,40,40,40,40,1224,1224,1192,1193,1194,1195,1196,1197,1167,40,40,40,1203,1204,1204,1205,1205,1205,1204,1205,1205,1236,1205,1205,1205,1205,1148,1117,1117,1117,1117,1117,1117,1148,1205,1205,1204,1204,1204,1204,
1209,1210,40,40,40,40,1256,1256,1193,1194,1195,1196,1196,1167,40,40,40,40,1203,1205,1204,1204,1205,1205,1204,1205,1205,1112,1144,1205,1205,1205,1148,1117,1117,1117,1117,1117,1117,1148,1205,1205,1204,1204,1204,1204,
1241,1242,40,40,40,40,1256,1256,1225,1225,1226,1167,40,40,40,40,40,40,1235,1204,1204,1204,1205,1205,1204,1205,1205,1111,1143,1205,1205,1205,1148,1117,1117,1117,1117,1117,1117,1148,1205,1205,1204,1204,1204,1204,
1058,1058,1058,1058,1058,1058,1058,1058,1058,1058,1058,1058,1058,1058,1058,1058,1058,1058,1058,1058,1058,1058,1058,1058,1058,1058,1058,1058,1058,1058,1058,1058,1058,1058,1058,1058,1058,1058,1058,1058,1058,1058,1058,1058,1058,1058,
1050,1051,1052,1053,1050,1051,1052,1053,1050,1051,1052,1053,1050,1051,1052,1053,1050,1051,1052,1053,1050,1051,1052,1053,1050,1051,1052,1053,1050,1051,1052,1053,1050,1051,1052,1053,1050,1051,1052,1053,1050,1051,1052,1053,1050,1051,
939,940,941,942,939,940,941,942,939,940,941,942,939,940,941,942,939,940,941,942,939,940,941,942,939,940,941,942,939,940,941,942,939,940,941,942,939,940,941,942,939,940,941,942,939,940,
971,972,973,974,971,972,973,974,971,972,973,974,971,972,973,974,971,972,973,974,971,972,973,974,971,972,973,974,971,972,973,974,971,972,973,974,971,972,973,974,971,972,973,974,971,972,
476,476,476,476,476,476,476,476,476,476,476,476,476,476,476,476,476,476,476,476,476,476,476,476,476,476,476,476,476,476,476,476,476,476,476,476,476,476,476,476,476,476,476,476,476,476
</data>
 </layer>
</map>
