<?xml version="1.0" encoding="UTF-8"?>
<map version="1.10" tiledversion="1.11.2" orientation="orthogonal" renderorder="right-down" width="400" height="25" tilewidth="8" tileheight="8" infinite="0" nextlayerid="3" nextobjectid="2">
 <tileset firstgid="1" source="tiles.tsx"/>
 <layer id="1" name="Tile Layer 1" width="400" height="25">
  <data encoding="csv">
53,54,55,56,57,20,20,52,53,54,55,56,57,20,20,20,20,20,20,20,20,20,20,20,20,20,20,20,20,20,20,20,20,20,20,20,20,20,20,20,20,20,20,20,20,20,20,20,20,20,20,20,20,20,20,20,20,20,20,20,20,52,53,54,55,56,57,20,20,21,22,23,24,25,84,85,86,87,88,89,20,20,20,20,20,20,52,53,54,55,56,57,20,20,20,20,20,20,21,22,23,24,25,20,20,20,20,20,20,21,22,23,24,25,20,20,20,20,20,20,20,20,20,20,20,20,20,20,20,20,20,20,20,20,20,20,21,22,23,24,25,20,20,20,20,20,21,22,23,24,25,20,20,20,20,20,21,22,23,24,25,20,20,20,20,20,20,20,20,20,20,20,20,20,20,20,20,20,20,20,20,20,20,20,20,20,20,20,20,20,20,20,20,20,20,20,20,20,20,20,20,20,20,20,20,20,20,20,20,20,20,20,20,20,21,22,23,24,25,20,20,20,20,20,21,22,23,24,25,20,20,20,20,20,21,22,23,24,25,20,20,20,20,20,20,20,20,20,20,20,20,20,20,20,20,20,20,20,20,20,20,20,20,20,20,20,20,20,20,20,20,20,20,20,20,20,20,20,20,20,20,20,20,20,20,20,20,20,20,20,20,20,20,20,20,20,20,20,21,22,23,24,25,20,20,20,20,20,21,22,23,24,25,20,20,20,20,20,21,22,23,24,25,20,20,20,20,20,20,20,20,20,20,20,20,20,20,20,20,20,20,20,20,20,20,20,20,20,20,20,20,20,20,20,20,20,20,20,20,20,20,20,20,20,20,20,20,20,20,20,20,20,20,20,20,20,20,20,20,20,20,20,21,22,23,24,25,20,20,20,20,20,21,22,23,24,25,20,20,20,
85,86,87,88,89,20,20,84,85,86,87,88,89,20,20,20,21,22,23,24,25,20,20,20,20,20,20,20,20,20,21,22,23,24,25,20,20,20,20,20,20,20,20,20,20,20,20,20,20,20,20,20,20,20,20,20,20,20,20,20,20,84,85,86,87,88,89,20,52,53,54,55,56,57,116,117,118,119,120,121,20,21,22,23,24,25,84,85,86,87,88,89,20,20,20,20,20,52,53,54,55,56,57,20,20,20,20,20,52,53,54,55,56,57,20,20,20,20,20,20,20,21,22,23,24,25,20,20,20,20,20,20,20,20,20,52,53,54,55,56,57,20,20,20,20,52,53,54,55,56,57,20,20,20,20,52,53,54,55,56,57,20,20,20,20,21,22,23,24,25,20,20,20,20,20,20,20,20,20,20,20,20,20,20,20,20,20,20,20,20,20,20,20,20,20,20,20,20,20,21,22,23,24,25,20,20,20,20,20,20,20,20,20,52,53,54,55,56,57,20,20,20,20,52,53,54,55,56,57,20,20,20,20,52,53,54,55,56,57,20,20,20,20,21,22,23,24,25,20,20,20,20,20,20,20,20,20,20,20,20,20,20,20,20,20,20,20,20,20,20,20,20,20,20,20,20,20,20,20,20,20,20,20,21,22,23,24,25,20,20,20,20,20,20,20,20,20,52,53,54,55,56,57,20,20,20,20,52,53,54,55,56,57,20,20,20,20,52,53,54,55,56,57,20,20,20,20,21,22,23,24,25,20,20,20,20,20,20,20,20,20,20,20,20,20,20,20,20,20,20,20,20,20,20,20,20,20,20,20,20,20,20,20,20,20,20,20,21,22,23,24,25,20,20,20,20,20,20,20,20,20,52,53,54,55,56,57,20,20,20,20,52,53,54,55,56,57,20,20,20,
117,118,119,120,121,20,20,116,117,118,119,120,121,20,20,52,53,54,55,56,57,20,20,20,20,20,20,20,20,52,53,54,55,56,57,20,20,20,20,20,20,20,20,20,20,20,20,20,20,20,20,20,20,20,20,20,20,20,20,20,20,116,117,118,119,120,121,20,84,85,86,87,88,89,20,20,20,20,20,20,52,53,54,55,56,57,116,117,118,119,120,121,20,20,20,20,20,84,85,86,87,88,89,20,20,20,20,20,84,85,86,87,88,89,20,20,20,20,20,20,52,53,54,55,56,57,20,20,20,20,20,20,20,20,20,84,85,86,87,88,89,20,20,20,20,84,85,86,87,88,89,20,20,20,20,84,85,86,87,88,89,20,20,20,52,53,54,55,56,57,20,20,20,20,20,20,20,20,20,20,20,20,20,20,20,20,20,20,20,20,20,20,20,20,20,20,20,20,52,53,54,55,56,57,20,20,20,20,20,20,20,20,20,84,85,86,87,88,89,20,20,20,20,84,85,86,87,88,89,20,20,20,20,84,85,86,87,88,89,20,20,20,52,53,54,55,56,57,20,20,20,20,20,20,20,20,20,20,20,20,20,20,20,20,20,20,20,20,20,20,20,20,20,20,20,20,20,20,20,20,20,20,52,53,54,55,56,57,20,20,20,20,20,20,20,20,20,84,85,86,87,88,89,20,20,20,20,84,85,86,87,88,89,20,20,20,20,84,85,86,87,88,89,20,20,20,52,53,54,55,56,57,20,20,20,20,20,20,20,20,20,20,20,20,20,20,20,20,20,20,20,20,20,20,20,20,20,20,20,20,20,20,20,20,20,20,52,53,54,55,56,57,20,20,20,20,20,20,20,20,20,84,85,86,87,88,89,20,20,20,20,84,85,86,87,88,89,20,20,20,
20,20,20,20,20,20,20,20,20,20,20,20,20,20,20,84,85,86,87,88,89,20,20,20,20,20,20,20,20,84,85,86,87,88,89,20,20,20,20,20,20,20,20,20,20,20,20,20,20,20,20,20,20,20,20,20,20,20,20,20,20,20,20,20,20,20,20,20,116,117,118,119,120,121,20,20,20,20,20,20,84,85,86,87,88,89,20,20,20,20,20,20,20,20,20,20,20,116,117,118,119,120,121,20,20,20,20,20,116,117,118,119,120,121,20,20,20,20,20,20,84,85,86,87,88,89,20,20,20,20,20,20,20,20,20,116,117,118,119,120,121,20,20,20,20,116,117,118,119,120,121,20,20,20,20,116,117,118,119,120,121,20,20,20,84,85,86,87,88,89,20,20,20,20,20,20,20,20,20,20,20,20,20,20,20,20,20,20,20,20,20,20,20,20,20,20,20,20,84,85,86,87,88,89,20,20,20,20,20,20,20,20,20,116,117,118,119,120,121,20,20,20,20,116,117,118,119,120,121,20,20,20,20,116,117,118,119,120,121,20,20,20,84,85,86,87,88,89,20,20,20,20,20,20,20,20,20,20,20,20,20,20,20,20,20,20,20,20,20,20,20,20,20,20,20,20,20,20,20,20,20,20,84,85,86,87,88,89,20,20,20,20,20,20,20,20,20,116,117,118,119,120,121,20,20,20,20,116,117,118,119,120,121,20,20,20,20,116,117,118,119,120,121,20,20,20,84,85,86,87,88,89,20,20,20,20,20,20,20,20,20,20,20,20,20,20,20,20,20,20,20,20,20,20,20,20,20,20,20,20,20,20,20,20,20,20,84,85,86,87,88,89,20,20,20,20,20,20,20,20,20,116,117,118,119,120,121,20,20,20,20,116,117,118,119,120,121,20,20,20,
20,20,20,20,20,20,20,20,20,20,20,20,20,20,20,116,117,118,119,120,121,20,20,21,22,23,24,25,20,116,117,118,119,120,121,20,20,20,21,22,23,24,25,20,20,20,20,20,20,20,20,20,20,20,20,20,20,20,20,20,20,20,20,20,20,20,20,20,20,20,20,20,20,20,20,20,20,20,20,20,116,117,118,119,120,121,20,20,20,20,20,20,20,20,20,20,20,20,20,20,20,20,20,20,20,20,20,20,20,20,20,20,20,20,20,20,20,20,20,20,116,117,118,119,120,121,20,20,20,20,20,20,20,20,20,20,20,20,20,20,20,20,20,20,20,20,20,20,20,20,20,20,20,20,20,20,20,20,20,20,20,20,20,20,116,117,118,119,120,121,20,20,20,20,20,20,20,20,20,20,20,20,20,20,20,20,20,20,20,20,20,20,20,20,20,20,20,20,116,117,118,119,120,121,20,20,20,20,20,20,20,20,20,20,20,20,20,20,20,20,20,20,20,20,20,20,20,20,20,20,20,20,20,20,20,20,20,20,20,20,20,20,116,117,118,119,120,121,20,20,20,20,20,20,20,20,20,20,20,20,20,20,20,20,20,20,20,20,20,20,20,20,20,20,20,20,20,20,20,20,20,20,116,117,118,119,120,121,20,20,20,20,20,20,20,20,20,20,20,20,20,20,20,20,20,20,20,20,20,20,20,20,20,20,20,20,20,20,20,20,20,20,20,20,20,20,116,117,118,119,120,121,20,20,20,20,20,20,20,20,20,20,20,20,20,20,20,20,20,20,20,20,20,20,20,20,20,20,20,20,20,20,20,20,20,20,116,117,118,119,120,121,20,20,20,20,20,20,20,20,20,20,20,20,20,20,20,20,20,20,20,20,20,20,20,20,20,20,20,20,
20,20,20,20,20,20,1281,1282,1283,1284,1285,1286,1287,20,20,20,20,20,20,20,20,20,52,53,54,55,56,57,20,20,20,20,20,20,20,20,20,52,53,54,55,56,57,20,20,20,20,20,20,20,20,20,20,20,20,20,20,20,20,20,20,20,20,1281,1282,1283,1284,1285,1286,1287,20,20,20,20,20,20,20,20,20,20,20,20,20,20,20,20,20,20,20,20,20,20,20,20,20,20,20,20,20,20,1281,1282,1283,1284,1285,1286,1287,20,20,20,20,20,20,20,20,20,20,20,20,20,20,20,20,20,20,20,20,20,20,20,20,20,20,20,20,20,20,20,20,20,20,1281,1282,1283,1284,1285,1286,1287,20,20,20,20,20,20,20,20,20,20,20,20,20,20,20,20,20,20,20,20,20,20,1281,1282,1283,1284,1285,1286,1287,20,20,20,20,20,20,20,20,20,20,20,20,20,20,20,20,20,20,20,20,20,20,20,20,20,20,20,20,20,20,20,20,20,20,20,20,20,20,20,20,20,20,1281,1282,1283,1284,1285,1286,1287,20,20,20,20,20,20,20,20,20,20,20,20,20,20,20,20,20,20,20,20,20,20,1281,1282,1283,1284,1285,1286,1287,20,20,20,20,20,20,20,20,20,20,20,20,20,20,20,20,20,20,20,20,20,20,20,20,20,20,20,20,20,20,20,20,20,20,20,20,20,20,20,20,20,20,20,20,20,20,20,20,1281,1282,1283,1284,1285,1286,1287,20,20,20,20,20,20,20,20,20,20,20,20,20,20,20,20,20,20,20,20,20,20,1281,1282,1283,1284,1285,1286,1287,20,20,20,20,20,20,20,20,20,20,20,20,20,20,20,20,20,20,20,20,20,20,20,20,20,20,20,20,20,20,20,20,20,20,20,20,20,20,20,20,20,20,20,20,20,20,20,20,1281,1282,1283,1284,1285,1286,1287,20,20,20,20,20,20,
20,20,20,20,20,20,1313,1314,1315,1316,1317,1318,1319,20,20,20,20,20,20,20,20,20,84,85,86,87,88,89,20,20,20,20,20,20,20,20,20,84,85,86,87,88,89,20,20,20,20,20,20,20,20,20,20,20,20,20,20,20,20,20,20,20,20,1313,1314,1315,1316,1317,1318,1319,20,20,20,20,20,20,20,20,20,20,20,20,20,20,20,20,20,20,20,20,20,20,20,20,20,20,20,20,20,20,1313,1314,1315,1316,1317,1318,1319,20,20,20,20,20,20,20,20,20,20,20,20,20,20,20,20,20,20,20,20,20,20,20,20,20,20,20,20,20,20,20,20,20,20,1313,1314,1315,1316,1317,1318,1319,20,20,20,20,20,20,20,20,20,20,20,20,20,20,20,20,20,20,20,20,20,20,1313,1314,1315,1316,1317,1318,1319,20,20,20,20,20,20,20,20,20,20,20,20,20,20,20,20,20,20,20,20,20,20,20,20,20,20,20,20,20,20,20,20,20,20,20,20,20,20,20,20,20,20,1313,1314,1315,1316,1317,1318,1319,20,20,20,20,20,20,20,20,20,20,20,20,20,20,20,20,20,20,20,20,20,20,1313,1314,1315,1316,1317,1318,1319,20,20,20,20,20,20,20,20,20,20,20,20,20,20,20,20,20,20,20,20,20,20,20,20,20,20,20,20,20,20,20,20,20,20,20,20,20,20,20,20,20,20,20,20,20,20,20,20,1313,1314,1315,1316,1317,1318,1319,20,20,20,20,20,20,20,20,20,20,20,20,20,20,20,20,20,20,20,20,20,20,1313,1314,1315,1316,1317,1318,1319,20,20,20,20,20,20,20,20,20,20,20,20,20,20,20,20,20,20,20,20,20,20,20,20,20,20,20,20,20,20,20,20,20,20,20,20,20,20,20,20,20,20,20,20,20,20,20,20,1313,1314,1315,1316,1317,1318,1319,20,20,20,20,20,20,
20,20,20,20,20,20,1345,1346,1347,1348,1349,1350,1351,20,20,20,20,20,20,20,20,20,116,117,118,119,120,121,20,20,20,20,20,20,20,20,20,116,117,118,119,120,121,20,20,20,20,20,20,20,20,20,20,20,20,20,20,20,20,20,20,20,20,1345,1346,1347,1348,1349,1350,1351,20,20,20,20,20,20,20,20,20,20,20,20,20,20,20,20,20,20,20,20,20,20,20,20,20,20,20,20,20,20,1345,1346,1347,1348,1349,1350,1351,20,20,20,20,20,20,20,20,20,20,20,20,20,20,20,20,20,20,20,20,20,20,20,20,20,20,20,20,20,20,20,20,20,20,1345,1346,1347,1348,1349,1350,1351,20,20,21,22,23,24,25,20,20,20,20,20,20,20,20,20,20,20,20,20,20,20,1345,1346,1347,1348,1349,1350,1351,20,20,20,20,20,20,20,20,20,20,20,20,20,20,20,20,20,20,20,20,20,20,20,20,20,20,20,20,20,20,20,20,20,20,20,20,20,20,20,20,20,20,1345,1346,1347,1348,1349,1350,1351,20,20,21,22,23,24,25,20,20,20,20,20,20,20,20,20,20,20,20,20,20,20,1345,1346,1347,1348,1349,1350,1351,20,20,20,20,20,20,20,20,20,20,20,20,20,20,20,20,20,20,20,20,20,20,20,20,20,20,20,20,20,20,20,20,20,20,20,20,20,20,20,20,20,20,20,20,20,20,20,20,1345,1346,1347,1348,1349,1350,1351,20,20,21,22,23,24,25,20,20,20,20,20,20,20,20,20,20,20,20,20,20,20,1345,1346,1347,1348,1349,1350,1351,20,20,20,20,20,20,20,20,20,20,20,20,20,20,20,20,20,20,20,20,20,20,20,20,20,20,20,20,20,20,20,20,20,20,20,20,20,20,20,20,20,20,20,20,20,20,20,20,1345,1346,1347,1348,1349,1350,1351,20,20,21,22,23,24,
20,20,20,20,20,20,1377,1378,1379,1380,1381,1382,1383,20,20,20,20,20,20,20,1326,1327,20,20,20,20,20,20,20,20,20,20,20,20,20,20,20,20,20,20,20,20,20,20,20,20,20,20,20,20,20,20,20,20,20,20,20,20,20,20,20,20,20,1377,1378,1379,1380,1381,1382,1383,20,20,20,20,20,20,20,20,20,20,20,20,20,21,22,23,24,25,20,20,20,20,20,20,20,20,20,20,20,20,1377,1378,1379,1380,1381,20,21,22,23,24,25,20,20,20,20,20,20,20,20,20,20,20,20,20,21,22,23,24,25,20,20,20,20,20,20,20,20,20,20,20,20,1377,1378,1379,1380,1381,1382,1383,20,52,53,54,55,56,57,20,20,20,20,20,20,20,20,20,20,20,20,20,20,20,1377,1378,1379,1380,1381,1382,1383,20,20,20,20,20,20,20,20,20,20,20,20,20,20,20,20,20,20,20,20,20,20,20,20,20,21,22,23,24,25,20,20,20,20,20,20,20,20,20,20,20,20,1377,1378,1379,1380,1381,1382,1383,20,52,53,54,55,56,57,20,20,20,20,20,20,20,20,20,20,20,20,20,20,20,1377,1378,1379,1380,1381,1382,1383,20,20,20,20,20,20,20,20,20,20,20,20,20,20,20,20,20,20,20,20,20,20,20,20,20,20,20,20,20,20,20,21,22,23,24,25,20,20,20,20,20,20,20,20,20,20,20,20,1377,1378,1379,1380,1381,1382,1383,20,52,53,54,55,56,57,20,20,20,20,20,20,20,20,20,20,20,20,20,20,20,1377,1378,1379,1380,1381,1382,1383,20,20,20,20,20,20,20,20,20,20,20,20,20,20,20,20,20,20,20,20,20,20,20,20,20,20,20,20,20,20,20,21,22,23,24,25,20,20,20,20,20,20,20,20,20,20,20,20,1377,1378,1379,1380,1381,1382,1383,20,52,53,54,55,56,
20,20,20,20,20,20,1409,1410,1411,1412,1413,1414,1415,20,20,20,20,20,20,20,1358,1359,1360,1361,20,20,20,20,20,20,20,20,20,20,20,20,20,20,20,20,20,20,20,20,20,20,20,20,20,20,20,20,20,20,20,20,20,20,20,20,20,20,20,1409,1410,1411,1412,1413,1414,1415,20,20,20,20,20,20,20,20,20,20,20,20,52,53,54,55,56,57,20,20,20,20,20,20,20,20,20,20,20,20,1409,1410,1411,1412,1413,52,53,54,55,56,57,20,20,20,20,20,20,20,20,20,20,20,20,52,53,54,55,56,57,20,20,20,20,20,20,20,20,20,20,20,20,1409,1410,1411,1412,1413,1414,1415,20,84,85,86,87,88,89,20,20,20,20,20,20,20,20,20,20,20,20,20,20,20,1409,1410,1411,1412,1413,1414,1415,20,20,20,20,20,20,20,20,20,20,20,20,20,20,20,20,20,20,20,20,20,20,20,20,52,53,54,55,56,57,20,20,20,20,20,20,20,20,20,20,20,20,1409,1410,1411,1412,1413,1414,1415,20,84,85,86,87,88,89,20,20,20,20,20,20,20,20,20,20,20,20,20,20,20,1409,1410,1411,1412,1413,1414,1415,20,20,20,20,20,20,20,20,20,20,20,20,20,20,20,20,20,20,20,20,20,20,20,20,20,20,20,20,20,20,52,53,54,55,56,57,20,20,20,20,20,20,20,20,20,20,20,20,1409,1410,1411,1412,1413,1414,1415,20,84,85,86,87,88,89,20,20,20,20,20,20,20,20,20,20,20,20,20,20,20,1409,1410,1411,1412,1413,1414,1415,20,20,20,20,20,20,20,20,20,20,20,20,20,20,20,20,20,20,20,20,20,20,20,20,20,20,20,20,20,20,52,53,54,55,56,57,20,20,20,20,20,20,20,20,20,20,20,20,1409,1410,1411,1412,1413,1414,1415,20,84,85,86,87,88,
20,20,20,20,20,20,1441,1442,1443,1444,1445,1446,1447,20,20,20,20,20,20,20,1390,1391,1392,1393,20,20,20,20,20,20,20,20,20,20,20,20,20,20,20,20,20,20,20,20,20,20,20,20,20,20,20,20,20,20,20,20,20,20,20,20,20,20,20,1441,1442,1443,1444,1445,1446,1447,20,20,20,20,20,20,20,20,20,20,20,20,84,85,86,87,88,89,20,20,20,20,20,20,20,20,20,20,20,20,1441,1442,1443,1444,1445,84,85,86,87,88,89,20,20,20,20,20,20,20,20,20,20,20,20,84,85,86,87,88,89,20,20,20,20,20,20,20,20,20,20,20,20,1441,1442,1443,1444,1445,1446,1447,20,116,117,118,119,120,121,20,20,20,20,20,20,20,20,20,20,20,20,20,20,20,1441,1442,1443,1444,1445,1446,1447,20,20,20,20,20,20,20,20,20,20,20,20,20,20,20,20,20,20,20,20,20,20,20,20,84,85,86,87,88,89,20,20,20,20,20,20,20,20,20,20,20,20,1441,1442,1443,1444,1445,1446,1447,20,116,117,118,119,120,121,20,20,20,20,20,20,20,20,20,20,20,20,20,20,20,1441,1442,1443,1444,1445,1446,1447,20,20,20,20,20,20,20,20,20,20,20,20,20,20,20,20,20,20,20,20,20,20,20,20,20,20,20,20,20,20,84,85,86,87,88,89,20,20,20,20,20,20,20,20,20,20,20,20,1441,1442,1443,1444,1445,1446,1447,20,116,117,118,119,120,121,20,20,20,20,20,20,20,20,20,20,20,20,20,20,20,1441,1442,1443,1444,1445,1446,1447,20,20,20,20,20,20,20,20,20,20,20,20,20,20,20,20,20,20,20,20,20,20,20,20,20,20,20,20,20,20,84,85,86,87,88,89,20,20,20,20,20,20,20,20,20,20,20,20,1441,1442,1443,1444,1445,1446,1447,20,116,117,118,119,120,
20,20,20,20,20,20,1473,1474,1475,1476,1477,1478,1479,20,20,20,20,20,20,20,1422,1423,1424,1425,20,20,20,20,1321,20,20,659,660,660,659,20,20,20,20,20,20,20,20,20,20,20,20,20,20,20,20,1473,20,20,20,20,20,20,20,20,20,20,20,1473,1474,1475,1476,1477,1478,1479,20,20,20,20,20,20,20,20,20,20,20,20,116,117,118,119,120,121,20,20,20,20,20,20,20,20,20,20,20,20,1473,1474,1475,1476,1477,116,117,118,119,120,121,20,20,20,20,20,20,20,20,20,20,20,20,116,117,118,119,120,121,20,20,20,20,20,20,20,20,20,20,20,20,1473,1474,1475,1476,1477,1478,1479,20,20,20,20,20,20,20,20,20,20,20,20,20,20,20,20,20,20,20,20,20,20,1473,1474,1475,1476,1477,1478,1479,20,20,20,20,20,20,20,20,20,20,20,20,20,20,1473,20,20,20,20,20,20,20,20,20,116,117,118,119,120,121,20,20,20,20,20,20,20,20,20,20,20,20,1473,1474,1475,1476,1477,1478,1479,20,20,20,20,20,20,20,20,20,20,20,20,20,20,20,20,20,20,20,20,20,20,1473,1474,1475,1476,1477,1478,1479,20,20,20,20,20,20,20,20,20,20,20,20,20,20,1473,20,20,20,20,20,20,20,20,20,20,20,20,20,20,20,116,117,118,119,120,121,20,20,20,20,20,20,20,20,20,20,20,20,1473,1474,1475,1476,1477,1478,1479,20,20,20,20,20,20,20,20,20,20,20,20,20,20,20,20,20,20,20,20,20,20,1473,1474,1475,1476,1477,1478,1479,20,20,20,20,20,20,20,20,20,20,20,20,20,20,20,1473,20,20,20,20,20,20,20,20,20,20,20,20,20,20,116,117,118,119,120,121,20,20,20,20,20,20,20,20,20,20,20,20,1473,1474,1475,1476,1477,1478,1479,20,20,20,20,20,20,
20,20,20,20,20,20,1505,1506,1507,1508,1509,1510,1511,20,20,20,20,20,20,20,1454,1455,1456,1457,20,20,20,1418,1419,1420,20,694,694,694,694,20,20,20,630,20,20,20,20,20,20,20,20,20,20,20,20,20,630,20,20,20,20,1511,20,20,20,20,20,1505,1506,1507,1508,1509,1510,1511,20,20,20,20,20,1511,20,20,1511,20,20,20,20,20,20,20,20,20,20,20,20,1511,20,20,1511,20,20,20,20,20,1505,1506,1507,1508,1509,1510,1511,20,20,20,20,20,20,20,20,20,1511,20,20,1511,20,20,20,20,20,20,20,20,20,20,20,20,1511,20,20,1511,20,20,20,20,20,1505,1506,1507,1508,1509,1510,1511,20,20,20,20,20,20,20,20,20,20,20,20,1511,20,20,1511,20,20,20,20,20,20,1505,1506,1507,1508,1509,1510,1511,20,630,20,20,20,20,20,20,20,20,20,20,20,20,20,630,20,20,20,20,1511,20,20,20,20,20,20,20,20,20,20,20,20,1511,20,20,1511,20,20,20,20,20,1505,1506,1507,1508,1509,1510,1511,20,20,20,20,20,20,20,20,20,20,20,20,1511,20,20,1511,20,20,20,20,20,20,1505,1506,1507,1508,1509,1510,1511,20,630,20,20,20,20,20,20,20,20,20,20,20,20,20,630,20,20,20,20,1511,20,20,1511,20,20,1511,20,20,20,20,20,20,20,20,20,20,20,20,1511,20,20,1511,20,20,20,20,20,1505,1506,1507,1508,1509,1510,1511,20,20,20,20,20,20,20,20,20,20,20,20,1511,20,20,1511,20,20,20,20,20,20,1505,1506,1507,1508,1509,1510,1511,20,20,630,20,20,20,20,20,20,20,20,20,20,20,20,20,630,20,20,20,20,1511,20,1511,20,20,1511,20,20,20,20,20,20,20,20,20,20,20,20,1511,20,20,1511,20,20,20,20,20,1505,1506,1507,1508,1509,1510,1511,20,20,20,20,20,20,
660,661,662,14,14,14,726,659,694,659,661,662,14,14,14,14,14,14,14,1485,1486,1487,1488,1489,1321,1448,1449,1450,1451,1452,726,694,694,694,694,662,14,14,659,660,661,662,14,14,14,14,14,14,1321,14,14,14,659,660,661,662,14,14,14,14,14,14,14,726,659,694,659,661,662,14,14,14,14,14,14,14,14,14,14,14,14,14,14,14,14,14,14,14,14,14,14,14,14,14,14,14,14,14,14,14,726,659,694,659,661,662,14,14,14,14,14,14,14,14,14,14,14,14,14,14,14,14,14,14,14,14,14,14,14,14,14,14,14,14,14,14,14,14,14,14,14,726,659,694,659,661,662,14,14,14,14,14,14,14,14,14,14,14,14,14,14,14,14,14,14,14,14,14,14,14,726,659,694,659,661,662,14,14,659,660,661,662,14,14,14,14,14,14,14,14,14,14,659,660,661,662,14,14,14,14,14,14,14,14,14,14,14,14,14,14,14,14,14,14,14,14,14,14,14,726,659,694,659,661,662,14,14,14,14,14,14,14,14,14,14,14,14,14,14,14,14,14,14,14,14,14,14,14,726,659,694,659,661,662,14,14,659,660,661,662,14,14,14,14,14,14,14,14,14,14,659,660,661,662,14,14,14,14,14,14,14,14,14,14,14,14,14,14,14,14,14,14,14,14,14,14,14,14,14,14,14,14,14,726,659,694,659,661,662,14,14,14,14,14,14,14,14,14,14,14,14,14,14,14,14,14,14,14,14,14,14,14,726,659,694,659,661,662,14,14,14,659,660,661,662,14,14,14,14,14,14,14,14,14,14,659,660,661,662,14,14,14,14,14,14,14,14,14,14,14,14,14,14,14,14,14,14,14,14,14,14,14,14,14,14,14,14,726,659,694,659,661,662,14,14,14,14,14,14,14,
405,405,405,405,405,405,405,405,405,405,405,405,405,405,405,405,405,405,405,405,405,405,405,1322,1323,1480,1481,1482,1483,1484,405,405,405,405,405,405,405,406,407,407,407,407,405,405,405,405,406,1322,1323,407,407,405,405,405,405,407,407,407,407,405,405,405,405,407,407,407,407,405,405,405,405,407,407,407,407,405,405,405,405,407,407,407,407,405,405,405,405,407,407,407,407,405,405,405,405,405,405,405,405,407,407,407,407,405,405,405,405,407,407,407,407,405,405,405,405,407,407,407,407,405,405,405,405,407,407,407,407,405,405,405,405,407,407,407,407,405,405,405,405,405,405,405,405,407,407,407,407,405,405,405,405,407,407,407,407,405,405,405,405,407,407,407,407,405,405,405,405,407,405,405,405,405,407,407,407,407,405,406,407,407,407,407,405,405,405,405,406,407,407,407,407,405,405,405,405,407,407,407,407,405,405,407,407,407,407,405,405,405,405,407,407,407,407,405,405,405,405,405,405,405,405,407,407,407,407,405,405,405,405,407,407,407,407,405,405,405,405,407,407,407,407,405,405,405,405,407,405,405,405,405,407,407,407,407,405,406,407,407,407,407,405,405,405,405,406,407,407,407,407,405,405,405,405,407,407,407,407,407,407,407,407,405,405,405,405,407,407,407,407,405,405,405,405,407,407,407,407,405,405,405,405,405,405,405,405,407,407,407,407,405,405,405,405,407,407,407,407,405,405,405,405,407,407,407,407,405,405,405,405,407,405,405,405,405,407,407,407,407,405,405,406,407,407,407,407,405,405,405,405,406,407,407,407,407,405,405,405,405,407,407,407,407,407,407,407,405,405,405,405,407,407,407,407,405,405,405,405,407,407,407,407,405,405,405,405,405,405,405,405,407,407,407,407,405,405,405,405,407,407,407,
157,157,157,157,157,157,157,157,157,157,157,157,157,157,157,157,157,157,157,157,157,157,157,157,157,157,157,157,157,157,157,157,157,157,157,157,157,157,157,157,157,157,157,157,157,157,157,157,157,157,157,157,157,157,157,157,157,157,157,157,157,157,157,157,157,157,157,157,157,157,157,157,157,157,157,157,157,157,157,157,157,157,157,157,157,157,157,157,157,157,157,157,157,157,157,157,157,157,157,157,157,157,157,157,157,157,157,157,157,157,157,157,157,157,157,157,157,157,157,157,157,157,157,157,157,157,157,157,157,157,157,157,157,157,157,157,157,157,157,157,157,157,157,157,157,157,157,157,157,157,157,157,157,157,157,157,157,157,157,157,157,157,157,157,157,157,157,157,157,157,157,157,157,157,157,157,157,157,157,157,157,157,157,157,157,157,157,157,157,157,157,157,157,157,157,157,157,157,157,157,157,157,157,157,157,157,157,157,157,157,157,157,157,157,157,157,157,157,157,157,157,157,157,157,157,157,157,157,157,157,157,157,157,157,157,157,157,157,157,157,157,157,157,157,157,157,157,157,157,157,157,157,157,157,157,157,157,157,157,157,157,157,157,157,157,157,157,157,157,157,157,157,157,157,157,157,157,157,157,157,157,157,157,157,157,157,157,157,157,157,157,157,157,157,157,157,157,157,157,157,157,157,157,157,157,157,157,157,157,157,157,157,157,157,157,157,157,157,157,157,157,157,157,157,157,157,157,157,157,157,157,157,157,157,157,157,157,157,157,157,157,157,157,157,157,157,157,157,157,157,157,157,157,157,157,157,157,157,157,157,157,157,157,157,157,157,157,157,157,157,157,157,157,157,157,157,157,157,157,157,157,157,157,157,157,157,157,157,157,157,157,157,157,157,157,157,157,157,157,157,
157,157,157,157,157,157,157,157,157,157,157,157,157,157,157,157,157,157,157,157,157,157,157,157,157,157,157,157,157,157,157,157,157,157,157,157,157,157,157,157,157,157,157,157,157,157,157,157,157,157,157,157,157,157,157,157,157,157,157,157,157,157,157,157,157,157,157,157,157,157,157,157,157,157,157,157,157,157,157,157,157,157,157,157,157,157,157,157,157,157,157,157,157,157,157,157,157,157,157,157,157,157,157,157,157,157,157,157,157,157,157,157,157,157,157,157,157,157,157,157,157,157,157,157,157,157,157,157,157,157,157,157,157,157,157,157,157,157,157,157,157,157,157,157,157,157,157,157,157,157,157,157,157,157,157,157,157,157,157,157,157,157,157,157,157,157,157,157,157,157,157,157,157,157,157,157,157,157,157,157,157,157,157,157,157,157,157,157,157,157,157,157,157,157,157,157,157,157,157,157,157,157,157,157,157,157,157,157,157,157,157,157,157,157,157,157,157,157,157,157,157,157,157,157,157,157,157,157,157,157,157,157,157,157,157,157,157,157,157,157,157,157,157,157,157,157,157,157,157,157,157,157,157,157,157,157,157,157,157,157,157,157,157,157,157,157,157,157,157,157,157,157,157,157,157,157,157,157,157,157,157,157,157,157,157,157,157,157,157,157,157,157,157,157,157,157,157,157,157,157,157,157,157,157,157,157,157,157,157,157,157,157,157,157,157,157,157,157,157,157,157,157,157,157,157,157,157,157,157,157,157,157,157,157,157,157,157,157,157,157,157,157,157,157,157,157,157,157,157,157,157,157,157,157,157,157,157,157,157,157,157,157,157,157,157,157,157,157,157,157,157,157,157,157,157,157,157,157,157,157,157,157,157,157,157,157,157,157,157,157,157,157,157,157,157,157,157,157,157,157,
157,157,157,157,157,157,157,157,157,157,157,157,157,157,157,157,157,157,157,157,157,157,157,157,157,157,157,157,157,157,157,157,157,157,157,157,157,157,157,157,157,157,157,157,157,157,157,157,157,157,157,157,157,157,157,157,157,157,157,157,157,157,157,157,157,157,157,157,157,157,157,157,157,157,157,157,157,157,157,157,157,157,157,157,157,157,157,157,157,157,157,157,157,157,157,157,157,157,157,157,157,157,157,157,157,157,157,157,157,157,157,157,157,157,157,157,157,157,157,157,157,157,157,157,157,157,157,157,157,157,157,157,157,157,157,157,157,157,157,157,157,157,157,157,157,157,157,157,157,157,157,157,157,157,157,157,157,157,157,157,157,157,157,157,157,157,157,157,157,157,157,157,157,157,157,157,157,157,157,157,157,157,157,157,157,157,157,157,157,157,157,157,157,157,157,157,157,157,157,157,157,157,157,157,157,157,157,157,157,157,157,157,157,157,157,157,157,157,157,157,157,157,157,157,157,157,157,157,157,157,157,157,157,157,157,157,157,157,157,157,157,157,157,157,157,157,157,157,157,157,157,157,157,157,157,157,157,157,157,157,157,157,157,157,157,157,157,157,157,157,157,157,157,157,157,157,157,157,157,157,157,157,157,157,157,157,157,157,157,157,157,157,157,157,157,157,157,157,157,157,157,157,157,157,157,157,157,157,157,157,157,157,157,157,157,157,157,157,157,157,157,157,157,157,157,157,157,157,157,157,157,157,157,157,157,157,157,157,157,157,157,157,157,157,157,157,157,157,157,157,157,157,157,157,157,157,157,157,157,157,157,157,157,157,157,157,157,157,157,157,157,157,157,157,157,157,157,157,157,157,157,157,157,157,157,157,157,157,157,157,157,157,157,157,157,157,157,157,157,157,
440,441,442,440,440,440,440,440,440,440,441,442,440,440,440,440,440,440,440,440,440,440,440,440,440,440,440,440,440,440,440,440,440,440,440,440,440,440,440,440,440,440,440,440,441,442,440,440,440,440,440,440,440,441,442,440,440,440,440,440,440,441,442,440,440,440,440,440,440,441,442,440,440,440,440,440,440,441,442,440,440,440,440,440,440,441,442,440,440,440,440,440,440,441,442,440,440,441,442,440,440,440,440,440,440,441,442,440,440,440,440,440,440,441,442,440,440,440,440,440,440,441,442,440,440,440,440,440,440,441,442,440,440,440,440,440,440,441,442,440,440,441,442,440,440,440,440,440,440,441,442,440,440,440,440,440,440,441,442,440,440,440,440,440,440,441,442,440,440,440,441,442,440,440,440,440,440,440,441,442,440,440,440,440,440,440,441,442,440,440,440,440,440,440,440,440,440,440,440,441,442,440,440,440,440,440,440,441,442,440,440,440,440,440,440,441,442,440,440,441,442,440,440,440,440,440,440,441,442,440,440,440,440,440,440,441,442,440,440,440,440,440,440,441,442,440,440,440,441,442,440,440,440,440,440,440,441,442,440,440,440,440,440,440,441,442,440,440,440,440,440,440,441,442,440,440,440,440,440,440,440,440,440,441,442,440,440,440,440,440,440,441,442,440,440,440,440,440,440,441,442,440,440,441,442,440,440,440,440,440,440,441,442,440,440,440,440,440,440,441,442,440,440,440,440,440,440,441,442,440,440,440,441,442,440,440,440,440,440,440,441,442,440,440,440,440,440,440,441,442,440,440,440,440,440,440,441,442,440,440,440,440,440,440,440,440,440,441,442,440,440,440,440,440,440,441,442,440,440,440,440,440,440,441,442,440,440,441,442,440,440,440,440,440,440,441,442,440,440,440,
629,629,627,627,627,627,627,628,629,627,627,627,628,627,627,627,629,627,627,627,627,627,627,627,627,627,627,627,627,627,627,627,627,627,627,627,628,629,629,629,629,629,628,628,628,629,629,629,629,629,629,628,628,628,629,629,629,629,629,628,628,628,629,629,629,629,629,628,628,628,629,629,629,629,629,628,628,628,629,629,629,629,629,628,628,628,629,629,629,629,629,628,628,628,629,628,628,628,629,629,629,629,629,628,628,628,629,629,629,629,629,628,628,628,629,629,629,629,629,628,628,628,629,629,629,629,629,628,628,628,629,629,629,629,629,628,628,628,629,628,628,628,629,629,629,629,629,628,628,628,629,629,629,629,629,628,628,628,629,629,629,629,629,628,628,628,629,629,628,628,628,629,629,629,629,629,628,628,628,629,629,629,629,629,628,628,628,629,629,629,629,629,628,628,629,629,629,628,628,628,629,629,629,629,629,628,628,628,629,629,629,629,629,628,628,628,629,628,628,628,629,629,629,629,629,628,628,628,629,629,629,629,629,628,628,628,629,629,629,629,629,628,628,628,629,629,628,628,628,629,629,629,629,629,628,628,628,629,629,629,629,629,628,628,628,629,629,629,629,629,628,628,628,629,629,629,629,629,629,629,629,628,628,628,629,629,629,629,629,628,628,628,629,629,629,629,629,628,628,628,629,628,628,628,629,629,629,629,629,628,628,628,629,629,629,629,629,628,628,628,629,629,629,629,629,628,628,628,629,629,628,628,628,629,629,629,629,629,628,628,628,629,629,629,629,629,628,628,628,629,629,629,629,629,628,628,628,629,629,629,629,629,629,629,629,628,628,628,629,629,629,629,629,628,628,628,629,629,629,629,629,628,628,628,629,628,628,628,629,629,629,629,629,628,628,628,629,629,629,629,
1068,1068,1068,1068,1068,1068,1068,1068,1068,1068,1068,1068,1068,1068,1068,1068,1068,1068,1068,1068,1068,1068,1068,1068,1068,1068,1068,1068,1068,1068,1068,1068,1068,1068,1068,1068,1068,1068,1068,1068,1068,1068,1068,1069,1070,1071,1068,1068,1068,1068,1068,1068,1068,1068,1068,1068,1068,1068,1068,1068,1068,1068,1068,1068,1068,1068,1068,1068,1068,1068,1068,1068,1068,1068,1068,1068,1068,1068,1068,1068,1068,1068,1068,1068,1068,1068,1068,1068,1068,1068,1068,1068,1068,1068,1068,1068,1068,1068,1068,1068,1068,1068,1068,1068,1068,1068,1068,1068,1068,1068,1068,1068,1068,1068,1068,1068,1068,1068,1068,1068,1068,1068,1068,1068,1068,1068,1068,1068,1068,1068,1068,1068,1068,1068,1068,1068,1068,1068,1068,1068,1068,1068,1068,1068,1068,1068,1068,1068,1068,1068,1068,1068,1068,1068,1068,1068,1068,1068,1068,1068,1068,1068,1068,1068,1068,1068,1068,1068,1068,1068,1068,1068,1068,1068,1068,1068,1068,1068,1068,1068,1068,1068,1068,1068,1068,1068,1068,1068,1068,1068,1068,1068,1068,1068,1068,1068,1068,1068,1068,1068,1068,1068,1068,1068,1068,1068,1068,1068,1068,1068,1068,1068,1068,1068,1068,1068,1068,1068,1068,1068,1068,1068,1068,1068,1068,1068,1068,1068,1068,1068,1068,1068,1068,1068,1068,1068,1068,1068,1068,1068,1068,1068,1068,1068,1068,1068,1068,1068,1068,1068,1068,1068,1068,1068,1068,1068,1068,1068,1068,1068,1068,1068,1068,1068,1068,1068,1068,1068,1068,1068,1068,1068,1068,1068,1068,1068,1068,1068,1068,1068,1068,1068,1068,1068,1068,1068,1068,1068,1068,1068,1068,1068,1068,1068,1068,1068,1068,1068,1068,1068,1068,1068,1068,1068,1068,1068,1068,1068,1068,1068,1068,1068,1068,1068,1068,1068,1068,1068,1068,1068,1068,1068,1068,1068,1068,1068,1068,1068,1068,1068,1068,1068,1068,1068,1068,1068,1068,1068,1068,1068,1068,1068,1068,1068,1068,1068,1068,1068,1068,1068,1068,1068,1068,1068,1068,1068,1068,1068,1068,1068,1068,1068,1068,1068,1068,1068,1068,1068,1068,1068,1068,1068,1068,1068,1068,1068,1068,1068,1068,1068,1068,1068,1068,1068,1068,1068,1068,1068,1068,1068,1068,1068,1068,1068,1068,1068,1068,1068,1068,1068,
627,627,627,627,627,628,629,627,627,627,628,627,1069,1070,1071,627,627,627,627,627,627,627,627,627,627,627,627,627,627,627,627,627,627,627,628,629,629,629,629,629,627,628,628,628,628,629,629,629,629,627,628,628,628,628,629,629,629,627,628,628,628,628,629,629,629,627,628,628,628,628,629,629,629,627,628,628,628,628,629,629,629,627,628,628,628,628,629,629,629,627,628,628,628,628,629,628,628,628,629,629,629,627,628,628,628,628,629,629,629,627,628,628,628,628,629,629,629,627,628,628,628,628,629,629,629,627,628,628,628,628,629,629,629,627,628,628,628,628,629,628,628,628,629,629,629,627,628,628,628,628,629,629,629,627,628,628,628,628,629,629,629,627,628,628,628,628,629,629,628,628,628,629,629,629,627,628,628,628,628,629,629,629,627,628,628,628,628,629,629,629,627,628,628,628,629,627,628,628,628,628,629,629,629,627,628,628,628,628,629,629,629,627,628,628,628,628,629,628,628,628,629,629,629,627,628,628,628,628,629,629,629,627,628,628,628,628,629,629,629,627,628,628,628,628,629,629,628,628,628,629,629,629,627,628,628,628,628,629,629,629,627,628,628,628,628,629,629,629,627,628,628,628,628,629,629,629,627,628,629,627,628,628,628,628,629,629,629,627,628,628,628,628,629,629,629,627,628,628,628,628,629,628,628,628,629,629,629,627,628,628,628,628,629,629,629,627,628,628,628,628,629,629,629,627,628,628,628,628,629,629,628,628,628,629,629,629,627,628,628,628,628,629,629,629,627,628,628,628,628,629,629,629,627,628,628,628,628,629,629,629,627,628,629,627,628,628,628,628,629,629,629,627,628,628,628,628,629,629,629,627,628,628,628,628,629,628,628,628,629,629,629,627,628,628,628,628,629,629,629,627,
627,628,627,627,627,627,627,627,628,627,627,627,627,627,627,627,627,627,627,627,627,627,627,629,629,627,628,629,629,629,627,627,627,627,627,627,627,627,627,627,627,627,627,627,627,627,627,627,627,627,627,627,627,627,627,627,627,627,627,627,627,627,627,627,627,627,627,627,627,627,627,627,627,627,627,627,627,627,627,627,627,627,627,627,627,627,627,627,627,627,627,627,627,627,627,627,627,627,627,627,627,627,627,627,627,627,627,627,627,627,627,627,627,627,627,627,627,627,627,627,627,627,627,627,627,627,627,627,627,627,627,627,627,627,627,627,627,627,627,627,627,627,627,627,627,627,627,627,627,627,627,627,627,627,627,627,627,627,627,627,627,627,627,627,627,627,627,627,627,627,627,627,627,627,627,627,627,627,627,627,627,627,627,627,627,627,627,627,627,627,627,627,627,627,627,627,627,627,627,627,627,627,627,627,627,627,627,627,627,627,627,627,627,627,627,627,627,627,627,627,627,627,627,627,627,627,627,627,627,627,627,627,627,627,627,627,627,627,627,627,627,627,627,627,627,627,627,627,627,627,627,627,627,627,627,627,627,627,627,627,627,627,627,627,627,627,627,627,627,627,627,627,627,627,627,627,627,627,627,627,627,627,627,627,627,627,627,627,627,627,627,627,627,627,627,627,627,627,627,627,627,627,627,627,627,627,627,627,627,627,627,627,627,627,627,627,627,627,627,627,627,627,627,627,627,627,627,627,627,627,627,627,627,627,627,627,627,627,627,627,627,627,627,627,627,627,627,627,627,627,627,627,627,627,627,627,627,627,627,627,627,627,627,627,627,627,627,627,627,627,627,627,627,627,627,627,627,627,627,627,627,627,627,627,627,627,627,627,627,627,627,627,627,627,627,627,627,627,627,627,
627,628,627,627,627,628,629,629,627,628,629,629,629,629,629,629,629,629,629,629,629,627,627,627,627,627,627,627,627,627,627,627,627,627,627,628,629,627,628,629,629,629,629,629,629,629,627,628,629,629,629,629,629,629,629,628,629,629,629,629,629,629,629,628,629,629,629,629,629,629,629,628,629,629,629,629,629,629,629,628,629,629,629,629,629,629,629,628,629,629,629,629,629,629,629,629,629,629,629,628,629,629,629,629,629,629,629,628,629,629,629,629,629,629,629,628,629,629,629,629,629,629,629,628,629,629,629,629,629,629,629,628,629,629,629,629,629,629,629,629,629,629,629,628,629,629,629,629,629,629,629,628,629,629,629,629,629,629,629,628,629,629,629,629,629,629,629,628,629,629,629,629,628,629,629,629,629,629,629,629,628,629,629,629,629,629,629,629,628,629,629,629,629,629,629,629,629,629,629,629,629,628,629,629,629,629,629,629,629,628,629,629,629,629,629,629,629,629,629,629,629,628,629,629,629,629,629,629,629,628,629,629,629,629,629,629,629,628,629,629,629,629,629,629,629,628,629,629,629,629,628,629,629,629,629,629,629,629,628,629,629,629,629,629,629,629,628,629,629,629,629,629,629,629,628,629,629,629,629,629,629,629,629,629,629,628,629,629,629,629,629,629,629,628,629,629,629,629,629,629,629,629,629,629,629,628,629,629,629,629,629,629,629,628,629,629,629,629,629,629,629,628,629,629,629,629,629,629,629,628,629,629,629,629,628,629,629,629,629,629,629,629,628,629,629,629,629,629,629,629,628,629,629,629,629,629,629,629,628,629,629,629,629,629,629,629,629,629,629,628,629,629,629,629,629,629,629,628,629,629,629,629,629,629,629,629,629,629,629,628,629,629,629,629,629,629,629,628,629,629,
627,628,629,627,628,629,629,627,627,627,627,627,627,627,627,627,627,627,627,627,627,627,627,629,629,627,627,628,629,629,627,627,627,627,627,627,627,627,627,627,627,627,627,627,627,628,627,627,627,627,627,627,627,627,628,627,627,627,627,627,627,627,628,627,627,627,627,627,627,627,628,627,627,627,627,627,627,627,628,627,627,627,627,627,627,627,628,627,627,627,627,627,627,627,628,627,627,627,628,627,627,627,627,627,627,627,628,627,627,627,627,627,627,627,628,627,627,627,627,627,627,627,628,627,627,627,627,627,627,627,628,627,627,627,627,627,627,627,628,627,627,627,628,627,627,627,627,627,627,627,628,627,627,627,627,627,627,627,628,627,627,627,627,627,627,627,628,627,627,627,627,628,627,627,627,627,627,627,627,628,627,627,627,627,627,627,627,628,627,627,627,627,627,627,627,627,627,627,627,627,628,627,627,627,627,627,627,627,628,627,627,627,627,627,627,627,628,627,627,627,628,627,627,627,627,627,627,627,628,627,627,627,627,627,627,627,628,627,627,627,627,627,627,627,628,627,627,627,627,628,627,627,627,627,627,627,627,628,627,627,627,627,627,627,627,628,627,627,627,627,627,627,627,628,627,627,627,627,627,627,627,627,627,627,628,627,627,627,627,627,627,627,628,627,627,627,627,627,627,627,628,627,627,627,628,627,627,627,627,627,627,627,628,627,627,627,627,627,627,627,628,627,627,627,627,627,627,627,628,627,627,627,627,628,627,627,627,627,627,627,627,628,627,627,627,627,627,627,627,628,627,627,627,627,627,627,627,628,627,627,627,627,627,627,627,627,627,627,628,627,627,627,627,627,627,627,628,627,627,627,627,627,627,627,628,627,627,627,628,627,627,627,627,627,627,627,628,627,627,627
</data>
 </layer>
 <objectgroup id="2" name="Object Layer 1">
  <object id="1" name="ENEMY_LAMP" type="EL" x="131" y="95">
   <point/>
  </object>
 </objectgroup>
</map>
