<?xml version="1.0" encoding="UTF-8"?>
<map version="1.10" tiledversion="1.11.2" orientation="orthogonal" renderorder="right-down" width="240" height="25" tilewidth="8" tileheight="8" infinite="0" nextlayerid="3" nextobjectid="28">
 <tileset firstgid="1" source="tiles.tsx"/>
 <layer id="1" name="Tile Layer 1" width="240" height="25">
  <data encoding="csv">
1080,1080,1080,1080,1080,1080,1080,1080,1080,1080,1080,1080,1080,1080,1080,1080,1080,1080,1080,1080,1080,1080,1080,1080,1080,1080,1080,1080,1080,1080,1080,1080,1080,1080,1080,1080,1080,1080,1080,1080,1080,1080,1080,1080,1080,1080,1080,1080,1080,1080,1080,1080,1080,1080,1080,1080,1080,1080,1080,1080,1080,1080,1080,1080,1080,1080,1080,1080,1080,1080,1080,1080,1080,1080,1080,1080,1080,1080,1080,1080,1080,1080,1080,1080,1080,1080,1080,1080,1080,1080,1080,1080,1080,1080,1080,1080,1080,1080,1080,1080,1080,1080,1080,1080,1080,1080,1080,1080,1080,1080,1080,1080,1080,1080,1080,1080,1080,1080,1080,1080,1080,1080,1080,1080,1080,1080,1080,1080,1080,1080,1080,1080,1080,1080,1080,1080,1080,1080,1080,1080,1080,1080,1080,1080,1080,1080,1080,1080,1080,1080,1080,1080,1080,1080,1080,1080,1080,1080,1080,1080,1080,1080,1080,1080,1080,1080,1080,1080,1080,1080,1080,1080,1080,1080,1080,1080,1080,1080,1080,1080,1080,1080,1080,1080,1080,1080,1080,1080,1080,1080,1080,1080,1080,1080,1080,1080,1080,1080,1080,1080,1080,1080,1080,1080,1080,1080,1080,1080,1080,1080,1080,1080,1080,1080,1080,1080,1080,1080,1080,1080,1080,1080,1080,1080,1080,1080,1080,1080,1080,1080,1080,1080,1080,1080,1080,1080,1080,1080,1080,1080,
40,40,40,40,40,1612,1613,1613,1614,40,40,40,40,40,40,40,40,1612,1613,1613,1614,40,40,40,40,40,40,40,40,40,40,1612,1613,1613,1614,40,40,40,40,40,1612,1613,1613,1614,40,40,40,40,40,40,40,40,1612,1613,1613,1614,40,40,40,40,40,40,40,40,40,40,1612,1613,1613,1614,40,40,40,40,40,1612,1613,1613,1614,40,40,40,40,40,40,40,40,1612,1613,1613,40,40,40,40,40,40,1612,1613,1613,1614,40,40,40,40,40,40,40,40,40,40,1612,1613,1613,1614,40,40,40,40,40,1612,1613,1613,1614,40,40,40,40,40,1759,1761,1762,1612,1613,1613,1614,40,40,40,40,40,40,40,40,40,1612,1613,1613,1614,40,40,40,40,40,1612,1613,1613,1614,40,40,40,40,1612,1613,1613,1614,40,40,40,40,1612,1613,1613,1761,1762,40,40,40,40,1612,1613,1613,1614,40,40,40,40,40,40,40,40,1612,1613,1613,1614,40,40,40,40,40,40,40,40,1612,1613,1613,1614,40,40,40,40,40,40,40,1612,1613,1613,1614,40,40,40,40,40,40,40,40,1612,1613,1613,1614,40,40,40,40,40,1612,1613,1613,1614,40,40,
40,40,40,40,40,40,40,40,40,40,40,40,40,40,40,40,40,40,40,40,40,40,40,40,40,40,40,40,40,40,40,40,40,40,40,40,40,40,1624,1625,1624,1625,1626,40,40,40,40,40,40,40,40,40,40,40,40,40,40,40,40,40,40,40,40,40,40,40,40,40,40,40,40,40,40,40,40,40,40,40,40,40,40,40,40,40,40,40,40,40,40,40,40,40,40,40,40,40,40,40,40,40,40,40,40,40,40,40,40,40,40,40,40,40,40,40,40,40,40,40,40,40,40,40,1624,1625,1624,1625,40,40,1791,1761,1762,40,40,40,40,40,40,40,40,40,40,40,40,40,40,40,40,40,40,40,40,40,40,40,40,40,1624,1625,40,40,40,40,40,40,1624,1625,40,40,40,40,40,40,1761,1762,1711,1711,1711,1711,1711,1711,1711,1711,1711,1711,1711,1711,1711,1711,1711,1711,1711,1711,1711,1711,1763,1764,1765,1711,1711,1711,1711,1711,1711,1711,1711,1711,1711,1763,1764,1765,1711,1711,1711,1711,1711,1711,1711,1711,1711,1711,1711,1711,1711,1711,1711,1711,1711,1711,1711,1711,1711,1711,1711,1711,1711,1711,1711,1711,1761,1762,
1692,1693,1694,1695,1692,1693,1694,1695,1692,1693,1694,1695,1692,1693,1694,1695,40,40,40,40,40,40,40,40,40,40,40,40,40,40,40,40,40,40,40,40,40,40,1656,1657,1656,1657,1658,40,40,40,1692,1693,1694,1695,1692,1693,1694,1695,1692,1693,1694,1695,1692,1693,1694,1695,1694,1695,1692,1693,1694,1695,1692,1693,1694,1695,1694,1695,1692,1693,1694,1695,1692,1693,1694,1695,1695,1692,1693,1694,1695,1695,1692,1693,1692,1693,1694,1695,1692,1693,1694,1695,1692,1693,1694,1695,1692,1693,1694,1695,1694,1695,1692,1693,1694,1695,1692,1693,1694,40,40,40,40,40,40,40,1656,1657,1656,1657,1695,1692,1823,1761,1762,1695,1692,1693,1694,1695,1692,1693,1694,1695,1694,1695,1692,1693,1694,1695,1692,1693,1694,40,40,40,40,40,40,40,1656,1657,40,40,40,40,40,40,1656,1657,40,40,40,40,40,40,1761,1762,1711,1711,1711,1711,1711,1711,1711,1711,1711,1711,1711,1711,1711,1711,1711,1711,1711,1711,1711,1711,1795,1796,1797,1711,1711,1711,1711,1711,1711,1711,1711,1711,1711,1795,1796,1797,1711,1711,1711,1711,1711,1711,1711,1711,1711,1711,1711,1711,1711,1711,1711,1711,1711,1711,1711,1711,1711,1711,1711,1711,1711,1711,1711,1711,1761,1762,
1724,1725,1726,1727,1724,1725,1726,1727,1724,1725,1726,1727,1724,1725,1726,1727,40,40,40,40,40,40,40,40,40,40,40,40,40,40,40,40,40,40,40,40,40,40,1624,1625,1624,1625,1626,40,40,40,1724,1725,1726,1727,1724,1725,1726,1727,1724,1725,1726,1727,1724,1725,1726,1727,1726,1727,1724,1725,1726,1727,1724,1725,1726,1727,1726,1727,1724,1725,1726,1727,1724,1725,1726,1727,1727,1724,1725,1726,1727,1727,1724,1725,1724,1725,1726,1727,1724,1725,1726,1727,1724,1725,1726,1727,1724,1725,1726,1727,1726,1727,1724,1725,1726,1727,1724,1725,1726,40,40,40,40,40,40,40,1624,1625,1624,1625,1727,1724,1790,1761,1762,1727,1724,1725,1726,1727,1724,1725,1726,1727,1726,1727,1724,1725,1726,1727,1724,1725,1726,40,40,40,40,40,40,40,1624,1625,40,40,40,40,40,40,1624,1625,40,40,40,40,40,40,1761,1762,1711,1711,1702,1703,1711,1711,1702,1703,1711,1711,1702,1703,1711,1711,1702,1703,1711,1711,1702,1703,1766,1767,1768,1711,1711,1702,1703,1711,1711,1702,1703,1711,1711,1766,1767,1768,1711,1711,1702,1703,1711,1711,1702,1703,1711,1711,1702,1703,1711,1711,1702,1703,1711,1711,1702,1703,1711,1711,1702,1703,1711,1711,1702,1703,1761,1762,
1752,1753,1754,1755,1752,1753,1754,1755,1752,1753,1754,1755,1752,1753,1754,1755,40,40,1619,1620,1621,1622,1623,40,40,1619,1620,1621,1622,1623,40,40,1619,1620,1621,1622,1623,40,1656,1657,1656,1657,1658,40,40,40,1752,1753,1754,1755,1752,1753,1754,1755,1752,1753,1754,1755,1752,1753,1754,1755,1754,1755,1752,1753,1754,1755,1752,1753,1754,1755,1754,1755,1752,1753,1754,1755,1752,1753,1754,1755,1755,1752,1753,1754,1755,1755,1752,1753,1752,1753,1754,1755,1752,1753,1754,1755,1752,1753,1754,1755,1752,1753,1754,1755,1754,1755,1752,1753,1754,1755,1752,1753,1754,40,1619,1620,1621,1622,1623,40,1656,1657,1656,1657,1755,1752,1822,1761,1762,1755,1752,1753,1754,1755,1752,1753,1754,1755,1754,1755,1752,1753,1754,1755,1752,1753,1754,40,1619,1620,1621,1622,1623,40,1656,1657,1619,1620,1621,1622,1623,40,1656,1657,1619,1620,1621,1622,1623,40,1761,1762,1711,1711,1734,1735,1711,1711,1734,1735,1711,1711,1734,1735,1711,1711,1734,1735,1711,1711,1734,1735,1711,1711,1711,1711,1711,1734,1735,1711,1711,1734,1735,1711,1711,1711,1711,1711,1711,1711,1734,1735,1711,1711,1734,1735,1711,1711,1734,1735,1711,1711,1734,1735,1711,1711,1734,1735,1711,1711,1734,1735,1711,1711,1734,1735,1761,1762,
1784,1785,1786,1787,1784,1785,1786,1787,1784,1785,1786,1787,1784,1785,1786,1787,40,1650,1651,1652,1653,1654,1655,40,1650,1651,1652,1653,1654,1655,40,1650,1651,1652,1653,1654,1655,40,1624,1625,1624,1625,1626,40,40,40,1784,1785,1786,1787,1784,1785,1786,1787,1784,1785,1786,1787,1784,1785,1786,1787,1786,1787,1784,1785,1786,1787,1784,1785,1786,1787,1786,1787,1784,1785,1786,1787,1784,1785,1786,1787,1787,1784,1785,1786,1787,1787,1784,1785,1784,1785,1786,1787,1784,1785,1786,1787,1784,1785,1786,1787,1784,1785,1786,1787,1786,1787,1784,1785,1786,1787,1784,1785,1786,1650,1651,1652,1653,1654,1655,40,1624,1625,1624,1625,1787,1784,40,1761,1762,1787,1784,1785,1786,1787,1784,1785,1786,1787,1786,1787,1784,1785,1786,1787,1784,1785,1786,1650,1651,1652,1653,1654,1655,40,1624,1625,1651,1652,1653,1654,1655,40,1624,1625,1651,1652,1653,1654,1655,40,1761,1762,1711,1711,1711,1711,1711,1711,1711,1711,1711,1711,1711,1711,1711,1711,1711,1711,1711,1711,1711,1711,1711,1711,1711,1711,1711,1711,1711,1711,1711,1711,1711,1711,1711,1711,1711,1711,1711,1711,1711,1711,1711,1711,1711,1711,1711,1711,1711,1711,1711,1711,1711,1711,1711,1711,1711,1711,1711,1711,1711,1711,1711,1711,1711,1711,1761,1762,
1816,1817,1818,1819,1816,1817,1818,1819,1816,1817,1818,1819,1816,1817,1818,1819,40,1682,1683,1684,1685,1686,1687,40,1682,1683,1684,1685,1686,1687,40,1682,1683,1684,1685,1686,1687,40,1656,1657,1656,1657,1658,40,40,40,1816,1817,1818,1819,1816,1817,1818,1819,1816,1817,1818,1819,1816,1817,1818,1819,1818,1819,1816,1817,1818,1819,1816,1817,1818,1819,1818,1819,1816,1817,1818,1819,1816,1817,1818,1819,1819,1816,1817,1818,1819,1819,1816,1817,1816,1817,1818,1819,1816,1817,1818,1819,1816,1817,1818,1819,1816,1817,1818,1819,1818,1819,1816,1817,1818,1819,1816,1817,1818,1682,1683,1684,1685,1686,1687,40,1656,1657,1656,1657,1819,1816,40,1761,1762,1819,1816,1817,1818,1819,1816,1817,1818,1819,1818,1819,1816,1817,1818,1819,1816,1817,1818,1682,1683,1684,1685,1686,1687,40,1656,1657,1683,1684,1685,1686,1687,40,1656,1657,1683,1684,1685,1686,1687,40,1761,1762,1711,1711,1711,1711,1711,1711,1711,1711,1711,1711,1711,1711,1711,1711,1711,1711,1711,1711,1711,1711,1711,1711,1711,1711,1711,1711,1711,1711,1711,1711,1711,1711,1711,1711,1711,1711,1711,1711,1711,1711,1711,1711,1711,1711,1711,1711,1711,1711,1711,1711,1711,1711,1711,1711,1711,1711,1711,1711,1711,1711,1711,1711,1711,1711,1761,1762,
1688,1689,1690,1691,1627,1628,1627,1628,1627,1628,1627,1628,1627,1628,1627,1628,40,1714,1715,1716,1717,1718,1719,40,1714,1715,1716,1717,1718,1719,40,1714,1715,1716,1717,1718,1719,40,1624,1625,1624,1625,1626,40,40,40,1688,1689,1690,1691,1627,1628,1627,1628,1627,1628,1627,1628,1627,1628,1627,1628,1627,1628,1627,1628,1627,1628,1627,1628,1627,1628,1627,1628,1627,1628,1627,1628,1627,1628,1627,1628,1627,1628,1627,1628,1629,1630,1631,1632,1688,1689,1690,1691,1627,1628,1627,1628,1627,1628,1627,1628,1627,1628,1627,1628,1627,1628,1627,1628,1627,1628,1627,1628,1627,1714,1715,1716,1717,1718,1719,40,1624,1625,1624,1625,1627,1628,1628,1761,1762,1630,1631,1632,1627,1628,1627,1628,1627,1628,1627,1628,1627,1628,1627,1628,1627,1628,1627,1714,1715,1716,1717,1718,1719,40,1624,1625,1715,1716,1717,1718,1719,40,1624,1625,1715,1716,1717,1718,1719,40,1761,1762,1711,1711,1711,1711,1711,1711,1711,1711,1711,1711,1711,1711,1711,1711,1711,1711,1711,1711,1711,1711,1711,1711,1711,1711,1711,1711,1711,1711,1711,1711,1711,1711,1711,1711,1711,1711,1711,1711,1711,1711,1711,1711,1711,1711,1711,1711,1711,1711,1711,1711,1711,1711,1711,1711,1711,1711,1711,1711,1711,1711,1711,1711,1711,1711,1761,1762,
1720,1721,1722,1723,1659,1660,1659,1660,1659,1660,1659,1660,1659,1660,1659,1660,40,1746,1747,1748,1749,1750,1751,40,1746,1747,1748,1749,1750,1751,40,1746,1747,1748,1749,1750,1751,40,1656,1657,1656,1657,1658,40,40,40,1720,1721,1722,1723,1659,1660,1659,1660,1659,1660,1659,1660,1659,1660,1659,1660,1659,1660,1659,1660,1659,1660,1659,1660,1659,1660,1659,1660,1659,1660,1659,1660,1659,1660,1659,1660,1659,1660,1659,1660,1661,1662,1663,1664,1720,1721,1722,1723,1659,1660,1659,1660,1659,1660,1659,1660,1659,1660,1659,1660,1659,1660,1659,1660,1659,1660,1659,1660,1659,1746,1747,1748,1749,1750,1751,40,1656,1657,1656,1657,1659,1660,1660,1761,1762,1662,1663,1664,1659,1660,1659,1660,1659,1660,1659,1660,1659,1660,1659,1660,1659,1660,1659,1746,1747,1748,1749,1750,1751,40,1656,1657,1747,1748,1749,1750,1751,40,1656,1657,1747,1748,1749,1750,1751,40,1761,1762,1711,1711,1711,1711,1711,1711,1711,1711,1711,1711,1711,1711,1711,1711,1711,1711,1711,1711,1711,1711,1711,1711,1711,1711,1711,1711,1711,1711,1711,1711,1711,1711,1711,1711,1711,1711,1711,1711,1711,1711,1711,1711,1711,1711,1711,1711,1711,1711,1711,1711,1711,1711,1711,1711,1711,1711,1711,1711,1711,1711,1711,1711,1711,1711,1761,1762,
1080,1080,1080,1080,1080,1080,1080,1080,1080,1080,1080,1080,1080,1080,1080,1080,1080,1080,1080,1080,1080,1080,1699,1700,1080,1080,1080,1080,1080,1080,1080,1080,1080,1080,1080,1080,1080,1080,1080,1080,1080,1080,1080,1699,1700,1080,1080,1080,1080,1080,1080,1080,1080,1080,1080,1080,1080,1080,1080,1080,1080,1080,1080,1080,1080,1080,1080,1080,1080,1080,1080,1080,1080,1080,1080,1080,1080,1080,1080,1080,1080,1080,1080,1080,1080,1080,1080,1080,1080,1080,1080,1080,1080,1080,1080,1080,1080,1080,1080,1080,1080,1080,1080,1080,1080,1080,1080,1080,1080,1080,1080,1080,1080,1080,1080,1080,1080,1080,1080,1080,1080,1080,1080,1080,1080,1080,1699,1700,1080,1080,1080,1080,1080,1080,1080,1080,1080,1080,1080,1080,1080,1080,1080,1080,1080,1080,1699,1700,1080,1080,1080,1080,1080,1080,1080,1080,1080,1080,1080,1080,1080,1080,1080,1080,1080,1080,1080,1080,1080,1080,1080,1080,1080,1080,1711,1711,1711,1711,1711,1711,1711,1711,1711,1711,1711,1711,1711,1711,1711,1711,1711,1711,1711,1711,1711,1711,1711,1711,1711,1711,1711,1711,1711,1711,1711,1711,1711,1711,1711,1711,1711,1711,1711,1711,1711,1711,1711,1711,1711,1711,1711,1711,1711,1711,1711,1711,1711,1711,1711,1711,1711,1711,1711,1711,1711,1711,1711,1711,1761,1762,
1756,1757,1758,1759,40,1612,1613,1613,1614,1756,1300,1301,1302,40,40,40,40,1612,1613,1613,1614,40,1699,1700,40,40,40,40,40,40,40,1612,1613,1613,1614,40,1761,1762,40,40,40,40,40,1699,1700,1756,1757,1758,1759,40,1612,1613,1613,1614,40,1756,1757,1758,1759,40,40,40,1612,1613,1613,1614,40,40,40,1756,1757,1758,1759,40,40,40,1612,1613,1613,1614,40,1756,1757,1758,1759,1761,1762,1612,1613,1613,1757,1758,1759,40,1612,1613,1613,1614,40,1756,1757,1758,1759,40,40,40,1612,1613,1613,1614,40,40,40,1756,1757,1758,1759,40,40,40,1612,1613,1613,1614,40,1756,1699,1700,1759,1756,1757,1612,1613,1613,1614,1758,1759,40,40,40,1612,1613,1613,1614,40,40,1699,1700,1757,1758,1759,40,40,40,1612,1613,1613,1614,1759,40,40,40,1612,1613,1613,1614,1759,40,40,40,1612,1613,1762,1762,1711,1711,1711,1711,1711,1711,1711,1711,1711,1711,1711,1711,1711,1711,1711,1711,1711,1711,1711,1711,1711,1711,1711,1711,1711,1711,1711,1711,1711,1711,1711,1711,1711,1711,1711,1711,1711,1711,1711,1711,1711,1711,1711,1711,1711,1711,1711,1711,1711,1711,1711,1711,1711,1711,1711,1711,1711,1711,1711,1711,1711,1711,1711,1711,1761,1762,
1788,1789,1790,1791,40,40,40,40,40,1788,1789,1790,1791,1759,40,40,1788,40,1788,40,40,40,1699,1700,40,1788,1788,1788,40,1756,1757,1758,1756,1757,1758,1759,1761,1762,40,40,40,40,40,1699,1700,1788,1789,1790,1791,40,40,40,40,40,40,1788,1789,1790,1791,40,40,40,40,40,40,40,40,40,40,1788,1789,1790,1791,40,40,40,40,40,40,40,40,1788,1789,1790,1791,1761,1762,40,40,40,1789,1790,1791,40,40,40,40,40,40,1788,1789,1790,1791,40,40,40,40,40,40,40,40,40,40,1788,1789,1790,1791,40,40,40,40,40,40,40,40,1788,1699,1700,1791,1788,1789,40,40,40,1789,1790,1791,40,40,40,40,40,40,40,40,40,1699,1700,1789,1790,1791,40,40,40,40,40,40,40,1791,40,40,40,40,40,40,40,1791,40,40,40,40,40,1762,1762,1711,1711,1711,1711,1711,1711,1711,1711,1711,1711,1711,1711,1711,1711,1711,1711,1711,1711,1711,1711,1711,1711,1711,1711,1711,1711,1711,1711,1711,1711,1711,1711,1711,1711,1711,1711,1711,1711,1711,1711,1711,1711,1711,1711,1711,1711,1711,1711,1711,1711,1711,1711,1711,1711,1711,1711,1711,1711,1711,1711,1711,1711,1711,1711,1761,1762,
1820,1821,1822,1823,1759,1756,1757,1758,1759,1820,1821,1822,1823,1791,40,40,1820,40,1820,40,40,40,1699,1700,40,1820,1820,1820,40,1788,1789,1790,1788,1789,1790,1791,1761,1762,40,40,40,40,40,1699,1700,1820,1821,1822,1823,1759,1756,1757,1758,1759,1756,1820,1821,1822,1823,1757,1758,1759,1756,1757,1758,1759,1756,1757,1758,1820,1821,1822,1823,1759,1756,1757,1758,1759,1756,1757,1758,1820,1821,1822,1823,1761,1762,1757,1758,1759,1821,1822,1823,1759,1756,1757,1758,1759,1756,1820,1821,1822,1823,1757,1758,1759,1756,1757,1758,1759,1756,1757,1758,1820,1821,1822,1823,1759,1756,1757,1758,1759,1756,1757,1758,1820,1699,1700,1823,1820,1821,1757,1758,1759,1821,1822,1823,1757,1758,1759,1756,1757,1758,1759,1756,1757,1699,1700,1821,1822,1823,1759,1756,1757,1758,1759,1756,1757,1823,1759,1756,1757,1758,1759,1756,1757,1823,1759,1756,1757,1758,1759,1762,1762,1711,1711,1711,1711,1711,1711,1711,1711,1711,1711,1711,1711,1711,1711,1711,1711,1711,1711,1711,1711,1711,1711,1711,1711,1711,1711,1770,1771,1772,1711,1711,1711,1711,1711,1711,1711,1711,1711,1711,1711,1711,1711,1711,1711,1711,1711,1711,1711,1711,1711,1711,1711,1711,1711,1711,1711,1711,1711,1711,1711,1711,1711,1711,1711,1761,1762,
1788,1789,1790,1791,1791,1788,1789,1790,1791,40,1820,1821,1822,1823,40,40,1624,1625,1624,1625,1626,40,1699,1700,40,456,457,458,459,1820,1821,1822,1820,1821,1822,1823,1761,1762,456,457,458,459,40,1699,1700,40,1788,1789,1790,1791,1788,1789,1790,1791,1788,1789,1790,1791,1788,1789,1790,1791,1788,1789,1790,1791,1788,1789,1790,1791,1788,1789,1790,1791,1788,1789,1790,1791,1788,1789,1790,1791,1788,1789,1790,1761,1762,1789,1790,1791,1788,1789,1790,1791,1788,1789,1790,1791,1788,1789,1790,1791,1788,1789,1790,1791,1788,1789,1790,1791,1788,1789,1790,1791,1788,1789,1790,1791,1788,1789,1790,1791,1788,1789,1790,1791,1699,1700,1790,1791,1788,1789,1790,1791,1790,1791,1788,1789,1790,1791,1788,1789,1790,1791,1788,1789,1699,1700,1788,1789,1790,1791,1788,1789,1790,1791,1788,1789,1790,1791,1788,1789,1790,1791,1788,1789,1790,1791,1788,1789,1790,1791,1762,1762,1711,1711,1711,1711,1711,1711,1711,1711,1711,1711,1711,1711,1711,2684356365,2684356333,2684356365,2684356333,1711,1711,1711,1711,1711,1711,1711,1711,1711,1802,1803,1804,1711,1711,1711,1711,1711,1711,1711,1711,3221227278,3221227277,3221227278,3221227277,1711,1711,1711,1711,1711,1711,1711,1711,1711,1711,1711,1711,1711,1711,1711,1711,1711,1711,1711,1711,1711,1711,1711,1761,1762,
1820,1821,1822,1823,1823,1820,1821,1822,1823,40,1619,1620,1621,1622,1623,40,1656,1657,1656,1657,1658,40,1699,1700,40,488,489,490,491,1752,1753,1754,1752,1753,1754,1755,1761,1762,488,489,490,491,40,1699,1700,40,1820,1821,1822,1823,1820,1821,1822,1823,1820,1821,1822,1823,1820,1821,1822,1823,1820,1821,1822,1823,1820,1821,1822,1823,1820,1821,1822,1823,1820,1821,1822,1823,1820,1821,1822,1823,1820,1821,1822,1761,1762,1821,1822,1823,1820,1821,1822,1823,1820,1821,1822,1823,1820,1821,1822,1823,1820,1821,1822,1823,1820,1821,1822,1823,1820,1821,1822,1823,1820,1821,1822,1823,1820,1821,1822,1823,1820,1821,1822,1823,1699,1700,1822,1619,1620,1621,1622,1623,1822,1823,1820,1821,1822,1823,1820,1821,1822,1823,1820,1821,1699,1700,1820,1821,1822,1823,1820,1821,1822,1823,1820,1821,1822,1823,1820,1821,1822,1823,1820,1821,1822,1823,1820,1821,1822,1823,1762,1762,1711,1711,1711,1711,1711,1711,1711,1711,1711,1711,1711,1711,1711,2684356366,2684356334,2684356366,2684356334,1711,1711,1711,1711,1711,1711,1711,1711,1711,1741,1742,1711,1711,1711,1711,1711,1711,1711,1711,1711,3221227246,3221227245,3221227246,3221227245,1711,1711,1711,1711,1711,1711,1711,1711,1711,1711,1711,1711,1711,1711,1711,1711,1711,1711,1711,1711,1711,1711,1711,1761,1762,
40,40,40,40,40,40,40,40,40,1650,1651,1652,1653,1654,1655,40,1624,1625,1624,1625,1626,40,1699,1700,40,520,521,522,523,1784,1785,1786,1784,1785,1786,1787,1761,1762,520,521,522,523,40,1699,1700,40,1624,1625,1624,1625,1624,1625,1624,1625,1624,1625,1626,40,40,40,40,40,40,40,40,40,40,40,40,40,40,40,40,40,40,40,40,40,40,40,40,40,40,1713,1714,1761,1762,40,40,40,1624,1625,1624,1625,1624,1625,1624,1625,1624,1625,1626,40,40,40,40,40,40,40,40,40,40,40,40,40,40,40,40,40,40,40,40,40,40,40,40,40,1699,1700,40,1651,1652,1653,1654,1655,1626,40,40,40,40,40,40,40,40,40,40,40,1699,1700,40,40,40,40,40,40,40,40,40,40,40,40,40,40,40,40,40,40,40,40,40,40,40,40,1762,1762,1711,1711,1711,1711,1711,1711,1711,1711,1711,1711,1711,1711,1711,2684356365,2684356333,2684356365,2684356333,1711,1711,1711,1711,1711,1711,1711,1711,1711,1741,1742,1711,1711,1711,1711,1711,1711,1711,1711,1711,3221227278,3221227277,3221227278,3221227277,1711,1711,1711,1711,1711,1711,1711,1711,1711,1711,1711,1711,1711,1711,1711,1711,1711,1711,1711,1711,1711,1711,1711,1761,1762,
40,40,40,40,40,40,40,40,40,1682,1683,1684,1685,1686,1687,40,1656,1657,1656,1657,1658,40,1699,1700,40,552,553,554,555,1816,1817,1818,1816,1817,1818,1819,1761,1762,552,553,554,555,40,1699,1700,40,1656,1657,1656,1657,1656,1657,1656,1657,1656,1657,1658,40,40,40,40,40,40,40,40,40,40,40,40,40,40,40,40,40,40,40,40,40,40,40,40,40,40,1745,1746,1761,1762,40,40,40,1656,1657,1656,1657,1656,1657,1656,1657,1656,1657,1658,40,40,40,40,40,40,40,40,40,40,40,40,40,40,40,40,40,40,40,40,40,40,40,40,40,1699,1700,40,1683,1684,1685,1686,1687,1658,40,40,40,40,40,40,40,40,40,40,40,1699,1700,40,40,40,40,40,40,40,40,40,40,40,40,40,40,40,40,40,40,40,40,40,40,40,40,1762,1762,1711,1711,1711,1711,1711,1711,1711,1711,1711,1711,1711,1711,1711,2684356366,2684356334,2684356366,2684356334,1711,1711,1711,1711,1711,1711,1711,1711,1711,1741,1742,1711,1711,1711,1711,1711,1711,1711,1711,1711,3221227246,3221227245,3221227246,3221227245,1711,1711,1711,1711,1711,1711,1711,1711,1711,1711,1711,1711,1711,1711,1711,1711,1711,1711,1711,1335,1335,1335,1335,1761,1762,
1688,1689,1690,1691,1627,1628,1627,1628,1691,1714,1715,1716,1717,1718,1719,40,1624,1625,1624,1625,1626,1629,1699,1700,1632,1627,1628,1627,1628,1627,1628,1627,1628,1627,1628,1627,1761,1762,1628,1627,1628,1627,1628,1699,1700,40,1624,1625,1624,1625,1624,1625,1624,1625,1624,1625,1626,1688,1689,1690,1691,1627,1628,1627,1628,1627,1628,1627,1628,1627,1628,1627,1628,1629,1630,1631,1632,1629,1630,1631,1632,1627,1628,1777,1778,1761,1762,1627,1628,1627,1624,1625,1624,1625,1624,1625,1624,1625,1624,1625,1626,1688,1689,1690,1691,1627,1628,1627,1628,1627,1628,1627,1628,1627,1628,1627,1628,1629,1630,1631,1632,1629,1630,1631,1632,1627,1699,1700,1628,1715,1716,1717,1718,1719,1626,1688,1689,1690,1691,1627,1628,1627,1628,1627,1628,1627,1699,1700,1628,1627,1628,1629,1630,1631,1632,1629,1630,1631,1628,1629,1630,1631,1632,1629,1630,1631,1628,1629,1630,1631,1632,1629,1762,1762,1711,1711,1711,1711,1711,1711,1711,1711,1711,1711,1711,1711,1711,2684356365,2684356333,2684356365,2684356333,1711,1711,1711,1711,1711,1711,1711,1711,1711,1741,1742,1711,1711,1711,1711,1711,1711,1711,1711,1711,3221227278,3221227277,3221227278,3221227277,1711,1711,1711,1711,1711,1711,1711,1711,1711,1711,1711,1711,1711,1711,1711,1711,1711,1711,1711,1367,1367,1367,1367,1761,1762,
1720,1721,1722,1723,1659,1660,1659,1660,1723,1746,1747,1748,1749,1750,1751,40,1656,1657,1656,1657,1658,1661,1699,1700,1664,1659,1660,1659,1660,1659,1660,1659,1660,1659,1660,1659,1761,1762,1660,1659,1660,1659,1660,1699,1700,40,1656,1657,1656,1657,1656,1657,1656,1657,1656,1657,1658,1720,1721,1722,1723,1659,1660,1659,1660,1659,1660,1659,1660,1659,1660,1659,1660,1661,1662,1663,1664,1661,1662,1663,1664,1659,1660,1809,1810,1761,1762,1659,1660,1659,1656,1657,1656,1657,1656,1657,1656,1657,1656,1657,1658,1720,1721,1722,1723,1659,1660,1659,1660,1659,1660,1659,1660,1659,1660,1659,1660,1661,1662,1663,1664,1661,1662,1663,1664,1659,1699,1700,1660,1747,1748,1749,1750,1751,1658,1720,1721,1722,1723,1659,1660,1659,1660,1659,1660,1659,1699,1700,1660,1659,1660,1661,1662,1663,1664,1661,1662,1663,1660,1661,1662,1663,1664,1661,1662,1663,1660,1661,1662,1663,1664,1661,1762,1762,1711,1711,1711,1711,1711,1711,1711,1711,1711,1711,1711,1711,1711,2684356366,2684356334,2684356366,2684356334,1711,1711,1711,1711,1711,1711,1711,1711,1711,1709,1710,1711,1711,1711,1711,1711,1711,1711,1711,1711,3221227246,3221227245,3221227246,3221227245,1711,1711,1711,1711,1711,1711,1711,1711,1711,1711,1711,1711,1711,1711,1711,1711,1711,1711,1711,1399,1399,1399,1399,1761,1762,
1080,1080,1080,1080,1080,1080,1080,1080,1080,1080,1080,1080,1080,1080,1080,1080,1080,1080,1080,1080,1080,1080,1080,1080,1080,1080,1080,1080,1080,1080,1080,1080,1080,1080,1080,1080,1080,1080,1080,1080,1080,1080,1080,1080,1080,1080,1080,1080,1080,1080,1080,1080,1080,1080,1080,1080,1080,1080,1080,1080,1080,1080,1080,1080,1080,1080,1080,1080,1080,1080,1080,1080,1080,1080,1080,1080,1080,1080,1080,1080,1080,1080,1080,1080,1080,1080,1080,1080,1080,1080,1080,1080,1080,1080,1080,1080,1080,1080,1080,1080,1080,1080,1080,1080,1080,1080,1080,1080,1080,1080,1080,1080,1080,1080,1080,1080,1080,1080,1080,1080,1080,1080,1080,1080,1080,1080,1080,1080,1080,1080,1080,1080,1080,1080,1080,1080,1080,1080,1080,1080,1080,1080,1080,1080,1080,1080,1080,1080,1080,1080,1080,1080,1080,1080,1080,1080,1080,1080,1080,1080,1080,1080,1080,1080,1080,1080,1080,1080,1080,1080,1080,1080,1080,1080,1080,1080,1080,1080,1080,1080,1080,1080,1080,1080,1080,1080,1080,1080,1080,1080,1080,1080,1080,1080,1080,1080,1080,1080,1080,1080,1080,1080,1080,1080,1080,1080,1080,1080,1080,1080,1080,1080,1080,1080,1080,1080,1080,1080,1080,1080,1080,1080,1080,1080,1080,1080,1080,1080,1080,1080,1080,1080,1080,1080,1080,1080,1080,1080,1080,1080,
1051,1052,1053,1050,1051,1052,1053,1050,1051,1051,1053,1050,1051,1052,1053,1050,1051,1052,1053,1050,1051,1051,1053,1050,1051,1052,1053,1050,1051,1052,1053,1050,1051,1053,1050,1051,1052,1053,1050,1051,1052,1053,1050,1051,1052,1053,1053,1050,1051,1052,1053,1050,1051,1052,1053,1050,1051,1052,1053,1050,1053,1050,1051,1052,1053,1050,1051,1052,1053,1050,1051,1053,1050,1051,1052,1053,1050,1051,1053,1050,1051,1052,1053,1050,1051,1053,1050,1051,1052,1053,1050,1051,1052,1050,1051,1052,1050,1051,1052,1050,1051,1052,1050,1051,1052,1050,1051,1052,1050,1051,1052,1050,1051,1052,1050,1051,1052,1050,1051,1052,1052,1050,1051,1052,1050,1051,1052,1050,1051,1052,1052,1050,1051,1052,1051,1052,1050,1051,1052,1050,1051,1052,1050,1051,1052,1050,1051,1052,1050,1051,1052,1050,1051,1052,1052,1050,1051,1052,1051,1052,1051,1052,1050,1051,1052,1050,1051,1052,1050,1051,1052,1050,1051,1052,1050,1051,1052,1050,1051,1052,1052,1050,1051,1052,1051,1052,1051,1052,1050,1051,1052,1050,1051,1052,1050,1051,1052,1050,1051,1052,1050,1051,1052,1050,1051,1052,1052,1050,1051,1051,1052,1051,1052,1050,1051,1051,1052,1051,1052,1050,1051,1052,1050,1051,1052,1050,1051,1052,1050,1051,1052,1050,1051,1052,1050,1051,1052,1052,1050,1051,
940,941,942,939,940,941,942,939,940,940,942,939,940,941,942,939,940,941,942,939,940,940,942,939,940,941,942,939,940,941,942,939,940,942,939,940,941,942,939,940,941,942,939,940,941,942,942,939,940,941,942,939,940,941,942,939,940,941,942,939,942,939,940,941,942,939,940,941,942,939,940,942,939,940,941,942,939,940,942,939,940,941,942,939,940,942,939,940,941,942,939,940,941,939,940,941,939,940,941,939,940,941,939,940,941,939,940,941,939,940,941,939,940,941,939,940,941,939,940,941,941,939,940,941,939,940,941,939,940,941,941,939,940,941,940,941,939,940,941,939,940,941,939,940,941,939,940,941,939,940,941,939,940,941,941,939,940,941,940,941,940,941,939,940,941,939,940,941,939,940,941,939,940,941,939,940,941,939,940,941,941,939,940,941,940,941,940,941,939,940,941,939,940,941,939,940,941,939,940,941,939,940,941,939,940,941,941,939,940,940,941,940,941,939,940,940,941,940,941,939,940,941,939,940,941,939,940,941,939,940,941,939,940,941,939,940,941,941,939,940,
972,973,974,971,972,973,974,971,972,972,974,971,972,973,974,971,972,973,974,971,972,972,974,971,972,973,974,971,972,973,974,971,972,974,971,972,973,974,971,972,973,974,971,972,973,974,974,971,972,973,974,971,972,973,974,971,972,973,974,971,974,971,972,973,974,971,972,973,974,971,972,974,971,972,973,974,971,972,974,971,972,973,974,971,972,974,971,972,973,974,971,972,973,971,972,973,971,972,973,971,972,973,971,972,973,971,972,973,971,972,973,971,972,973,971,972,973,971,972,973,973,971,972,973,971,972,973,971,972,973,973,971,972,973,972,973,971,972,973,971,972,973,971,972,973,971,972,973,971,972,973,971,972,973,973,971,972,973,972,973,972,973,971,972,973,971,972,973,971,972,973,971,972,973,971,972,973,971,972,973,973,971,972,973,972,973,972,973,971,972,973,971,972,973,971,972,973,971,972,973,971,972,973,971,972,973,973,971,972,972,973,972,973,971,972,972,973,972,973,971,972,973,971,972,973,971,972,973,971,972,973,971,972,973,971,972,973,973,971,972,
476,476,476,476,476,476,476,476,476,476,476,476,476,476,476,476,476,476,476,476,476,476,476,476,476,476,476,476,476,476,476,476,476,476,476,476,476,476,476,476,476,476,476,476,476,476,476,476,476,476,476,476,476,476,476,476,476,476,476,476,476,476,476,476,476,476,476,476,476,476,476,476,476,476,476,476,476,476,476,476,476,476,476,476,476,476,476,476,476,476,476,476,476,476,476,476,476,476,476,476,476,476,476,476,476,476,476,476,476,476,476,476,476,476,476,476,476,476,476,476,476,476,476,476,476,476,476,476,476,476,476,476,476,476,476,476,476,476,476,476,476,476,476,476,476,476,476,476,476,476,476,476,476,476,476,476,476,476,476,476,476,476,476,476,476,476,476,476,476,476,476,476,476,476,476,476,476,476,476,476,476,476,476,476,476,476,476,476,476,476,476,476,476,476,476,476,476,476,476,476,476,476,476,476,476,476,476,476,476,476,476,476,476,476,476,476,476,476,476,476,476,476,476,476,476,476,476,476,476,476,476,476,476,476,476,476,476,476,476,476
</data>
 </layer>
 <objectgroup id="2" name="Object Layer 1">
  <object id="25" name="TNT" type="O" x="571" y="160">
   <point/>
  </object>
  <object id="26" name="TNT" type="O" x="1028" y="79">
   <point/>
  </object>
  <object id="27" name="TNT" type="O" x="1119" y="81">
   <point/>
  </object>
 </objectgroup>
</map>
