<?xml version="1.0" encoding="UTF-8"?>
<map version="1.10" tiledversion="1.11.2" orientation="orthogonal" renderorder="right-down" width="68" height="25" tilewidth="8" tileheight="8" infinite="0" nextlayerid="3" nextobjectid="49">
 <tileset firstgid="1" source="tiles.tsx"/>
 <layer id="1" name="Tile Layer 1" width="68" height="25">
  <data encoding="csv">
1080,1080,1080,1080,1080,1080,1080,1080,1080,1080,1080,1080,1080,1080,1080,1080,1080,1080,1080,1080,1080,1080,1080,1080,1080,1080,1080,1080,1080,1080,1080,1080,1080,1080,1080,1080,1080,1080,1080,1080,1080,1080,1080,1080,1080,1080,1080,1080,1080,1080,1080,1080,1080,1080,1080,1080,1080,1080,1080,1080,1080,1080,1080,1080,1080,1080,1080,1080,
1761,1762,40,40,40,40,1612,1613,1613,1614,40,40,40,40,40,40,40,40,1612,1613,1613,1614,40,40,40,40,40,40,40,40,1612,1613,1613,1614,40,40,40,40,40,40,40,1612,1613,1613,1614,40,40,40,40,40,40,40,40,1612,1613,1613,1614,40,40,40,40,40,1612,1613,1613,1614,40,40,
1761,1762,1711,1711,1711,1711,1711,1711,1711,1711,1711,1711,1711,1711,1711,1711,1711,1711,1711,1711,1711,1711,1763,1764,1765,1711,1711,1711,1711,1711,1711,1711,1711,1711,1711,1763,1764,1765,1711,1711,1711,1711,1711,1711,1711,1711,1711,1711,1711,1711,1711,1711,1711,1711,1711,1711,1711,1711,1711,1711,1711,1711,1711,1711,1711,1711,1761,1762,
1761,1762,1711,1711,1711,1711,1711,1711,1711,1711,1711,1711,1711,1711,1711,1711,1711,1711,1711,1711,1711,1711,1795,1796,1797,1711,1711,1711,1711,1711,1711,1711,1711,1711,1711,1795,1796,1797,1711,1711,1711,1711,1711,1711,1711,1711,1711,1711,1711,1711,1711,1711,1711,1711,1711,1711,1711,1711,1711,1711,1711,1711,1711,1711,1711,1711,1761,1762,
1761,1762,1711,1711,1702,1703,1711,1711,1702,1703,1711,1711,1702,1703,1711,1711,1702,1703,1711,1711,1702,1703,1766,1767,1768,1711,1711,1702,1703,1711,1711,1702,1703,1711,1711,1766,1767,1768,1711,1711,1702,1703,1711,1711,1702,1703,1711,1711,1702,1703,1711,1711,1702,1703,1711,1711,1702,1703,1711,1711,1702,1703,1711,1711,1702,1703,1761,1762,
1761,1762,1711,1711,1734,1735,1711,1711,1734,1735,1711,1711,1734,1735,1711,1711,1734,1735,1711,1711,1734,1735,1711,1711,1711,1711,1711,1734,1735,1711,1711,1734,1735,1711,1711,1711,1711,1711,1711,1711,1734,1735,1711,1711,1734,1735,1711,1711,1734,1735,1711,1711,1734,1735,1711,1711,1734,1735,1711,1711,1734,1735,1711,1711,1734,1735,1761,1762,
1761,1762,1711,1711,1711,1711,1711,1711,1711,1711,1711,1711,1711,1711,1711,1711,1711,1711,1711,1711,1711,1711,1711,1711,1711,1711,1711,1711,1711,1711,1711,1711,1711,1711,1711,1711,1711,1711,1711,1711,1711,1711,1711,1711,1711,1711,1711,1711,1711,1711,1711,1711,1711,1711,1711,1711,1711,1711,1711,1711,1711,1711,1711,1711,1711,1711,1761,1762,
1761,1762,1711,1711,1711,1711,1711,1711,1711,1711,1711,1711,1711,1711,1711,1711,1711,1711,1711,1711,1711,1711,1711,1711,1711,1711,1711,1711,1711,1711,1711,1711,1711,1711,1711,1711,1711,1711,1711,1711,1711,1711,1711,1711,1711,1711,1711,1711,1711,1711,1711,1711,1711,1711,1711,1711,1711,1711,1711,1711,1711,1711,1711,1711,1711,1711,1761,1762,
1761,1762,1711,1711,1711,1711,1711,1711,1711,1711,1711,1711,1711,1711,1711,1711,1711,1711,1711,1711,1711,1711,1711,1711,1711,1711,1711,1711,1711,1711,1711,1711,1711,1711,1711,1711,1711,1711,1711,1711,1711,1711,1711,1711,1711,1711,1711,1711,1711,1711,1711,1711,1711,1711,1711,1711,1711,1711,1711,1711,1711,1711,1711,1711,1711,1711,1761,1762,
1761,1762,1711,1711,1711,1711,1711,1711,1711,1711,1711,1711,1711,1711,1711,1711,1711,1711,1711,1711,1711,1711,1711,1711,1711,1711,1711,1711,1711,1711,1711,1711,1711,1711,1711,1711,1711,1711,1711,1711,1711,1711,1711,1711,1711,1711,1711,1711,1711,1711,1711,1711,1711,1711,1711,1711,1711,1711,1711,1711,1711,1711,1711,1711,1711,1711,1761,1762,
1081,1080,1711,1711,1711,1711,1711,1711,1711,1711,1711,1711,1711,1711,1711,1711,1711,1711,1711,1711,1711,1711,1711,1711,1711,1711,1711,1711,1711,1711,1711,1711,1711,1711,1711,1711,1711,1711,1711,1711,1711,1711,1711,1711,1711,1711,1711,1711,1711,1711,1711,1711,1711,1711,1711,1711,1711,1711,1711,1711,1711,1711,1711,1711,1711,1711,1761,1762,
1761,1762,1711,1711,1711,1711,1711,1711,1711,1711,1711,1711,1711,1711,1711,1711,1711,1711,1711,1711,1711,1711,1711,1711,1711,1711,1711,1711,1711,1711,1711,1711,1711,1711,1711,1711,1711,1711,1711,1711,1711,1711,1711,1711,1711,1711,1711,1711,1711,1711,1711,1711,1711,1711,1711,1711,1711,1711,1711,1711,1711,1711,1711,1711,1711,1711,1761,1762,
1761,1762,1711,1711,1711,1711,1711,1711,1711,1711,1711,1711,1711,1711,1711,1711,1711,1711,1711,1711,1711,1711,1711,1711,1711,1711,1711,1711,1711,1711,1711,1711,1711,1711,1711,1711,1711,1711,1711,1711,1711,1711,1711,1711,1711,1711,1711,1711,1711,1711,1711,1711,1711,1711,1711,1711,1711,1711,1711,1711,1711,1711,1711,1711,1711,1711,1761,1762,
1761,1762,1711,1711,1711,1711,1711,1711,1711,1711,1711,1711,1711,1711,1711,1711,1711,1711,1711,1711,1711,1711,1711,1711,1711,1711,1711,1711,1711,1711,1711,1711,1711,1711,1711,1711,1711,1711,1711,1711,1711,1711,1711,1711,1711,1711,1711,1711,1711,1711,1711,1711,1711,1711,1711,1711,1711,1711,1711,1711,1711,1711,1711,1711,1711,1711,1761,1762,
1761,1762,1711,1711,1711,1711,1711,1711,1711,1711,1711,1711,1711,1711,1711,1466,1467,1466,1467,1711,1711,1711,1711,1711,1711,1711,1711,1711,1711,1711,1804,1711,1711,1711,1711,1711,1711,1711,1711,1466,1467,1466,1467,1711,1711,1711,1711,1711,1711,1711,1711,1711,1711,1711,1711,1711,1711,1711,1711,1711,1711,1711,1711,1711,1711,1711,1761,1762,
1761,1762,1711,1711,1711,1711,1711,1711,1711,1711,1711,1711,1711,1711,1711,1498,1499,1498,1499,1711,1711,1711,1711,1711,1711,1711,1711,1711,1770,1771,1772,1711,1711,1711,1711,1711,1711,1711,1711,1498,1499,1498,1499,1711,1711,1711,1711,1711,1711,1711,1711,1711,1711,1711,1711,1711,1711,1711,1711,1711,1711,1711,1711,1711,1711,1711,1761,1762,
1761,1762,1711,1711,1711,1711,1711,1711,1711,1711,1711,1711,1711,1711,1711,1466,1467,1466,1467,1711,1711,1711,1711,1711,1711,1711,1711,1711,1802,1803,1804,1711,1711,1711,1711,1711,1711,1711,1711,1466,1467,1466,1467,1711,1711,1711,1711,1711,1711,1711,1711,1711,1711,1711,1711,1711,1711,1711,1711,1711,1711,1711,1711,1711,1711,1711,1761,1762,
1761,1762,1711,1711,1711,1711,1711,1711,1711,1711,1711,1711,1711,1769,1711,1498,1499,1498,1499,1711,1711,1711,1711,1711,1711,1711,1711,1711,1741,1742,1711,1711,1711,1711,1711,1711,1711,1711,1711,1498,1499,1498,1499,1711,1711,1711,1711,1711,1711,1711,1711,1711,1711,1711,1711,1711,1711,1711,1711,1711,1711,1711,1335,1335,1335,1335,1761,1762,
1761,1762,1711,1711,1711,1711,1711,1711,1711,1711,1711,1711,1711,1801,1711,1466,1467,1466,1467,1711,1711,1711,1711,1711,1711,1711,1711,1711,1741,1742,1711,1711,1711,1711,1711,1711,1711,1711,1711,1466,1467,1466,1467,1711,1711,1711,1711,1711,1711,1711,1711,1711,1711,1711,1711,1711,1711,1711,1711,1711,1711,1711,1367,1367,1367,1367,1761,1762,
1761,1762,1711,1711,1711,1711,1711,1711,1711,1711,1711,1711,1711,1800,1711,1498,1499,1498,1499,1711,1711,1711,1711,1711,1711,1711,1711,1711,1709,1710,1711,1711,1711,1711,1711,1711,1711,1711,1711,1498,1499,1498,1499,1711,1711,1711,1711,1711,1711,1711,1711,1711,1711,1711,1711,1711,1711,1711,1711,1711,1711,1711,1399,1399,1399,1399,1761,1762,
1081,1080,1080,1080,1080,1080,1080,1080,1080,1080,1080,1080,1080,1080,1080,1080,1080,1080,1080,1080,1080,1080,1080,1080,1080,1080,1080,1080,1080,1080,1080,1080,1080,1080,1080,1080,1080,1080,1080,1080,1080,1080,1080,1080,1080,1080,1080,1080,1080,1080,1080,1080,1080,1080,1080,1080,1080,1080,1080,1080,1080,1080,1080,1080,1080,1080,1081,1080,
1050,1051,1050,1051,1052,1050,1051,1052,1052,1050,1051,1052,1051,1052,1051,1052,1050,1051,1052,1050,1051,1052,1050,1051,1052,1050,1051,1052,1050,1051,1052,1050,1051,1052,1052,1050,1051,1051,1052,1051,1052,1050,1051,1051,1052,1051,1052,1050,1051,1052,1050,1051,1052,1050,1051,1052,1050,1051,1052,1050,1051,1052,1050,1051,1052,1052,1050,1051,
940,941,939,940,941,939,940,941,941,939,940,941,940,941,940,941,939,940,941,939,940,941,939,940,941,939,940,941,939,940,941,939,940,941,941,939,940,940,941,940,941,939,940,940,941,940,941,939,940,941,939,940,941,939,940,941,939,940,941,939,940,941,939,940,941,941,939,940,
972,973,971,972,973,971,972,973,973,971,972,973,972,973,972,973,971,972,973,971,972,973,971,972,973,971,972,973,971,972,973,971,972,973,973,971,972,972,973,972,973,971,972,972,973,972,973,971,972,973,971,972,973,971,972,973,971,972,973,971,972,973,971,972,973,973,971,972,
476,476,476,476,476,476,476,476,476,476,476,476,476,476,476,476,476,476,476,476,476,476,476,476,476,476,476,476,476,476,476,476,476,476,476,476,476,476,476,476,476,476,476,476,476,476,476,476,476,476,476,476,476,476,476,476,476,476,476,476,476,476,476,476,476,476,476,476
</data>
 </layer>
</map>
