<?xml version="1.0" encoding="UTF-8"?>
<map version="1.10" tiledversion="1.11.2" orientation="orthogonal" renderorder="right-down" width="40" height="25" tilewidth="8" tileheight="8" infinite="0" nextlayerid="2" nextobjectid="1">
 <tileset firstgid="1" source="tiles.tsx"/>
 <layer id="1" name="Tile Layer 1" width="40" height="25">
  <data encoding="csv">
20,21,22,23,24,25,20,21,22,23,24,25,20,20,20,20,20,25,20,20,20,20,20,25,20,21,22,23,24,25,20,20,20,20,20,25,20,21,22,23,
52,53,54,55,56,57,52,53,54,55,56,57,20,20,20,20,20,20,20,20,20,20,20,20,52,53,54,55,56,57,20,20,20,20,20,20,52,53,54,55,
84,85,86,87,88,89,84,85,86,87,88,89,20,20,20,20,20,20,20,20,20,20,20,20,84,85,86,87,88,89,20,20,20,20,20,20,84,85,86,87,
116,117,118,119,120,121,116,117,118,119,120,121,20,20,20,20,20,20,20,20,20,20,20,20,116,117,118,119,120,121,20,20,20,20,20,20,116,117,118,119,
148,149,150,151,152,153,20,20,20,20,20,20,148,149,150,151,152,153,20,20,20,20,20,153,29,30,31,32,20,20,20,20,20,20,20,153,148,149,150,151,
180,181,182,183,184,185,20,20,20,20,20,20,180,181,182,183,184,185,20,20,20,20,20,20,61,62,63,64,20,20,20,20,20,20,20,20,180,181,182,183,
212,213,214,215,216,217,20,20,20,20,20,20,212,213,214,215,216,217,20,20,20,20,20,20,93,94,95,96,20,20,20,20,20,20,20,20,212,213,214,215,
244,245,246,247,248,249,20,20,20,20,20,20,244,245,246,247,248,249,20,20,20,20,20,20,125,126,127,128,20,20,244,20,20,20,20,249,244,245,246,247,
20,20,20,20,20,20,20,20,20,25,20,20,20,20,20,20,633,634,20,20,20,20,20,20,20,20,20,20,20,20,20,20,20,21,22,23,24,25,20,25,
20,20,20,20,20,20,20,20,20,20,20,20,20,20,20,20,665,666,1303,1304,1305,1306,1307,20,20,20,20,20,20,20,20,20,52,53,54,55,56,57,20,20,
20,20,20,20,20,20,20,20,20,20,20,20,20,20,20,20,20,20,20,1550,1551,1552,20,20,20,20,20,20,20,20,20,20,84,85,86,87,88,89,20,20,
20,20,20,20,20,21,22,23,24,25,20,20,20,20,20,20,20,21,22,23,24,25,20,20,20,20,20,20,20,20,20,20,116,117,118,119,120,121,20,20,
150,151,152,153,52,53,54,55,56,57,148,149,150,151,152,153,52,53,54,55,56,57,148,149,150,151,152,153,20,20,20,20,20,20,148,149,150,151,152,153,
182,183,184,185,84,85,86,87,88,89,180,181,182,183,184,185,84,85,86,87,88,89,180,181,182,183,184,185,20,21,22,23,24,25,180,181,182,183,184,185,
214,215,216,217,116,117,118,119,120,121,212,213,214,215,216,217,116,117,118,119,120,121,212,213,214,215,216,217,52,53,54,55,56,57,212,213,214,215,216,217,
246,247,248,249,244,20,20,20,20,20,25,245,246,247,248,249,244,20,20,20,20,249,244,245,246,247,248,249,84,85,86,87,88,89,244,245,246,247,248,249,
1281,1282,1283,1284,1285,1286,20,20,20,1281,1282,1283,1284,1285,1286,20,20,20,20,20,20,20,1281,1282,1283,1284,1285,1286,116,117,118,119,120,121,1281,1282,1283,1284,1285,1286,
1313,1314,1315,1316,1317,1318,1319,20,20,1313,1314,1315,1316,1317,1318,1319,20,20,20,20,20,20,1313,1314,1315,1316,1317,1318,20,20,20,20,20,25,1313,1314,1315,1316,1317,1318,
1345,1346,1347,1348,1349,1350,1351,20,20,1345,1346,1347,1348,1349,1350,1351,20,20,20,20,20,20,1345,1346,1347,1348,1349,1350,20,20,21,22,23,24,25,1346,1347,1348,1349,1350,
20,20,1588,1589,20,1382,20,20,20,20,20,1379,1380,20,20,20,20,21,22,23,24,25,20,20,1379,1380,20,1382,20,52,53,54,55,56,57,20,1379,1380,20,1382,
20,20,1411,1587,1558,20,20,20,20,20,20,1556,1557,20,20,153,52,53,54,55,56,57,20,20,1411,1412,153,20,20,84,85,86,87,88,89,20,1411,1412,153,20,
20,20,1443,1444,1555,1559,1560,1561,1562,1563,1590,1443,1444,20,20,20,84,85,86,87,88,89,20,20,1443,1444,20,20,20,116,117,118,119,120,121,20,1443,1444,20,20,
20,20,1475,1476,20,1591,1592,1593,1594,1595,1596,1475,1476,20,20,20,116,117,118,119,120,121,20,20,1475,1476,20,20,20,20,20,20,20,20,20,20,1475,1476,20,20,
20,20,1507,1508,249,249,20,21,22,23,24,1507,1508,20,20,249,249,249,670,671,20,20,20,20,1507,1508,249,249,20,20,670,671,20,20,20,20,1507,1508,249,249,
20,20,1475,1476,20,25,52,53,54,55,56,1475,1476,20,20,20,25,25,702,703,20,20,20,20,1475,1476,20,25,244,20,702,703,20,20,20,20,1475,1476,20,25
</data>
 </layer>
</map>
